<?xml version="1.0" encoding="UTF-8"?>
<map version="1.10" tiledversion="1.11.2" orientation="orthogonal" renderorder="right-down" width="60" height="40" tilewidth="16" tileheight="16" infinite="0" nextlayerid="7" nextobjectid="1">
 <tileset firstgid="1" source="../tilesets/Tileset/Grass16.tsx"/>
 <tileset firstgid="78" source="../tilesets/Tileset/Water.tsx"/>
 <tileset firstgid="82" source="../tilesets/Tileset/Tilled Dirt.tsx"/>
 <tileset firstgid="146" source="../tilesets/Tileset/Basic Grass Biom things 1.tsx"/>
 <tileset firstgid="191" source="../tilesets/Tileset/Wooden House.tsx"/>
 <tileset firstgid="226" source="../tilesets/Tileset/Fences.tsx"/>
 <layer id="1" name="Tile Layer 1" width="60" height="40" locked="1">
  <data encoding="csv">
58,58,58,58,58,58,58,58,58,58,58,58,58,58,58,58,58,58,58,58,58,58,58,58,58,58,58,84,84,84,84,84,84,58,58,58,58,58,58,58,58,58,58,58,58,58,58,58,58,58,58,58,58,58,58,58,58,58,58,58,
58,58,58,58,58,58,58,58,58,58,58,58,58,58,58,58,58,58,58,58,58,58,58,58,58,58,58,84,84,84,84,84,84,58,58,58,58,58,58,58,58,58,58,58,58,58,58,58,58,58,58,58,58,58,58,58,58,58,58,58,
58,58,58,58,58,58,58,58,58,58,58,58,58,58,58,58,58,58,58,58,58,58,58,58,58,58,58,84,84,84,84,84,84,58,58,58,58,58,58,58,58,58,58,58,58,58,58,58,58,58,58,58,58,58,58,58,58,58,58,58,
58,58,58,58,58,58,58,58,58,58,58,58,58,58,58,58,58,58,58,58,58,58,58,58,58,58,58,84,84,84,84,84,84,58,58,58,58,58,58,58,58,58,58,58,58,58,58,58,58,58,58,58,58,58,58,58,58,58,58,58,
58,58,58,58,58,58,58,58,58,58,58,58,58,58,58,58,58,58,58,58,58,58,58,58,58,58,58,84,84,84,84,84,84,58,58,58,58,58,58,58,58,58,58,58,58,58,58,58,58,58,58,58,58,58,58,58,58,58,58,58,
58,58,58,58,58,58,58,58,58,58,58,58,58,58,58,58,58,58,58,58,58,58,58,58,58,58,58,84,84,84,84,84,84,58,58,58,58,58,58,58,58,58,58,58,58,58,58,58,58,58,58,58,58,58,58,58,58,58,58,58,
58,58,58,58,58,58,58,58,58,58,58,58,58,58,58,58,58,58,58,58,58,58,58,58,58,58,58,84,84,84,84,84,84,58,58,58,58,58,58,58,58,58,58,58,58,58,58,58,58,58,58,58,58,58,58,58,58,58,58,58,
58,58,58,58,58,58,58,58,58,58,58,58,58,58,58,58,58,58,58,58,58,58,58,58,58,58,58,84,84,84,84,84,84,58,58,58,58,58,58,58,58,58,58,58,58,58,58,58,58,58,58,58,58,58,58,58,58,58,58,58,
58,58,58,58,58,58,58,58,58,58,58,58,58,58,58,58,58,58,58,58,58,58,58,58,58,58,58,84,84,84,84,84,84,58,58,58,58,58,58,58,58,58,58,58,58,58,58,58,58,58,58,58,58,58,58,58,58,58,58,58,
58,58,58,58,58,58,58,58,58,58,58,58,58,58,58,58,58,58,58,58,58,58,58,58,58,58,58,84,84,84,84,84,84,58,58,58,58,58,58,58,58,58,58,58,58,58,58,58,58,58,58,58,58,58,58,58,58,58,58,58,
58,58,58,58,58,58,58,58,58,58,58,58,58,58,58,58,58,58,58,58,58,58,58,58,58,58,58,84,84,84,84,84,84,58,58,58,58,58,58,58,58,58,58,58,58,58,58,58,58,58,58,58,58,58,58,58,58,58,58,58,
58,58,58,58,58,58,58,58,58,58,58,58,58,58,58,58,58,58,58,58,58,58,58,58,58,58,58,84,84,84,84,84,84,58,58,58,58,58,58,58,58,58,58,58,58,58,58,58,58,58,58,58,58,58,58,58,58,58,58,58,
58,58,58,58,58,58,58,58,58,58,58,58,58,58,58,58,58,58,58,58,58,58,58,58,58,58,58,84,84,84,84,84,84,58,58,58,58,58,58,58,58,58,58,58,58,58,58,58,58,58,58,58,58,58,58,58,58,58,58,58,
58,58,58,58,58,58,58,58,58,58,58,58,58,58,58,58,58,58,58,58,58,58,58,58,58,58,58,84,84,84,84,84,84,58,58,58,58,58,58,58,58,58,58,58,58,58,58,58,58,58,58,58,58,58,58,58,58,58,58,58,
58,58,58,58,58,58,58,58,58,58,58,58,58,58,58,58,58,58,58,58,58,58,58,58,58,58,58,84,84,84,84,84,84,58,58,58,58,58,58,58,58,58,58,58,58,58,58,58,58,58,58,58,58,58,58,58,58,58,58,58,
58,58,58,58,58,58,58,58,58,58,58,58,58,58,58,58,58,58,58,58,58,58,58,58,58,58,58,84,84,84,84,84,84,58,58,58,58,58,58,58,58,58,58,58,58,58,58,58,58,58,58,58,58,58,58,58,58,58,58,58,
58,58,58,58,58,58,58,58,58,58,58,58,58,58,58,58,58,58,58,58,58,58,58,58,58,58,58,84,84,84,84,84,84,58,58,58,58,58,58,58,58,58,58,58,58,58,58,58,58,58,58,58,58,58,58,58,58,58,58,58,
58,58,58,58,58,58,58,58,58,58,58,58,58,58,58,58,58,58,58,58,58,58,58,58,58,58,58,84,84,84,84,84,84,58,58,58,58,58,58,58,58,58,58,58,58,58,58,58,58,58,58,58,58,58,58,58,58,58,58,58,
79,58,58,58,58,58,58,58,58,58,58,58,58,58,58,58,58,58,58,58,58,58,58,58,58,58,58,58,58,58,58,58,58,58,58,58,58,58,58,58,58,58,58,58,58,58,58,58,58,58,58,58,58,58,58,58,58,58,58,58,
79,79,79,79,58,58,58,58,58,58,58,58,58,58,58,58,58,58,58,58,58,58,58,58,58,58,58,58,58,58,58,58,58,58,58,58,58,58,58,58,58,58,58,58,58,58,58,58,58,58,58,58,58,58,58,58,58,58,58,58,
79,79,79,79,79,79,79,58,58,58,58,58,58,58,58,58,58,58,58,58,58,58,58,58,58,58,58,58,58,58,58,58,58,58,58,58,58,58,58,58,58,58,58,58,58,58,58,58,58,58,58,58,58,58,58,58,58,58,58,58,
79,79,79,79,79,79,79,79,79,58,58,58,58,58,58,58,58,58,58,58,58,58,58,58,58,58,58,58,58,58,58,58,58,58,58,58,58,58,58,58,58,58,58,58,58,58,58,58,58,58,58,58,58,58,58,58,58,58,58,58,
79,79,79,79,79,79,79,79,79,79,58,58,58,58,58,58,58,58,58,58,58,58,58,58,58,58,58,58,58,58,58,58,58,58,58,58,58,58,58,58,58,58,58,58,58,58,58,58,58,58,58,58,58,58,58,58,58,58,58,58,
79,79,79,79,79,79,79,79,79,79,58,58,58,58,58,58,58,58,58,58,58,58,58,58,58,58,58,58,58,58,58,58,58,58,58,58,58,58,58,58,58,58,58,58,58,58,58,58,58,58,58,58,58,58,58,58,58,58,58,58,
79,79,79,79,79,79,79,79,79,79,58,58,58,58,58,58,58,58,58,58,58,58,58,58,58,58,58,58,58,58,58,58,58,58,58,58,58,58,58,58,58,58,58,58,58,58,58,58,58,58,58,58,58,58,58,58,58,58,58,58,
79,79,79,79,79,79,79,79,79,79,79,58,58,58,58,58,58,58,58,58,58,58,58,58,58,58,58,58,58,58,58,58,58,58,58,58,58,58,58,58,58,58,58,58,58,58,58,58,58,58,58,58,58,58,58,58,58,58,58,79,
79,79,79,79,79,79,79,79,79,79,79,58,58,58,58,58,58,58,58,58,58,58,58,58,58,58,58,58,58,58,58,58,58,58,58,58,58,58,58,58,58,58,58,58,58,58,58,58,58,58,58,58,58,58,58,58,58,58,79,79,
79,79,79,79,79,79,79,79,79,79,79,58,58,58,58,58,58,58,58,58,58,58,58,58,58,58,58,58,58,58,58,58,58,58,58,58,58,58,58,58,58,58,58,58,58,58,58,58,58,58,58,58,58,58,58,58,58,79,79,79,
79,79,79,79,79,79,79,79,79,79,79,58,58,58,58,58,58,58,58,58,58,58,58,58,58,58,58,58,58,58,58,58,58,58,58,58,58,58,58,58,58,58,58,58,58,58,58,58,58,58,58,58,58,58,58,58,79,79,79,79,
79,79,79,79,79,79,79,79,79,79,79,79,58,58,58,58,58,58,58,58,58,58,58,58,58,58,58,58,58,58,58,58,58,58,58,58,58,58,58,58,58,58,58,58,58,58,58,58,58,58,58,58,58,58,58,79,79,79,79,79,
79,79,79,79,79,79,79,79,79,79,79,79,79,58,58,58,58,58,58,58,58,58,58,58,58,58,58,58,58,58,58,58,58,58,58,58,58,58,58,58,58,58,58,58,58,58,58,58,58,58,58,58,58,58,58,79,79,79,79,79,
79,79,79,79,79,79,79,79,79,79,79,79,79,58,58,58,58,58,58,58,58,58,58,58,58,58,58,58,58,58,58,58,58,58,58,58,58,58,58,58,58,58,58,58,58,58,58,58,58,58,58,58,58,58,79,79,79,79,79,79,
79,79,79,79,79,79,79,79,79,79,79,79,79,79,58,58,58,58,58,58,58,58,58,58,58,58,58,58,58,58,58,58,58,58,58,58,58,58,58,58,58,58,58,58,58,58,58,58,58,58,58,58,58,79,79,79,79,79,79,79,
79,79,79,79,79,79,79,79,79,79,79,79,79,79,79,79,79,79,79,58,58,58,58,58,58,58,58,58,58,58,58,58,58,58,58,58,58,58,58,58,58,58,58,58,58,58,58,58,58,58,58,58,79,79,79,79,79,79,79,79,
79,79,79,79,79,79,79,79,79,79,79,79,79,79,79,79,79,79,79,79,79,58,58,58,58,58,58,58,58,58,58,58,58,58,58,58,58,58,58,58,58,58,58,58,58,58,58,58,79,79,79,79,79,79,79,79,79,79,79,79,
79,79,79,79,79,79,79,79,79,79,79,79,79,79,79,79,79,79,79,79,79,79,58,58,58,58,58,58,58,58,58,58,58,58,58,58,58,58,58,58,58,58,58,58,58,79,79,79,79,79,79,79,79,79,79,79,79,79,79,79,
79,79,79,79,79,79,79,79,79,79,79,79,79,79,79,79,79,79,79,79,79,79,79,58,58,58,58,58,58,58,58,58,58,58,58,58,58,58,58,58,58,58,58,58,79,79,79,79,79,79,79,79,79,79,79,79,79,79,79,79,
79,79,79,79,79,79,79,79,79,79,79,79,79,79,79,79,79,79,79,79,79,79,79,79,79,58,58,58,58,58,58,58,58,58,58,58,58,58,58,58,58,58,58,79,79,79,79,79,79,79,79,79,79,79,79,79,79,79,79,79,
79,79,79,79,79,79,79,79,79,79,79,79,79,79,79,79,79,79,79,79,79,79,79,79,79,79,58,58,58,58,58,58,58,58,58,58,58,58,58,58,58,58,58,79,79,79,79,79,79,79,79,79,79,79,79,79,79,79,79,79,
79,79,79,79,79,79,79,79,79,79,79,79,79,79,79,79,79,79,79,79,79,79,79,79,79,79,79,58,58,58,58,58,58,58,58,58,58,58,58,58,58,79,79,79,79,79,79,79,79,79,79,79,79,79,79,79,79,79,79,79
</data>
 </layer>
 <layer id="6" name="Colisiones" width="60" height="40" locked="1">
  <data encoding="csv">
96,96,96,96,96,96,96,96,96,96,96,96,96,96,96,96,96,96,96,96,96,96,96,96,96,96,96,0,0,0,0,0,0,96,96,96,96,96,96,96,96,96,96,96,96,96,96,96,96,96,96,96,96,96,96,96,96,96,96,96,
96,96,96,96,0,96,96,96,96,96,96,96,96,0,0,0,96,96,96,96,0,0,0,0,0,0,0,0,0,0,0,0,0,0,96,96,0,0,0,0,96,0,0,96,96,0,0,0,0,0,0,0,0,0,0,96,96,0,0,96,
96,0,96,96,0,0,0,0,0,96,96,96,96,0,0,0,0,0,96,96,96,0,0,0,0,0,0,0,0,0,0,0,0,0,0,0,0,0,0,0,96,0,0,96,96,0,0,0,0,0,0,0,0,0,0,96,96,0,0,96,
96,96,96,96,96,96,96,96,96,96,96,96,96,96,96,96,96,96,0,96,96,0,0,96,96,0,0,0,0,0,0,0,0,0,0,0,0,0,0,0,0,0,0,0,96,0,0,0,0,0,0,0,0,0,0,0,96,0,0,96,
96,96,96,96,0,0,0,0,0,0,0,0,0,0,0,0,0,96,0,0,96,0,0,96,96,0,0,0,0,0,0,0,0,0,0,0,96,96,0,0,0,0,0,0,0,0,0,0,0,0,96,96,0,0,0,0,0,0,0,96,
96,0,0,96,96,96,96,96,96,96,0,0,0,96,96,96,96,96,0,0,96,0,0,96,0,0,0,0,0,0,0,0,0,0,0,0,96,96,0,0,0,0,0,0,0,0,0,0,0,0,96,96,0,0,0,0,0,0,0,96,
96,0,0,0,0,0,0,0,0,96,96,96,96,96,96,0,0,96,96,0,96,0,0,0,0,0,0,0,0,0,0,0,0,0,0,96,0,96,0,0,0,0,0,0,0,0,0,0,0,0,96,0,0,0,0,0,0,0,0,96,
96,96,96,0,0,0,0,0,0,0,0,0,0,0,0,0,0,96,96,0,96,0,0,0,0,0,0,0,0,0,0,0,0,0,0,96,0,0,0,0,0,0,0,0,96,96,0,0,0,0,0,0,0,0,0,0,0,0,0,96,
96,96,96,96,96,96,96,96,96,96,0,0,0,0,0,96,96,96,96,96,96,0,96,0,0,0,0,0,0,0,0,0,0,0,0,0,0,0,0,0,96,96,0,0,96,96,0,0,0,0,0,0,0,0,0,0,0,0,0,96,
96,96,0,0,0,0,0,0,0,0,96,96,0,0,0,96,96,96,0,0,0,0,96,0,0,0,0,0,0,0,0,0,0,0,0,0,0,0,0,0,96,96,0,0,96,0,0,0,0,0,0,0,0,0,0,0,0,0,0,96,
96,0,0,0,0,0,0,0,0,96,96,96,0,0,0,0,96,96,0,0,0,0,0,96,96,96,0,0,0,0,0,0,0,0,0,0,96,96,0,0,0,0,0,0,0,0,0,0,0,0,0,0,0,0,96,96,96,0,0,96,
96,0,0,0,0,0,0,0,0,96,0,0,0,0,0,0,0,0,0,0,0,0,96,96,96,96,0,0,0,0,0,0,0,0,0,0,96,96,0,0,0,0,0,0,0,0,0,0,0,0,0,0,0,0,96,96,96,0,0,96,
96,0,0,0,0,0,0,0,96,96,96,0,0,0,0,0,0,0,0,0,0,0,96,96,0,0,0,0,0,0,0,0,0,0,0,0,0,0,0,0,0,0,0,0,0,0,0,0,0,0,0,0,0,0,0,0,0,0,0,96,
96,96,96,96,0,0,0,96,96,96,96,0,0,96,96,0,96,96,0,0,0,0,0,0,0,0,0,0,0,0,0,0,0,0,0,0,0,0,0,0,0,0,0,0,0,0,0,96,96,0,0,0,0,0,0,0,0,0,0,96,
96,96,96,96,0,0,0,96,0,0,0,0,0,96,96,0,96,96,96,0,0,96,0,0,0,0,0,0,0,0,0,0,0,0,0,0,0,0,0,0,0,96,96,0,0,0,0,96,96,0,0,0,0,0,0,96,0,0,0,96,
96,0,0,96,96,96,0,0,0,0,0,0,0,0,0,0,0,96,96,0,0,96,0,0,0,0,0,0,0,0,0,0,0,0,0,0,0,0,0,96,0,96,96,0,0,0,0,96,0,0,0,0,0,0,0,96,0,0,0,96,
96,96,96,96,96,96,0,0,0,96,96,96,96,0,0,0,0,0,0,0,0,0,0,0,0,0,0,0,0,0,0,0,0,0,0,0,96,96,0,96,0,96,0,0,0,0,0,0,0,0,0,0,0,0,0,96,96,0,0,96,
96,96,96,0,0,0,0,0,0,96,96,96,96,0,0,0,0,0,96,96,0,0,0,0,0,0,0,0,0,0,0,0,0,0,0,0,96,96,0,0,0,0,0,0,0,0,0,0,0,0,0,0,0,0,0,96,96,0,0,96,
96,0,0,96,96,96,0,0,0,0,0,0,0,0,0,0,0,0,96,96,96,0,0,0,0,0,0,0,0,0,0,0,0,0,0,0,0,0,0,0,0,0,0,0,0,0,0,0,0,0,0,0,0,0,0,0,0,0,0,96,
96,96,96,96,96,96,0,0,0,0,0,0,0,0,0,96,0,0,0,96,96,0,0,96,0,0,0,0,96,96,0,0,0,0,0,0,0,0,0,0,0,0,0,0,0,0,0,0,96,96,0,0,0,0,0,0,0,0,0,96,
96,96,96,96,96,96,96,96,96,0,0,0,0,0,0,96,0,0,0,0,0,0,0,96,0,0,0,0,96,96,0,0,0,96,96,0,0,0,0,0,0,0,0,0,0,0,0,0,96,96,0,0,0,0,0,0,0,0,0,96,
96,96,96,96,96,96,96,96,96,0,0,0,0,96,96,96,0,0,0,0,0,0,96,0,0,96,96,0,0,0,0,0,0,96,96,0,0,0,0,0,0,96,96,0,0,0,0,0,0,0,0,0,0,96,0,0,0,0,0,96,
96,96,96,96,96,96,96,96,96,96,0,0,0,96,96,96,0,0,96,96,0,0,96,0,96,96,96,0,0,0,96,96,0,0,0,0,0,0,0,0,0,96,96,0,0,0,0,0,0,0,0,0,0,96,96,96,0,0,0,96,
96,96,96,96,96,96,96,96,96,96,0,0,0,0,0,0,0,0,96,96,96,0,0,0,96,96,0,0,0,96,96,96,0,0,0,0,0,96,96,0,0,0,0,0,0,0,0,96,96,0,0,0,0,0,96,96,0,0,0,96,
96,96,96,96,96,96,96,96,96,96,96,0,96,0,0,0,0,0,0,96,96,0,0,0,0,0,0,0,0,96,96,0,0,0,96,0,0,96,96,0,0,0,0,0,0,0,0,96,96,0,0,0,0,0,0,0,0,96,96,96,
96,96,96,96,96,96,96,96,96,96,96,0,96,0,0,0,0,0,0,0,0,0,0,0,0,0,0,0,0,0,0,0,0,0,96,0,0,0,0,0,0,0,0,0,0,0,0,0,0,0,0,0,0,0,0,0,0,0,0,96,
96,96,96,96,96,96,96,96,96,96,96,0,0,0,96,96,0,96,0,0,0,0,0,96,0,0,96,96,0,0,0,0,0,0,0,0,0,0,0,0,0,0,0,0,0,0,0,0,0,0,0,0,0,0,0,0,0,0,96,96,
96,96,96,96,96,96,96,96,96,96,96,0,0,0,96,96,96,96,0,96,96,0,0,96,0,96,96,96,0,0,0,0,0,0,0,0,0,0,0,0,0,0,0,0,0,0,96,0,0,0,0,0,0,0,0,0,0,96,96,96,
96,96,96,96,96,96,96,96,96,96,96,0,0,0,0,96,96,0,0,96,96,96,0,0,0,96,96,0,0,0,0,0,0,96,0,0,0,0,0,0,0,0,0,0,0,0,96,96,96,0,0,0,0,0,0,0,96,96,96,96,
96,96,96,96,96,96,96,96,96,96,96,96,0,0,0,0,0,0,0,0,96,96,0,0,0,0,0,0,96,96,0,0,0,96,0,0,0,0,0,0,0,0,0,0,0,0,0,96,96,0,0,0,0,0,0,96,96,96,96,96,
96,96,96,96,96,96,96,96,96,96,96,96,96,0,0,0,0,0,0,0,0,0,0,0,96,0,0,96,96,96,0,0,0,0,0,0,0,0,96,96,0,0,0,0,0,0,0,0,0,0,0,0,0,0,0,96,96,96,96,96,
96,96,96,96,96,96,96,96,96,96,96,96,96,0,0,0,0,0,96,0,0,0,0,0,96,0,0,96,96,0,0,0,96,0,0,0,0,0,96,96,0,0,96,0,0,0,0,0,0,0,0,0,0,0,96,96,96,96,96,96,
96,96,96,96,96,96,96,96,96,96,96,96,96,96,0,0,0,0,96,0,0,0,96,96,0,0,0,0,0,0,0,0,96,0,0,0,0,0,0,0,0,96,96,0,0,0,0,0,0,0,96,96,96,96,96,96,96,96,96,96,
96,96,96,96,96,96,96,96,96,96,96,96,96,96,96,96,96,96,96,0,0,0,96,96,96,0,0,0,0,0,0,0,0,0,0,0,0,0,0,0,0,96,96,0,0,0,0,0,0,0,0,0,96,96,96,96,96,96,96,96,
96,96,96,96,96,96,96,96,96,96,96,96,96,96,96,96,96,96,96,96,96,0,0,96,96,0,0,0,0,0,0,0,0,0,0,0,0,0,0,0,0,0,0,0,0,0,0,0,96,96,96,96,96,96,96,96,96,96,96,96,
96,96,96,96,96,96,96,96,96,96,96,96,96,96,96,96,96,96,96,96,96,96,0,0,0,96,0,0,0,0,96,96,0,0,0,0,0,0,0,0,0,0,0,0,0,96,96,96,96,96,96,96,96,96,96,96,96,96,96,96,
96,96,96,96,96,96,96,96,96,96,96,96,96,96,96,96,96,96,96,96,96,96,96,0,0,96,0,0,0,0,96,96,96,0,0,0,0,0,0,0,0,0,0,0,96,96,96,96,96,96,96,96,96,96,96,96,96,96,96,96,
96,96,96,96,96,96,96,96,96,96,96,96,96,96,96,96,96,96,96,96,96,96,96,96,96,0,0,0,0,0,0,96,96,0,0,96,96,0,0,0,0,0,0,96,96,96,96,96,96,96,96,96,96,96,96,96,96,96,96,96,
96,96,96,96,96,96,96,96,96,96,96,96,96,96,96,96,96,96,96,96,96,96,96,96,96,96,0,0,0,0,96,0,0,0,0,96,96,0,0,0,0,0,0,96,96,96,96,96,96,96,96,96,96,96,96,96,96,96,96,96,
96,96,96,96,96,96,96,96,96,96,96,96,96,96,96,96,96,96,96,96,96,96,96,96,96,96,96,96,96,96,96,96,96,96,96,96,96,96,96,96,96,96,96,96,96,96,96,96,96,96,96,96,96,96,96,96,96,96,96,96
</data>
 </layer>
 <layer id="2" name="Tile Layer 2" width="60" height="40" locked="1">
  <data encoding="csv">
0,0,0,0,0,0,0,0,0,0,0,0,0,0,0,0,0,0,0,0,0,0,0,0,0,0,85,0,0,0,0,0,0,86,0,0,0,0,0,0,0,0,0,0,0,0,0,0,0,0,0,0,0,0,0,0,0,0,0,0,
0,0,0,0,0,0,0,0,0,0,0,0,0,0,0,0,0,0,147,148,0,0,0,0,0,0,93,0,0,0,0,0,0,94,0,0,0,0,0,0,0,0,0,147,148,0,0,0,0,0,0,0,0,0,0,147,148,0,0,0,
0,0,0,0,0,0,0,0,0,0,0,0,0,0,0,0,0,0,156,157,0,0,0,0,0,0,85,0,0,0,0,0,0,86,0,0,0,0,0,0,0,0,0,156,157,0,0,0,0,0,0,0,0,0,0,156,157,0,0,0,
0,0,0,0,0,0,0,0,0,0,0,0,0,0,0,0,0,0,0,0,0,0,0,147,148,0,93,0,0,0,0,0,0,94,0,0,0,0,0,0,0,0,0,0,0,0,0,0,0,0,0,0,0,0,0,0,0,0,0,0,
0,0,0,0,0,0,0,0,0,0,0,0,0,0,0,0,0,0,0,0,0,0,0,156,157,0,85,0,0,0,0,0,0,86,0,0,147,148,0,0,0,0,0,0,0,0,0,0,0,0,147,148,0,0,0,0,0,0,0,0,
0,0,0,0,0,0,0,0,0,0,0,0,0,0,0,0,0,0,0,0,0,0,0,0,0,0,93,0,0,0,0,0,0,94,0,0,156,157,0,0,0,0,0,0,0,0,0,0,0,0,156,157,0,0,0,0,0,0,0,0,
0,0,0,0,0,0,0,0,0,0,0,0,0,0,0,0,0,0,0,0,0,0,0,0,0,0,85,0,0,0,0,0,0,86,0,0,0,0,0,0,0,0,0,0,0,0,0,0,0,0,0,0,0,0,0,0,0,0,0,0,
0,147,148,0,0,0,0,0,0,0,0,0,0,0,0,0,0,0,0,0,0,0,0,0,0,0,93,0,0,0,0,0,0,94,0,0,0,0,0,0,0,0,0,0,147,148,0,0,0,0,0,0,0,0,0,0,0,0,0,0,
0,156,157,0,0,0,0,0,0,0,0,0,0,0,0,0,0,0,0,0,0,0,0,0,0,0,85,0,0,0,0,0,0,86,0,0,0,0,0,0,0,0,0,0,156,157,0,0,0,0,0,0,0,0,0,0,0,0,0,0,
0,0,0,0,0,0,0,0,0,0,147,148,0,0,0,0,147,148,0,0,0,0,0,0,0,0,93,0,0,0,0,0,0,94,0,0,0,0,0,0,0,0,0,0,0,0,0,0,0,0,0,0,0,0,0,0,0,0,0,0,
0,0,0,0,0,0,0,0,0,0,156,157,0,0,0,0,156,157,0,0,0,0,0,0,0,146,85,0,0,0,0,0,0,86,0,0,0,0,0,0,0,0,0,0,0,0,0,0,0,0,0,0,0,0,147,148,0,0,0,0,
0,0,0,0,0,0,0,0,0,0,0,0,0,0,0,0,0,0,0,0,0,0,147,148,0,155,93,0,0,0,0,0,0,94,0,0,0,0,0,0,0,0,0,0,0,0,0,0,0,0,0,0,0,0,156,157,0,0,0,0,
0,0,0,0,0,0,0,0,147,148,0,0,0,0,0,0,0,0,0,0,0,0,156,157,0,0,85,0,0,0,0,0,0,86,0,0,0,0,0,0,0,0,0,0,0,0,0,0,0,0,0,0,0,0,0,0,0,0,0,0,
0,147,148,0,0,0,0,0,156,157,0,0,0,0,0,0,0,0,0,0,0,0,0,0,0,0,93,0,0,0,0,0,0,94,0,0,0,0,0,0,0,0,0,0,0,0,0,147,148,0,0,0,0,0,0,0,0,0,0,0,
0,156,157,0,0,0,0,0,0,0,0,0,0,0,0,0,0,147,148,0,0,0,0,0,0,0,85,0,0,0,0,0,0,86,0,0,0,0,0,0,0,147,148,0,0,0,0,156,157,0,0,0,0,0,0,0,0,0,0,0,
0,0,0,147,148,0,0,0,0,0,0,0,0,0,0,0,0,156,157,0,0,0,0,0,0,0,93,0,0,0,0,0,0,94,0,0,0,0,0,0,0,156,157,0,0,0,0,0,0,0,0,0,0,0,0,0,0,0,0,0,
147,148,0,156,157,0,0,0,0,147,148,0,0,0,0,0,0,0,0,0,0,0,0,0,0,0,85,0,0,0,0,0,0,86,0,0,0,0,0,0,0,0,0,0,0,0,0,0,0,0,0,0,0,0,0,147,148,0,0,0,
156,157,0,0,0,0,0,0,0,156,157,0,0,0,0,0,0,0,0,0,0,0,0,0,0,0,93,0,0,0,0,0,0,94,0,0,0,0,0,0,0,0,0,0,0,0,0,0,0,0,0,0,0,0,0,156,157,0,0,0,
0,0,0,147,148,0,0,0,0,0,0,0,0,0,0,0,0,0,0,147,148,0,0,0,0,0,123,124,124,124,124,124,124,125,0,0,0,0,0,0,0,0,0,0,0,0,0,0,0,0,0,0,0,0,0,0,0,0,0,0,
0,0,0,156,157,0,0,0,0,0,0,0,0,0,0,0,0,0,0,156,157,0,0,0,0,0,0,0,0,0,0,0,0,0,0,0,0,0,0,0,0,0,0,0,0,0,0,0,147,148,0,0,0,0,0,0,0,0,0,0,
0,190,0,0,0,0,0,147,148,0,0,0,0,0,0,0,0,0,0,0,0,0,0,0,0,0,0,0,0,0,0,0,0,0,0,0,0,0,0,0,0,0,0,0,0,0,0,0,156,157,0,0,0,0,0,0,0,0,0,0,
0,0,0,0,0,0,0,156,157,0,0,0,0,0,147,148,0,0,0,0,0,0,146,0,0,0,0,0,0,0,0,0,0,0,0,0,0,0,0,0,0,147,148,0,0,0,0,0,0,0,0,0,0,0,0,0,0,0,0,0,
0,0,0,0,0,0,188,0,0,189,0,0,0,0,156,157,0,0,0,0,0,0,155,0,147,148,0,0,0,0,0,0,0,0,0,0,0,0,0,0,0,156,157,0,0,0,0,0,0,0,0,0,0,0,147,148,0,0,0,0,
0,188,0,0,0,0,0,0,0,0,0,0,0,0,0,0,0,0,0,147,148,0,0,0,156,157,0,0,0,147,148,0,0,0,0,0,0,147,148,0,0,0,0,0,0,0,0,147,148,0,0,0,0,0,156,157,0,0,0,0,
0,0,0,0,0,0,0,0,190,0,0,0,0,0,0,0,0,0,0,156,157,0,0,0,0,0,0,0,0,156,157,0,0,0,0,0,0,156,157,0,0,0,0,0,0,0,0,156,157,0,0,0,0,0,0,0,0,0,0,0,
0,0,0,0,0,0,0,0,0,0,0,0,0,0,0,0,0,0,0,0,0,0,0,0,0,0,0,0,0,0,0,0,0,0,0,0,0,0,0,0,0,0,0,0,0,0,0,0,0,0,0,0,0,0,0,0,0,0,0,0,
0,0,0,0,190,0,0,0,0,0,188,0,0,0,0,0,0,0,0,0,0,0,0,0,0,0,0,0,0,0,0,0,0,0,0,0,0,0,0,0,0,0,0,0,0,0,0,0,0,0,0,0,0,0,0,0,0,0,0,0,
0,0,0,0,0,0,0,0,0,0,0,0,0,0,0,147,148,0,0,0,0,0,0,0,0,147,148,0,0,0,0,0,0,0,0,0,0,0,0,0,0,0,0,0,0,0,0,0,0,0,0,0,0,0,0,0,0,0,0,0,
0,0,0,0,0,0,0,0,0,0,0,0,0,0,0,156,157,0,0,0,147,148,0,0,0,156,157,0,0,0,0,0,0,146,0,0,0,0,0,0,0,0,0,0,0,0,0,147,148,0,0,0,0,0,0,0,0,0,0,0,
0,0,0,189,0,0,0,0,0,0,0,0,0,0,0,0,0,0,0,0,156,157,0,0,0,0,0,0,0,0,0,0,0,155,0,0,0,0,0,0,0,0,0,0,0,0,0,156,157,0,0,0,0,0,0,0,0,0,0,0,
0,0,0,0,0,0,0,0,0,0,0,0,0,0,0,0,0,0,0,0,0,0,0,0,0,0,0,147,148,0,0,0,0,0,0,0,0,0,147,148,0,0,0,0,0,0,0,0,0,0,0,0,0,0,0,0,0,0,0,0,
0,0,0,0,0,0,0,190,0,0,0,0,0,0,0,0,0,0,0,0,0,0,0,0,0,0,0,156,157,0,0,0,0,0,0,0,0,0,156,157,0,0,0,0,0,0,0,0,0,0,0,0,0,0,0,0,0,0,0,0,
0,0,190,0,0,0,0,0,0,0,0,0,0,0,0,0,0,0,0,0,0,0,0,0,0,0,0,0,0,0,0,0,0,0,0,0,0,0,0,0,0,147,148,0,0,0,0,0,0,0,0,0,0,0,0,0,0,0,0,0,
0,0,0,0,0,0,0,0,0,0,188,0,0,0,0,0,0,187,188,0,0,0,0,147,148,0,0,0,0,0,0,0,0,0,0,0,0,0,0,0,0,156,157,0,0,0,0,0,0,0,0,0,0,0,0,0,0,0,0,0,
0,0,0,0,188,0,0,0,0,0,0,0,189,0,0,0,0,0,0,0,0,0,0,156,157,0,0,0,0,0,0,0,0,0,0,0,0,0,0,0,0,0,0,0,0,0,0,0,0,0,0,0,0,0,0,0,0,0,0,0,
0,0,0,0,0,0,0,0,0,0,0,0,0,0,0,0,0,0,0,189,0,0,0,0,0,0,0,0,0,0,0,0,0,0,0,0,0,0,0,0,0,0,0,0,0,0,0,0,0,0,0,0,0,0,0,0,0,0,0,0,
0,0,0,0,0,0,0,0,0,0,190,0,0,0,0,190,0,0,0,0,0,0,0,0,0,0,0,0,0,0,0,147,148,0,0,0,0,0,0,0,0,0,0,0,0,0,0,0,0,0,0,0,0,0,0,0,0,0,0,0,
0,0,0,0,190,0,0,0,0,0,0,0,0,0,0,0,0,0,0,0,0,0,0,0,188,0,0,0,0,0,0,156,157,0,0,147,148,0,0,0,0,0,0,0,0,0,0,0,0,0,0,0,0,0,0,0,0,0,0,0,
0,0,188,0,0,0,0,0,0,0,0,0,188,0,0,0,0,0,190,0,0,0,0,0,0,0,0,0,0,0,146,0,0,0,0,156,157,0,0,0,0,0,0,0,0,0,0,0,0,0,0,0,0,0,0,0,0,0,0,0,
0,0,0,0,0,0,0,0,0,0,0,0,0,0,0,0,0,0,0,0,0,0,189,0,0,0,0,0,0,0,155,0,0,0,0,0,0,0,0,0,0,0,0,0,0,0,0,0,0,0,0,0,0,0,0,0,0,0,0,0
</data>
 </layer>
 <layer id="3" name="Tile Layer 3" width="60" height="40" locked="1">
  <data encoding="csv">
0,0,0,0,0,0,0,0,0,0,0,0,0,0,0,0,0,0,0,0,0,0,0,0,0,0,0,0,0,0,0,0,0,0,0,0,0,0,0,0,0,0,0,0,0,0,0,0,0,0,0,0,0,0,0,0,0,0,0,0,
0,0,0,0,0,0,0,0,0,0,0,0,0,0,0,0,0,0,0,0,0,0,0,0,151,0,0,0,0,0,0,0,0,0,0,0,0,0,0,0,0,0,0,0,0,0,0,0,0,0,0,0,0,154,0,0,0,0,0,0,
0,0,0,0,0,0,0,0,0,0,0,0,0,0,0,0,0,0,0,146,0,0,0,0,0,0,0,0,0,0,0,0,0,0,0,0,0,0,151,0,0,0,0,0,146,0,0,0,0,151,0,0,0,0,0,0,146,0,0,0,
0,0,0,209,210,210,210,210,210,210,210,210,210,210,210,210,210,211,0,155,0,0,0,0,0,0,0,0,0,0,0,0,0,0,0,0,0,0,0,0,0,0,0,0,155,0,0,0,0,0,0,0,0,0,0,0,155,0,0,0,
0,0,0,216,217,217,217,217,217,217,217,217,217,217,217,217,217,218,0,0,0,0,0,146,0,0,0,0,0,0,0,0,0,0,0,0,0,0,0,0,0,0,0,0,0,0,154,0,0,0,0,0,0,0,0,0,0,0,0,0,
0,0,0,212,213,213,213,213,213,213,217,217,217,217,213,213,213,214,0,0,0,0,0,155,0,0,0,0,0,0,0,0,0,0,0,0,0,146,0,0,154,0,0,0,0,0,0,0,0,0,146,0,0,0,0,0,0,0,0,0,
0,0,0,0,0,0,0,0,0,212,192,213,201,192,214,0,0,0,0,151,0,0,0,0,0,0,0,0,0,0,0,0,0,0,0,0,0,155,0,0,0,0,0,0,0,0,0,0,0,0,155,0,0,0,151,0,0,0,0,0,
0,0,0,0,0,0,0,0,0,0,0,0,0,151,0,0,0,0,0,0,0,0,0,151,0,0,0,0,0,0,0,0,0,0,0,0,0,0,0,0,0,0,0,0,0,0,0,0,0,0,0,0,0,0,0,0,0,154,0,0,
0,146,0,0,0,0,0,0,0,0,0,0,0,0,0,146,0,0,0,0,0,0,146,0,0,0,0,0,0,0,0,0,0,0,0,0,0,0,0,0,0,0,0,0,146,0,0,0,151,0,0,0,0,0,0,0,0,0,0,0,
0,155,0,0,0,0,0,0,0,0,0,0,0,0,0,155,0,0,0,0,0,0,155,0,0,0,0,0,0,0,0,0,0,0,0,0,0,0,0,0,0,0,0,0,155,0,0,0,0,0,0,0,0,0,0,0,0,0,0,0,
0,0,0,0,0,151,0,0,0,146,0,0,0,0,151,0,0,0,0,0,0,0,0,149,150,0,0,0,0,0,0,0,0,0,0,0,0,0,0,0,0,0,0,0,0,0,0,0,0,0,0,0,0,0,0,0,146,0,0,0,
0,0,0,0,0,0,151,0,0,155,0,0,0,0,0,0,0,0,0,151,0,0,0,158,159,0,0,0,0,0,0,0,0,0,0,0,0,0,0,0,0,0,0,0,0,0,0,0,0,0,0,0,0,0,0,0,155,0,0,0,
0,0,0,151,0,0,0,0,0,149,150,0,0,0,0,0,0,0,0,0,0,0,0,0,0,0,0,0,0,0,0,0,0,0,0,0,0,0,0,151,0,0,0,0,154,0,0,0,0,0,0,0,151,0,0,0,0,0,0,0,
0,0,149,150,0,0,0,146,0,158,159,0,0,149,150,0,149,150,0,0,0,0,0,0,0,0,0,0,0,0,0,0,0,0,0,0,0,0,0,0,0,0,0,0,0,0,0,0,0,0,0,0,0,0,0,0,0,161,0,0,
0,0,158,159,0,0,0,155,0,0,0,0,0,158,159,0,158,159,0,0,0,146,0,0,0,0,0,0,0,0,0,0,0,0,0,0,0,0,0,0,0,0,0,0,0,0,0,146,0,0,0,0,0,0,0,146,0,0,0,0,
0,0,0,0,149,150,0,0,0,0,0,0,0,0,0,0,0,0,0,0,0,155,0,0,0,0,0,0,0,0,0,0,0,0,0,0,0,0,0,0,0,146,0,0,0,0,0,155,0,0,0,0,0,0,0,155,0,0,0,161,
0,149,150,0,158,159,151,0,0,0,0,149,150,0,0,0,0,0,0,0,0,0,0,0,0,0,0,0,0,0,0,0,0,0,0,0,0,0,0,0,0,155,0,0,152,0,0,0,0,161,0,0,0,0,0,0,0,0,0,161,
0,158,159,0,0,0,0,0,0,0,0,158,159,151,0,0,0,0,149,150,0,0,0,180,0,151,0,0,0,0,0,0,0,0,0,0,0,0,0,0,0,0,0,0,0,0,0,0,0,0,0,151,0,0,0,0,0,0,0,0,
0,0,0,0,149,150,0,0,180,0,0,0,0,0,0,0,0,0,158,159,0,0,0,0,0,0,0,0,0,0,0,0,0,0,0,0,0,0,0,0,0,154,0,0,0,0,0,0,0,0,0,0,0,0,0,0,0,0,0,0,
0,0,0,0,158,159,0,0,0,0,0,0,153,0,0,146,0,0,0,0,0,0,0,146,0,0,0,0,0,0,0,0,0,0,0,0,0,0,0,0,0,154,0,0,0,0,0,0,146,0,0,161,0,0,161,0,0,0,0,0,
0,0,0,0,0,0,0,0,0,0,0,0,0,0,0,155,0,180,0,0,0,0,0,155,0,0,0,0,0,0,0,0,0,0,0,0,0,0,0,0,0,0,0,0,0,151,0,0,155,0,0,0,0,0,0,0,0,167,0,151,
0,0,0,0,0,0,0,0,0,0,0,0,0,149,150,0,0,0,0,0,153,0,0,0,0,149,150,0,0,0,0,0,0,0,0,0,0,0,152,0,0,0,146,0,0,0,0,0,0,0,0,0,0,146,0,0,0,0,0,0,
0,0,0,0,0,0,0,0,0,0,0,0,0,158,159,0,0,0,149,150,0,0,0,0,0,158,159,0,0,0,149,150,0,0,0,0,0,0,0,0,0,0,155,0,0,0,0,0,0,0,0,0,0,155,0,0,0,0,0,0,
0,0,0,0,0,0,0,0,0,0,0,0,0,0,0,0,0,0,158,159,0,0,0,0,0,0,0,0,0,0,158,159,0,0,0,0,0,0,0,0,0,0,0,0,0,0,0,0,0,0,0,0,0,0,0,0,0,0,0,0,
0,0,0,0,0,0,0,0,0,0,169,0,146,0,0,0,0,0,0,0,0,0,0,0,0,0,0,151,0,0,0,0,0,0,0,0,0,0,0,0,0,0,0,0,0,0,0,0,0,167,0,161,0,0,0,0,0,184,185,186,
0,0,0,0,0,0,0,0,0,0,0,0,155,0,0,0,0,0,0,0,0,0,0,0,0,0,0,0,0,0,0,0,0,0,0,0,0,0,0,0,0,0,0,0,0,161,0,0,0,0,0,0,0,0,151,0,0,0,0,0,
0,0,0,0,0,0,0,0,0,0,0,0,0,0,149,150,0,146,0,0,0,0,0,146,0,0,149,150,0,0,0,153,0,0,0,0,0,0,0,0,0,0,0,151,0,0,0,0,0,0,0,0,0,0,0,0,0,0,0,0,
0,0,0,0,0,0,0,0,0,0,0,0,0,0,158,159,0,155,0,149,150,0,0,155,0,0,158,159,0,0,0,0,0,0,0,0,0,0,151,0,0,0,0,0,0,0,146,0,0,0,0,151,0,0,0,0,0,0,0,187,
0,0,0,0,0,0,0,0,0,0,0,0,0,0,0,0,0,0,0,158,159,0,151,0,0,0,0,0,0,0,0,0,0,0,0,0,0,0,0,0,0,154,0,0,0,0,155,0,0,0,0,0,0,0,167,0,0,0,0,0,
0,0,0,0,0,0,0,0,0,0,0,0,0,180,0,0,0,0,0,165,0,0,0,0,0,0,0,0,149,150,0,0,0,0,0,0,0,0,0,0,0,0,0,0,0,0,0,0,0,0,0,0,154,0,0,0,0,0,189,0,
0,0,0,0,0,0,0,0,0,0,0,0,0,0,0,0,0,0,0,0,0,0,0,0,146,0,0,0,158,159,0,0,0,0,0,151,0,0,0,0,0,0,0,0,0,0,0,0,0,0,0,0,0,0,0,0,0,0,0,0,
0,0,0,0,0,0,0,0,0,0,0,0,0,0,0,0,0,0,146,0,0,0,0,0,155,0,0,0,0,0,0,0,146,0,0,0,0,0,0,0,0,0,146,0,0,154,0,0,0,0,0,0,0,0,0,0,0,0,0,0,
0,0,0,0,0,0,0,0,0,0,0,0,0,0,0,0,0,0,155,0,0,0,149,150,0,0,0,0,0,0,0,0,155,0,0,0,0,0,0,0,0,0,155,0,0,0,0,0,0,0,184,185,186,187,0,0,0,0,0,0,
0,0,0,0,0,0,0,0,0,0,0,0,0,0,0,0,0,0,0,0,0,0,158,159,0,0,0,0,0,0,0,0,0,0,0,0,0,0,0,0,0,0,0,0,0,151,0,0,0,0,0,0,0,0,0,0,0,0,0,0,
0,0,0,0,0,0,0,0,0,0,0,0,0,0,0,0,0,0,0,0,0,0,0,0,0,0,0,0,0,0,0,0,0,0,154,0,0,161,0,0,0,0,0,0,0,0,0,0,0,0,0,0,0,0,0,0,0,189,0,0,
0,0,0,0,0,0,0,0,0,0,0,0,0,0,0,0,0,0,0,0,0,0,0,0,0,146,0,0,0,180,149,150,0,0,0,0,0,0,0,154,0,0,0,0,0,0,0,0,0,187,0,0,0,0,187,0,0,0,0,0,
0,0,0,0,0,0,0,0,0,0,0,0,0,0,0,0,0,0,0,0,0,0,0,0,0,155,0,0,0,0,158,159,0,0,0,0,151,0,0,0,0,167,0,0,0,0,187,0,0,0,0,0,0,0,0,0,0,0,0,187,
0,0,0,0,0,0,0,0,0,0,0,0,0,0,0,0,0,0,0,0,0,0,0,0,0,0,0,0,0,0,0,0,0,0,0,0,0,0,0,0,0,0,0,0,0,0,0,0,0,0,189,0,0,0,189,0,0,0,0,0,
0,0,0,0,0,0,0,0,0,0,0,0,0,0,0,0,0,0,0,0,0,0,0,0,0,0,0,0,0,0,153,0,0,0,0,0,0,0,0,0,0,0,0,0,189,0,0,0,0,0,0,0,0,0,0,0,0,0,189,0,
0,0,0,0,0,0,0,0,0,0,0,0,0,0,0,0,0,0,0,0,0,0,0,0,0,0,0,151,152,0,0,0,0,0,168,0,0,0,184,185,186,0,0,0,0,0,0,0,0,0,0,187,0,0,0,0,0,0,0,0
</data>
 </layer>
 <layer id="4" name="Tile Layer 4" width="60" height="40" locked="1">
  <data encoding="csv">
147,148,0,0,0,147,148,149,150,0,0,0,156,157,158,159,147,148,0,0,0,0,0,0,0,0,0,0,0,0,0,0,0,0,149,150,0,0,0,0,0,0,0,0,0,0,0,0,0,0,0,0,0,0,0,0,0,0,0,0,
156,157,149,150,0,156,157,158,159,147,148,149,150,0,0,0,156,157,0,0,0,0,187,0,0,0,0,0,0,0,0,0,0,0,158,159,0,0,0,0,146,0,0,0,0,0,0,0,0,0,0,0,0,0,0,0,0,0,0,0,
0,0,158,159,0,0,0,0,0,156,157,158,159,0,0,0,0,0,0,0,230,0,0,0,0,0,0,0,0,0,0,0,0,0,0,0,0,0,0,0,155,0,0,0,0,0,0,0,0,0,0,0,0,0,0,0,0,0,0,0,
0,147,148,0,0,0,0,0,0,0,0,0,0,0,0,0,0,0,0,0,230,0,0,0,0,0,0,0,0,0,0,0,0,0,0,0,0,0,0,0,0,0,0,0,0,0,0,0,0,0,0,0,0,0,0,0,0,0,0,0,
0,156,157,0,0,0,0,0,0,0,0,0,0,0,0,0,0,0,0,0,230,0,0,0,0,0,0,0,0,0,0,0,0,0,0,0,0,0,0,0,0,0,0,187,0,0,0,0,0,0,0,0,0,0,0,0,0,0,0,0,
150,0,0,223,224,224,224,224,224,224,0,0,0,0,224,224,224,225,0,0,230,0,0,0,0,0,0,0,0,0,0,0,0,0,0,0,0,0,0,0,0,0,0,0,0,0,0,0,0,0,0,0,0,0,0,0,0,0,0,0,
159,0,0,0,0,0,0,0,0,223,224,224,224,224,225,0,0,149,150,0,230,0,0,0,0,0,0,0,0,0,0,0,0,0,0,146,0,0,0,0,0,0,0,0,0,0,0,0,0,0,0,0,0,0,0,0,0,0,0,0,
0,0,0,0,0,0,0,0,0,0,0,0,0,0,0,0,0,158,159,0,230,0,0,0,0,0,0,0,0,0,0,0,0,0,0,155,0,0,0,0,0,0,0,0,0,0,0,0,0,0,0,0,0,0,0,0,0,0,0,0,
0,0,0,239,240,240,240,240,240,241,0,0,0,0,0,0,240,240,240,240,241,0,0,0,0,0,0,0,0,0,0,0,0,0,0,0,0,0,0,0,149,150,0,0,0,0,0,0,0,0,0,0,0,0,0,0,0,0,0,0,
0,0,0,0,0,0,0,0,0,0,0,0,0,0,0,0,0,0,0,0,0,0,0,0,0,0,0,0,0,0,0,0,0,0,0,0,0,0,0,0,158,159,0,0,0,0,0,0,0,0,0,0,0,0,0,0,0,0,0,0,
0,0,0,0,0,0,0,0,0,0,0,0,0,0,0,0,0,0,0,0,0,0,0,0,0,0,0,0,0,0,0,0,0,0,0,0,149,150,0,0,0,0,0,0,0,187,0,0,0,0,0,0,0,0,0,0,0,0,0,0,
150,0,0,0,0,0,0,0,0,0,0,0,0,0,0,0,0,0,0,0,0,0,0,0,0,0,0,0,0,0,0,0,0,0,0,0,158,159,0,0,0,0,0,0,0,0,0,0,0,0,0,0,0,0,0,0,0,0,0,0,
159,0,0,0,0,0,0,0,0,0,0,0,0,0,0,0,0,0,0,0,0,0,0,0,0,0,0,0,0,0,0,0,0,0,0,0,0,0,0,0,0,0,0,0,0,0,0,0,0,0,0,0,0,0,0,0,0,0,0,0,
0,0,0,0,0,0,0,0,0,0,0,0,0,0,0,0,0,0,0,0,0,0,0,0,0,0,0,0,0,0,0,0,0,0,0,187,0,0,0,0,0,0,0,0,0,0,0,0,0,0,0,0,0,0,0,0,0,0,0,0,
0,0,0,0,0,0,0,0,0,0,0,0,0,0,0,0,0,0,0,0,0,0,0,0,0,0,0,0,0,0,0,0,0,0,0,0,0,0,0,0,0,0,0,0,0,0,0,0,0,0,0,0,0,0,0,0,0,0,0,0,
0,0,0,0,0,0,0,0,0,0,0,0,0,0,0,0,0,0,0,0,0,0,0,0,0,0,0,0,0,0,0,0,0,0,0,0,0,0,0,146,0,0,0,0,0,0,0,0,0,0,0,0,0,0,0,0,0,0,0,0,
0,0,0,0,0,0,0,0,0,0,0,0,0,0,0,0,0,0,0,0,0,0,0,0,0,0,0,0,0,0,0,0,0,0,0,0,149,150,0,155,0,0,0,0,0,0,0,0,0,0,0,0,0,0,0,0,0,0,0,0,
0,0,0,0,0,0,0,0,0,0,0,0,0,0,0,0,0,0,0,0,0,0,0,0,0,0,0,0,0,0,0,0,0,0,0,0,158,159,0,0,0,0,0,0,0,0,0,0,0,0,0,0,0,0,0,0,0,0,0,0,
0,0,0,0,0,0,0,0,0,0,0,0,0,0,0,0,0,0,0,0,0,0,0,0,0,0,0,0,0,0,0,0,0,0,0,0,0,0,0,0,0,0,0,0,0,0,0,0,0,0,0,0,0,0,0,0,0,0,0,0,
0,0,0,0,0,0,0,0,0,0,0,0,0,0,0,0,0,0,0,0,0,0,0,0,0,0,0,0,149,150,0,0,0,0,0,0,0,0,0,0,0,0,0,0,0,0,0,0,0,0,0,0,0,0,0,0,0,0,0,0,
0,0,0,0,0,0,0,0,0,0,0,0,0,0,0,0,0,0,0,0,0,0,0,0,0,0,0,0,158,159,0,0,0,149,150,0,0,187,0,0,0,0,0,0,0,0,0,0,0,0,0,0,0,0,0,0,0,0,0,0,
0,0,0,0,0,0,0,0,0,0,0,0,0,0,0,0,0,0,0,0,0,0,0,0,0,0,0,0,0,0,0,0,0,158,159,0,0,0,0,0,0,0,0,0,0,0,0,0,0,0,0,0,0,0,0,0,0,0,0,0,
0,0,0,0,0,0,0,0,0,0,0,0,0,0,0,0,0,0,0,0,0,0,0,0,0,0,0,0,0,0,0,0,0,0,0,0,0,0,0,0,0,0,0,0,0,0,0,0,0,0,0,0,0,0,0,0,0,0,0,0,
0,0,0,0,0,0,0,0,0,0,0,0,0,0,0,0,0,0,0,0,0,0,0,0,0,0,0,0,0,0,0,0,0,0,0,0,0,0,0,0,0,0,0,0,0,0,0,0,0,0,0,0,0,0,0,0,0,0,0,0,
0,0,0,0,0,0,0,0,0,0,0,0,0,0,0,0,0,0,0,0,0,0,0,0,0,0,0,0,0,0,0,0,0,0,146,0,0,0,0,0,0,0,0,0,0,0,0,0,0,0,0,0,0,0,0,0,0,0,0,0,
0,0,0,0,0,0,0,0,0,0,0,0,0,0,0,0,0,0,0,0,0,0,0,0,0,0,0,0,0,0,0,0,0,0,155,0,0,0,0,0,0,0,0,0,0,0,0,0,0,0,0,0,0,0,0,0,0,0,0,0,
0,0,0,0,0,0,0,0,0,0,0,0,0,0,0,0,0,0,0,0,0,0,0,0,0,0,0,0,0,0,0,0,0,0,0,0,0,0,0,0,0,0,0,0,0,0,0,0,0,0,0,0,0,0,0,0,0,0,0,0,
0,0,0,0,0,0,0,0,0,0,0,0,0,0,0,0,0,0,0,0,0,0,0,0,0,0,0,0,0,0,0,0,0,0,0,0,0,0,0,0,0,0,0,0,0,0,0,0,0,0,0,0,0,0,0,0,0,0,0,0,
0,0,0,0,0,0,0,0,0,0,0,0,0,0,0,0,0,0,0,0,0,0,0,0,0,0,0,0,0,0,0,0,0,0,0,0,0,0,0,0,0,0,0,0,0,0,0,0,0,0,0,0,0,0,0,0,0,0,0,0,
0,0,0,0,0,0,0,0,0,0,0,0,0,0,0,0,0,0,0,0,0,0,0,0,0,0,0,0,0,0,0,0,0,0,0,0,0,0,0,0,0,0,0,0,0,0,0,0,0,0,0,0,0,0,0,0,0,0,0,0,
0,0,0,0,0,0,0,0,0,0,0,0,0,0,0,0,0,0,0,0,0,0,0,0,0,0,0,0,0,0,0,0,0,0,0,0,0,0,0,0,0,0,0,0,0,0,0,0,0,0,0,0,0,0,0,0,0,0,0,0,
0,0,0,0,0,0,0,0,0,0,0,0,0,0,0,0,0,0,0,0,0,0,0,0,0,0,0,0,0,0,0,0,0,0,0,0,0,0,0,0,0,0,0,0,0,0,0,0,0,0,0,0,0,0,0,0,0,0,0,0,
0,0,0,0,0,0,0,0,0,0,0,0,0,0,0,0,0,0,0,0,0,0,0,0,0,0,0,0,0,0,0,0,0,0,0,0,0,0,0,0,0,0,0,0,0,0,0,0,0,0,0,0,0,0,0,0,0,0,0,0,
0,0,0,0,0,0,0,0,0,0,0,0,0,0,0,0,0,0,0,0,0,0,0,0,0,0,0,0,0,0,0,0,0,0,0,0,0,0,0,0,0,0,0,0,0,0,0,0,0,0,0,0,0,0,0,0,0,0,0,0,
0,0,0,0,0,0,0,0,0,0,0,0,0,0,0,0,0,0,0,0,0,0,0,0,0,0,0,0,0,0,0,0,0,0,0,0,0,0,0,0,0,0,0,0,0,0,0,0,0,0,0,0,0,0,0,0,0,0,0,0,
0,0,0,0,0,0,0,0,0,0,0,0,0,0,0,0,0,0,0,0,0,0,0,0,0,0,0,0,0,0,0,0,0,0,0,0,0,0,0,0,0,0,0,0,0,0,0,0,0,0,0,0,0,0,0,0,0,0,0,0,
0,0,0,0,0,0,0,0,0,0,0,0,0,0,0,0,0,0,0,0,0,0,0,0,0,0,0,0,0,0,0,0,0,0,0,0,0,0,0,0,0,0,0,0,0,0,0,0,0,0,0,0,0,0,0,0,0,0,0,0,
0,0,0,0,0,0,0,0,0,0,0,0,0,0,0,0,0,0,0,0,0,0,0,0,0,0,0,0,0,0,0,0,0,0,0,0,0,0,0,0,0,0,0,0,0,0,0,0,0,0,0,0,0,0,0,0,0,0,0,0,
0,0,0,0,0,0,0,0,0,0,0,0,0,0,0,0,0,0,0,0,0,0,0,0,0,0,0,0,0,0,0,0,0,0,0,0,0,0,0,0,0,0,0,0,0,0,0,0,0,0,0,0,0,0,0,0,0,0,0,0,
0,0,0,0,0,0,0,0,0,0,0,0,0,0,0,0,0,0,0,0,0,0,0,0,0,0,0,0,0,0,0,0,0,0,0,0,0,0,0,0,0,0,0,0,0,0,0,0,0,0,0,0,0,0,0,0,0,0,0,0
</data>
 </layer>
 <layer id="5" name="HierbaAlta" width="60" height="40" locked="1">
  <data encoding="csv">
0,0,0,0,0,0,0,0,0,0,0,0,0,0,0,0,0,0,0,0,0,0,0,0,0,0,0,0,0,0,0,0,0,0,0,0,0,0,0,0,0,0,0,0,0,0,0,0,0,0,0,0,63,63,63,63,63,0,0,0,
0,0,0,0,0,0,0,0,0,0,0,0,0,0,0,0,0,0,0,0,0,0,0,0,0,0,0,0,0,0,0,0,0,0,0,0,0,0,0,0,0,63,63,0,0,0,0,0,0,0,0,63,63,0,63,0,0,63,0,0,
0,0,0,0,0,0,0,0,0,0,0,0,0,0,0,0,0,0,0,0,0,0,0,0,0,0,0,0,0,0,0,0,0,0,0,0,0,63,0,63,0,63,63,0,0,0,0,0,0,0,63,63,63,63,0,0,0,63,0,0,
0,0,0,0,0,0,0,0,0,0,0,0,0,0,0,0,0,0,0,0,0,0,0,0,0,0,0,0,0,0,0,0,0,0,0,0,63,63,63,63,63,63,63,63,0,0,0,0,0,63,63,63,63,63,63,0,0,63,0,0,
0,0,0,0,0,0,0,0,0,0,0,0,0,0,0,0,0,0,0,0,0,0,0,0,0,0,0,0,0,0,0,0,0,0,0,63,0,0,63,63,63,63,63,0,0,0,0,0,63,0,0,0,63,63,63,63,63,63,63,0,
0,0,0,0,0,0,0,0,0,0,0,0,0,0,0,0,0,0,0,0,0,0,63,0,63,0,0,0,0,0,0,0,0,0,0,0,0,0,63,63,0,63,63,63,0,0,0,0,63,63,0,0,63,63,63,63,63,63,63,63,
0,0,0,0,0,0,0,0,0,0,0,0,0,0,0,0,0,0,0,0,0,0,63,63,63,0,0,0,0,0,0,0,0,0,0,0,63,0,63,63,63,63,63,0,0,0,0,63,63,63,0,63,63,63,0,63,63,63,0,63,
0,0,0,0,0,0,0,0,0,0,0,0,0,0,0,0,0,0,0,0,0,63,63,0,63,0,0,0,0,0,0,0,0,0,0,0,63,63,63,63,63,63,63,0,0,0,63,63,63,63,63,63,63,63,63,63,63,0,0,0,
0,0,0,0,0,0,0,0,0,0,0,0,0,0,0,0,0,0,0,0,0,63,0,63,63,0,0,0,0,0,0,0,0,0,0,63,63,63,63,63,0,0,0,0,0,0,63,63,0,63,63,63,63,63,63,63,63,63,0,0,
0,0,0,0,0,0,0,0,0,0,0,0,0,0,0,0,0,0,0,0,0,63,0,63,63,0,0,0,0,0,0,0,0,0,63,63,63,63,63,63,0,0,0,63,0,63,63,63,63,63,63,63,63,63,63,63,63,63,0,0,
0,0,0,0,63,0,63,63,63,0,0,0,0,0,0,0,0,0,0,0,0,63,63,0,0,0,0,0,0,0,0,0,0,0,63,63,0,0,63,63,0,0,0,63,63,0,63,63,63,63,63,63,63,63,0,0,0,63,63,0,
0,0,0,63,63,63,0,63,63,0,63,63,63,63,63,63,63,63,63,0,0,0,0,0,0,0,0,0,0,0,0,0,0,0,63,63,0,0,63,63,0,0,63,63,63,63,63,63,63,63,63,63,63,63,0,0,0,63,63,0,
0,0,63,0,63,63,63,63,0,0,0,63,63,63,63,63,63,63,63,63,0,0,0,0,63,0,0,0,0,0,0,0,0,0,63,63,63,63,63,0,0,0,63,63,0,63,63,63,63,63,63,63,0,63,63,63,63,63,63,0,
0,0,0,0,63,63,63,0,0,0,0,63,63,0,0,63,0,0,63,63,0,0,0,0,0,0,0,0,0,0,0,0,0,0,63,0,63,63,63,0,0,63,63,63,63,63,63,0,0,63,63,63,63,63,63,63,63,0,63,63,
0,0,0,0,63,63,63,0,63,63,63,63,63,0,0,63,0,0,0,63,63,0,0,0,0,0,0,0,0,0,0,0,0,0,63,63,63,63,0,0,0,0,0,63,63,63,63,0,0,63,63,63,63,63,63,0,63,63,63,0,
0,0,63,0,0,0,63,63,63,63,63,63,63,63,63,63,63,0,0,63,63,63,0,0,0,0,0,0,0,0,0,0,0,0,63,63,63,63,0,0,63,0,0,63,63,63,63,0,63,63,63,63,63,63,63,0,63,63,63,0,
0,0,0,0,0,0,0,63,63,0,0,0,0,63,63,63,63,63,63,63,63,63,0,0,0,0,0,0,0,0,0,0,0,0,63,63,0,0,0,0,63,0,63,63,0,63,63,63,63,0,63,63,63,63,63,0,0,63,63,0,
0,0,0,0,0,0,0,0,63,0,0,0,0,0,63,63,63,63,0,0,63,63,63,0,0,0,0,0,0,0,0,0,0,0,63,63,0,0,0,0,63,63,63,63,63,63,63,63,63,63,63,0,63,63,63,0,0,63,63,0,
0,0,0,0,0,0,0,0,0,0,0,63,63,63,63,63,63,63,0,0,0,63,63,0,0,0,0,0,0,0,0,0,0,0,63,63,63,0,0,0,63,0,63,63,63,63,63,63,63,63,63,63,63,63,63,63,63,63,63,0,
0,0,0,0,0,0,0,0,0,0,0,0,0,63,63,0,63,63,63,0,0,63,63,0,0,0,0,0,0,0,0,0,0,0,0,0,0,0,0,63,63,0,63,63,63,63,63,63,0,0,63,0,63,63,0,63,63,63,63,0,
0,0,0,0,0,0,0,0,0,0,0,0,63,63,63,0,63,0,63,63,63,63,63,0,63,63,0,0,0,0,0,63,63,0,0,63,63,0,63,63,63,63,63,63,63,0,63,63,0,0,63,63,63,63,63,63,63,0,63,0,
0,0,0,0,0,0,0,0,0,0,0,0,63,0,0,0,63,63,63,63,0,63,0,63,63,0,0,63,63,63,0,0,0,0,0,63,63,63,0,63,63,0,0,63,63,63,63,63,63,63,63,63,63,0,63,63,63,63,0,0,
0,0,0,0,0,0,0,0,0,0,0,0,63,0,0,0,63,63,0,0,63,63,0,63,0,0,0,0,63,63,0,0,63,63,63,63,63,63,63,63,63,0,0,63,63,63,63,63,63,63,63,63,63,0,0,0,63,0,0,0,
0,0,0,0,0,0,0,0,0,0,0,0,0,63,63,63,63,63,0,0,0,63,63,63,0,0,63,63,63,0,0,0,63,63,63,63,63,0,0,63,63,63,63,63,63,63,63,0,0,63,63,63,63,63,0,0,0,0,0,0,
0,0,0,0,0,0,0,0,0,0,0,0,0,63,63,63,63,63,63,0,0,63,63,63,63,63,63,0,63,0,0,63,63,63,0,63,63,0,0,63,63,63,63,63,63,63,63,0,0,0,63,0,63,63,63,0,0,0,0,0,
0,0,0,0,0,0,0,0,0,0,0,0,0,63,63,63,63,63,63,63,63,63,63,63,63,63,63,63,63,63,63,63,63,63,0,63,63,63,63,63,63,63,63,63,63,0,63,63,63,63,63,63,63,63,0,0,0,0,0,0,
0,0,0,0,0,0,0,0,0,0,0,0,0,0,0,0,63,0,63,63,63,63,63,0,63,63,0,0,63,63,63,0,63,63,63,63,63,63,63,63,63,63,63,0,63,63,63,63,63,63,0,63,63,63,0,0,0,0,0,0,
0,0,0,0,0,0,0,0,0,0,0,0,0,0,0,0,0,0,63,0,0,63,63,0,63,0,0,0,63,63,63,63,63,63,63,63,63,63,0,63,63,63,63,63,63,63,0,63,0,63,63,0,63,63,0,0,0,0,0,0,
0,0,0,0,0,0,0,0,0,0,0,0,0,0,0,0,0,63,63,0,0,0,0,63,63,0,0,63,63,63,63,63,63,0,63,63,63,63,63,63,63,0,63,63,63,63,0,0,0,63,63,63,63,0,0,0,0,0,0,0,
0,0,0,0,0,0,0,0,0,0,0,0,0,0,0,0,0,0,63,0,0,0,63,63,63,63,63,63,0,0,63,63,63,0,63,63,63,63,63,63,63,63,63,63,63,63,63,0,0,63,63,63,0,0,0,0,0,0,0,0,
0,0,0,0,0,0,0,0,0,0,0,0,0,0,0,0,0,0,0,63,63,63,63,63,0,63,63,0,0,0,63,63,63,0,63,0,63,63,0,0,63,63,63,63,63,63,63,63,63,63,63,0,0,0,0,0,0,0,0,0,
0,0,0,0,0,0,0,0,0,0,0,0,0,0,0,0,0,0,0,0,0,0,63,63,0,63,63,0,0,63,63,63,0,63,63,63,63,63,0,0,63,63,0,63,63,0,63,63,63,63,0,0,0,0,0,0,0,0,0,0,
0,0,0,0,0,0,0,0,0,0,0,0,0,0,0,0,0,0,0,0,0,0,0,0,63,63,63,63,63,63,63,63,0,63,63,63,63,63,63,63,0,0,0,63,63,63,63,63,63,0,0,0,0,0,0,0,0,0,0,0,
0,0,0,0,0,0,0,0,0,0,0,0,0,0,0,0,0,0,0,0,0,0,0,0,0,0,63,63,63,63,63,63,63,63,63,63,63,63,63,63,63,0,0,63,63,0,0,0,0,0,0,0,0,0,0,0,0,0,0,0,
0,0,0,0,0,0,0,0,0,0,0,0,0,0,0,0,0,0,0,0,0,0,0,0,0,0,63,63,63,63,63,63,63,63,0,63,63,0,63,63,63,0,0,0,0,0,0,0,0,0,0,0,0,0,0,0,0,0,0,0,
0,0,0,0,0,0,0,0,0,0,0,0,0,0,0,0,0,0,0,0,0,0,0,0,0,0,0,63,63,0,0,0,63,63,63,63,63,63,63,0,0,0,0,0,0,0,0,0,0,0,0,0,0,0,0,0,0,0,0,0,
0,0,0,0,0,0,0,0,0,0,0,0,0,0,0,0,0,0,0,0,0,0,0,0,0,0,0,0,63,0,0,0,0,63,63,63,0,0,0,0,0,0,0,0,0,0,0,0,0,0,0,0,0,0,0,0,0,0,0,0,
0,0,0,0,0,0,0,0,0,0,0,0,0,0,0,0,0,0,0,0,0,0,0,0,0,0,0,0,0,63,0,0,0,0,63,0,0,0,0,0,0,0,0,0,0,0,0,0,0,0,0,0,0,0,0,0,0,0,0,0,
0,0,0,0,0,0,0,0,0,0,0,0,0,0,0,0,0,0,0,0,0,0,0,0,0,0,0,0,0,63,0,0,0,63,63,0,0,0,0,0,0,0,0,0,0,0,0,0,0,0,0,0,0,0,0,0,0,0,0,0,
0,0,0,0,0,0,0,0,0,0,0,0,0,0,0,0,0,0,0,0,0,0,0,0,0,0,0,0,0,0,0,63,63,63,0,0,0,0,0,0,0,0,0,0,0,0,0,0,0,0,0,0,0,0,0,0,0,0,0,0
</data>
 </layer>
</map>
