<?xml version="1.0" encoding="UTF-8"?>
<map version="1.10" tiledversion="1.11.2" orientation="orthogonal" renderorder="right-down" width="30" height="20" tilewidth="16" tileheight="16" infinite="0" nextlayerid="14" nextobjectid="5">
 <tileset firstgid="1" source="../tilesets/Tileset/Grass16.tsx"/>
 <tileset firstgid="78" source="../tilesets/Tileset/Basic Grass Biom things 1.tsx"/>
 <tileset firstgid="123" source="../tilesets/Tileset/Water.tsx"/>
 <tileset firstgid="127" source="../tilesets/Tileset/Fences.tsx"/>
 <tileset firstgid="143" source="../tilesets/Tileset/Wooden House.tsx"/>
 <tileset firstgid="178" source="../tilesets/Tileset/Tilled Dirt.tsx"/>
 <tileset firstgid="242" source="../tilesets/Tileset/Hills.tsx"/>
 <layer id="1" name="Suelo" width="30" height="20" locked="1">
  <data encoding="csv">
61,61,61,61,61,61,61,61,61,61,61,61,61,61,61,61,61,61,61,61,61,61,61,61,61,61,61,61,61,61,
61,61,61,61,61,61,61,61,61,61,61,61,61,61,61,61,61,61,61,61,61,61,61,61,61,61,61,61,61,61,
61,61,61,61,61,61,61,61,61,61,61,61,61,61,61,61,61,61,61,61,61,61,61,61,61,61,61,61,61,61,
61,61,61,61,61,61,61,61,61,61,61,61,61,61,61,61,61,61,61,61,61,61,61,61,61,61,61,61,61,61,
61,61,61,61,61,61,61,61,61,61,61,61,61,61,61,61,61,61,61,61,61,61,61,61,61,61,61,61,61,61,
61,61,61,61,61,61,61,61,61,61,61,61,61,61,61,61,61,61,61,61,61,61,61,61,61,61,61,61,61,61,
61,61,61,61,61,61,61,61,61,61,61,61,61,61,61,61,61,61,61,61,61,61,61,61,61,61,61,61,61,61,
61,61,61,61,61,61,61,61,61,61,61,61,61,61,61,61,61,61,61,61,61,61,61,61,61,61,61,61,61,61,
61,61,61,61,61,61,61,61,61,61,61,61,61,61,61,61,61,61,61,61,61,61,61,61,61,61,61,61,61,61,
61,61,61,61,61,61,61,61,61,61,61,61,61,61,61,61,61,61,61,61,61,61,61,61,61,61,61,61,61,61,
61,61,61,61,61,61,61,61,61,61,61,61,61,61,61,61,61,61,61,61,61,61,61,61,61,61,61,61,61,61,
61,61,61,61,61,61,61,61,61,61,61,61,61,61,61,61,61,61,61,61,61,61,61,61,61,61,61,61,61,61,
61,61,61,61,61,61,61,61,61,61,61,61,61,61,61,61,61,61,61,61,61,61,61,61,61,61,61,61,61,61,
61,61,61,61,61,61,61,61,61,61,61,61,61,61,61,61,61,61,61,61,61,61,61,61,61,61,61,61,61,61,
61,61,61,61,61,61,61,61,61,61,61,61,61,61,61,61,61,61,61,61,61,61,61,61,61,61,61,61,61,61,
61,61,61,61,61,61,61,61,61,61,61,61,61,61,61,61,61,61,61,61,61,61,61,61,61,61,61,61,61,61,
61,61,61,61,61,61,61,61,61,61,61,61,61,61,61,61,61,61,61,61,61,61,61,61,61,61,61,61,61,61,
61,61,61,61,61,61,61,61,61,61,61,61,61,61,61,61,61,61,61,61,61,61,61,61,61,61,61,61,61,61,
61,61,61,61,61,61,61,61,61,61,61,61,61,61,61,61,61,61,61,61,61,61,61,61,61,61,61,61,61,61,
61,61,61,61,61,61,61,61,61,61,61,61,61,61,61,61,61,61,61,61,61,61,61,61,61,61,61,61,61,61
</data>
 </layer>
 <layer id="13" name="Colisiones" width="30" height="20">
  <data encoding="csv">
192,192,192,192,192,192,0,192,192,192,0,0,192,192,0,0,0,0,192,192,0,192,192,192,192,192,0,0,0,0,
192,192,192,192,192,192,192,192,192,192,192,192,192,192,0,0,192,192,192,192,0,192,192,192,192,192,192,192,0,0,
192,192,192,192,192,192,192,192,192,192,0,192,192,0,0,192,192,192,192,0,0,0,0,192,192,192,192,192,0,0,
192,192,192,192,192,192,0,0,0,0,0,192,192,192,192,192,0,0,192,192,192,192,192,0,0,192,192,0,0,0,
0,0,0,0,0,0,0,192,192,0,0,0,0,192,192,0,0,192,192,0,0,0,192,192,0,0,192,0,0,0,
0,0,0,0,0,0,0,0,0,192,0,0,0,0,0,0,0,192,0,0,0,0,0,192,192,192,192,192,192,0,
192,192,192,192,0,0,192,192,192,0,0,0,0,0,0,0,192,192,0,0,0,0,0,0,192,192,192,192,192,192,
0,192,192,192,0,0,192,0,0,0,0,0,0,0,0,0,192,0,0,0,0,0,0,192,192,0,0,0,192,192,
0,192,192,0,0,0,0,0,0,0,0,0,0,0,0,0,0,192,0,0,0,192,192,192,0,0,0,0,192,192,
0,0,0,0,0,0,0,0,0,0,0,0,0,0,0,0,0,0,192,192,192,192,0,0,0,0,0,0,192,192,
0,0,0,0,0,0,0,192,192,0,0,0,0,0,0,0,0,0,0,0,0,0,192,192,192,192,192,192,192,192,
0,0,0,0,0,0,0,0,0,0,0,0,0,0,0,0,0,0,0,0,192,192,192,192,192,192,192,192,192,0,
0,0,192,0,0,0,192,192,192,192,192,0,0,0,0,0,0,0,0,0,192,192,192,0,0,0,0,0,0,0,
0,192,192,0,0,0,192,192,192,192,192,0,0,0,0,0,0,0,192,192,192,192,0,0,0,0,0,0,0,0,
0,192,0,0,0,0,192,192,192,192,192,192,192,0,0,0,0,0,192,192,0,0,0,0,0,0,0,0,0,0,
0,192,0,0,0,0,192,192,192,192,192,192,192,192,192,0,0,0,0,0,0,0,0,0,0,0,0,0,0,0,
0,0,192,0,0,0,192,192,192,192,192,192,0,192,192,0,0,0,0,0,0,0,0,0,0,0,0,0,0,0,
0,0,0,0,0,0,0,0,0,0,0,0,0,0,0,0,0,0,0,0,0,0,0,0,0,0,0,0,0,0,
0,0,0,0,0,0,0,0,0,0,0,0,0,0,0,0,0,0,0,0,0,0,0,0,0,0,0,0,0,0,
0,0,0,0,0,0,0,0,0,0,0,0,0,0,0,0,0,0,0,0,0,0,0,0,0,0,0,0,0,0
</data>
 </layer>
 <layer id="3" name="Tile Layer 2" width="30" height="20" locked="1">
  <data encoding="csv">
0,0,0,0,0,0,0,0,0,0,0,0,0,0,0,0,0,48,78,78,0,78,78,78,0,0,0,0,0,0,
0,242,243,243,243,243,243,243,244,0,0,0,0,37,37,61,78,78,87,87,37,87,87,87,78,61,37,37,0,0,
0,253,150,151,151,152,13,13,255,0,0,0,37,37,48,78,87,87,0,0,0,0,0,0,87,78,61,37,0,0,
0,0,164,165,165,166,13,13,255,0,0,0,61,78,78,87,0,0,124,124,124,124,124,0,0,87,78,79,80,0,
242,0,13,13,13,13,13,13,255,0,0,0,48,87,87,0,0,124,124,124,124,124,124,124,0,0,87,88,89,0,
253,0,0,0,24,24,0,0,255,0,0,0,61,0,0,0,0,124,124,124,124,124,124,124,124,0,0,78,78,0,
0,0,0,0,0,0,265,265,266,0,0,61,61,0,0,0,124,124,124,124,124,124,124,124,124,0,0,87,87,0,
0,0,0,0,0,0,0,0,0,0,0,61,61,0,0,0,124,124,124,124,124,124,124,124,124,0,0,37,0,0,
0,0,0,0,0,0,0,0,0,0,0,61,61,0,61,0,0,124,124,124,124,124,124,124,0,0,0,37,0,0,
0,0,7,0,0,0,0,0,0,0,61,61,61,61,61,0,0,0,124,124,124,124,0,0,0,0,0,37,0,0,
0,2,0,0,0,0,0,0,0,0,61,61,61,61,61,0,0,0,0,0,0,0,0,0,0,78,78,78,78,0,
0,2,0,0,0,0,37,5,7,8,0,61,61,61,61,61,61,0,0,0,0,0,78,87,87,87,87,87,87,0,
0,1,0,0,0,0,0,0,0,6,8,0,61,61,61,61,61,61,61,61,78,78,87,0,0,0,0,0,0,0,
0,0,0,0,0,0,0,0,0,28,29,48,0,61,61,61,61,61,78,78,87,87,0,0,0,0,0,0,0,0,
0,0,0,0,0,0,0,0,0,0,0,0,48,61,61,61,61,61,87,87,0,0,0,0,0,0,0,0,0,0,
0,0,0,0,0,0,0,0,0,0,0,0,37,48,61,61,61,61,0,0,0,0,0,0,0,0,0,0,0,0,
0,37,0,0,0,0,0,0,0,0,0,0,0,37,0,0,0,0,0,0,0,0,0,0,0,0,0,0,0,0,
0,37,37,37,0,0,0,0,0,0,0,0,37,37,0,0,0,0,0,0,0,0,0,0,0,0,0,0,0,0,
0,0,0,37,37,37,37,37,37,37,37,37,37,0,0,0,0,0,0,0,0,0,0,0,0,0,0,0,0,0,
0,0,0,0,0,0,0,0,0,0,0,0,0,0,0,0,0,0,0,0,0,0,0,0,0,0,0,0,0,0
</data>
 </layer>
 <layer id="4" name="Tile Layer 3" width="30" height="20" locked="1">
  <data encoding="csv">
0,0,0,0,0,0,0,0,0,0,0,0,0,0,0,85,86,0,0,0,86,0,0,0,79,80,0,0,0,0,
0,0,110,0,0,110,0,0,0,102,0,0,0,4,0,101,0,81,82,0,84,104,0,81,82,89,81,82,0,0,
0,0,0,0,0,0,0,92,93,0,102,0,0,26,0,0,0,90,91,83,97,113,92,90,91,0,90,91,0,0,
0,0,0,0,0,0,0,0,0,0,0,0,101,0,0,0,83,99,103,0,0,73,73,95,103,0,0,0,0,0,
0,110,0,0,0,0,0,0,0,0,0,0,0,0,0,83,99,0,0,0,0,0,73,73,99,0,0,0,0,0,
0,0,0,0,0,0,0,0,65,65,0,0,0,116,117,118,4,101,0,0,0,0,73,73,73,79,80,0,0,0,
0,0,0,0,0,0,0,0,0,0,0,0,65,0,65,99,26,0,0,0,0,0,0,73,73,88,89,0,79,80,
0,0,0,0,0,0,0,0,0,0,0,0,0,0,92,93,0,0,0,0,0,0,0,73,61,61,93,0,88,89,
0,1,3,0,0,0,0,0,0,0,65,0,65,65,0,0,0,0,0,0,0,65,73,73,61,61,0,0,81,82,
0,110,13,0,0,0,0,0,0,0,0,0,0,65,0,0,0,0,0,121,120,61,61,61,61,61,0,0,90,91,
0,12,13,0,0,0,0,0,0,0,0,65,65,0,0,0,0,0,0,61,61,61,0,0,0,0,0,0,78,0,
0,12,13,13,0,0,1,2,2,3,0,65,65,0,0,0,61,61,61,61,0,0,0,0,0,0,0,0,112,0,
0,37,13,13,13,13,13,13,13,13,3,0,0,0,0,0,61,61,61,119,0,0,0,0,0,0,0,0,0,0,
1,13,13,13,13,13,13,13,13,13,13,3,4,0,0,0,61,0,0,0,0,0,0,0,0,0,0,0,0,0,
12,13,13,13,13,13,13,13,13,13,13,14,26,0,0,0,0,61,0,0,0,0,0,0,0,0,0,0,0,0,
23,13,13,13,13,13,13,13,13,13,13,13,2,3,0,0,0,0,0,0,0,0,0,0,0,0,0,0,0,0,
0,48,13,13,13,13,13,13,13,13,13,13,13,14,0,0,0,0,0,0,0,0,0,0,0,0,0,0,0,0,
0,61,0,13,13,13,13,13,13,13,13,13,0,25,0,0,0,0,0,0,0,0,0,0,0,0,0,0,86,0,
0,0,0,0,24,24,24,24,24,24,24,24,25,0,0,0,0,0,0,0,0,0,0,0,0,0,0,0,86,0,
0,0,0,0,0,0,0,0,0,0,0,0,0,0,0,0,0,0,0,0,0,0,0,0,0,0,0,0,0,0
</data>
 </layer>
 <layer id="5" name="Tile Layer 4" width="30" height="20" locked="1">
  <data encoding="csv">
79,80,81,82,79,80,0,79,80,78,0,0,79,80,0,0,0,0,0,0,0,0,0,0,0,0,0,0,0,0,
88,89,90,91,88,89,79,80,79,87,81,82,88,89,0,0,0,0,0,0,0,0,0,0,0,0,0,0,0,0,
81,82,0,0,0,0,88,89,88,89,90,91,80,0,0,0,0,0,0,0,0,0,0,0,0,0,0,0,0,0,
90,91,79,80,0,0,0,0,0,0,0,88,89,0,0,0,0,0,0,0,0,0,0,0,0,0,0,0,0,0,
104,0,88,89,0,0,0,0,0,0,0,0,0,0,0,0,0,0,0,0,0,0,0,0,0,0,0,0,0,0,
113,0,0,0,0,0,0,0,0,0,0,0,0,0,0,0,0,0,0,0,0,0,0,0,0,0,0,0,0,0,
0,0,0,0,0,0,0,0,0,0,0,0,0,0,0,0,0,0,0,0,0,0,0,0,0,0,0,0,0,0,
0,81,82,0,0,0,0,0,0,0,0,0,0,0,0,0,0,0,0,0,0,0,0,0,0,0,0,0,0,0,
0,90,91,0,0,0,0,0,0,0,0,0,0,0,0,0,0,0,0,0,0,0,0,0,0,0,0,0,0,0,
0,0,0,0,0,0,0,0,0,0,0,0,0,0,0,0,0,0,0,0,0,0,0,0,0,0,0,0,0,0,
0,0,0,0,0,0,0,79,80,0,0,0,0,0,0,0,0,0,0,0,0,0,0,0,0,0,0,0,0,0,
0,104,0,0,0,0,0,88,89,0,0,0,0,0,0,0,0,0,0,0,0,0,0,0,0,0,0,0,0,0,
0,113,0,0,0,0,0,0,0,0,0,0,0,0,0,0,0,0,0,0,0,0,0,0,0,0,0,0,0,0,
0,0,0,0,0,0,0,0,0,0,0,0,104,0,0,0,0,0,0,0,0,0,0,0,0,0,0,0,0,0,
104,0,0,0,0,0,0,0,0,0,0,0,113,0,0,0,0,0,0,0,0,0,0,0,0,0,0,0,0,0,
113,0,0,0,0,0,0,0,0,0,0,0,0,81,82,0,0,0,0,0,0,0,0,0,0,0,0,0,0,0,
0,0,0,0,0,0,0,0,0,0,0,0,0,90,91,0,0,0,0,0,0,0,0,0,0,0,0,0,0,0,
0,0,0,104,0,0,0,0,0,0,0,0,0,0,0,0,0,0,0,0,0,0,0,0,0,0,0,0,0,0,
0,0,0,113,0,0,0,0,0,0,0,0,0,0,0,0,0,0,0,0,0,0,0,0,0,0,0,0,0,0,
0,0,0,0,0,0,0,0,0,0,0,0,0,0,0,0,0,0,0,0,0,0,0,0,0,0,0,0,0,0
</data>
 </layer>
 <layer id="7" name="Tile Layer 6" width="30" height="20" locked="1">
  <data encoding="csv">
0,0,0,0,0,0,0,0,0,0,0,0,0,0,0,0,0,0,0,0,0,0,0,0,0,0,0,0,0,0,
0,0,0,0,0,0,0,0,0,0,0,0,0,0,0,0,0,0,0,0,0,0,0,0,0,0,0,0,0,0,
0,0,101,169,170,100,84,86,85,0,0,0,0,0,0,0,0,0,0,0,0,0,0,0,0,0,0,0,0,0,
0,0,175,176,153,0,0,226,112,0,0,0,0,0,0,0,0,0,0,0,0,0,0,0,0,0,0,0,0,0,
0,0,0,0,227,229,226,116,117,118,0,0,0,0,0,0,0,0,0,0,0,0,0,0,0,0,0,105,105,0,
0,0,0,0,0,227,229,0,105,0,0,0,0,0,0,0,0,0,0,0,0,0,0,0,0,0,0,105,0,0,
0,0,0,0,0,0,226,0,0,0,105,105,0,0,0,0,0,0,0,0,0,0,0,0,0,0,0,0,0,0,
0,0,0,0,0,0,0,0,0,0,0,0,0,0,0,0,0,0,0,0,0,0,0,0,0,0,0,0,0,0,
0,0,0,0,0,0,0,0,0,0,0,0,0,0,0,0,0,0,0,0,0,0,0,0,0,0,0,0,0,0,
0,0,0,0,0,0,0,0,0,0,0,0,0,0,0,0,0,0,0,0,0,0,0,0,0,0,0,0,105,105,
0,0,0,0,0,0,0,0,0,0,0,0,0,0,0,0,0,0,0,0,0,0,0,0,105,105,105,105,105,105,
0,0,0,0,0,0,0,0,0,219,0,0,0,0,0,0,0,0,0,0,0,0,0,0,0,0,0,0,0,0,
0,0,0,0,0,0,0,147,148,149,0,0,0,0,0,0,0,0,0,0,0,0,0,0,0,0,0,0,0,0,
0,0,0,0,0,0,154,155,156,151,152,0,0,0,0,0,0,0,0,0,0,0,0,0,0,0,0,0,0,0,
0,0,0,0,0,0,161,162,163,0,0,0,0,0,0,0,0,0,0,0,0,0,0,0,0,0,0,0,0,0,
0,0,0,0,0,0,168,169,170,0,0,0,0,0,0,0,0,0,0,0,0,0,0,0,0,0,0,0,0,0,
0,0,0,0,0,0,175,176,153,153,0,0,0,0,0,0,0,0,0,0,0,0,0,0,0,0,0,0,0,0,
0,0,0,0,0,0,0,0,0,0,0,0,0,0,0,0,0,0,0,0,0,0,0,0,0,0,0,0,0,0,
0,0,0,0,0,0,0,0,0,0,0,0,0,0,0,0,0,0,0,0,0,0,0,0,0,0,0,0,0,0,
0,0,0,0,0,0,0,0,0,0,0,0,0,0,0,0,0,0,0,0,0,0,0,0,0,0,0,0,0,0
</data>
 </layer>
 <layer id="6" name="Tile Layer 5" width="30" height="20" locked="1">
  <data encoding="csv">
0,0,0,0,0,0,110,79,80,78,110,104,0,0,0,0,0,0,0,0,0,0,0,0,0,80,101,0,0,0,
0,104,110,111,0,110,0,88,89,80,0,113,0,0,0,0,0,0,0,0,0,0,0,0,0,0,0,0,0,0,
0,113,168,168,169,170,0,0,0,0,0,79,0,0,0,0,0,0,0,0,0,0,0,0,0,0,0,0,0,0,
0,0,175,175,176,177,0,0,0,245,0,0,0,0,0,0,0,0,0,0,0,0,0,0,0,0,0,0,0,0,
0,0,111,102,0,0,0,0,0,256,0,0,305,0,0,0,0,0,0,0,0,0,0,0,0,0,0,0,0,0,
0,0,0,0,295,296,0,0,0,267,0,0,0,0,0,0,0,0,0,0,0,0,0,0,0,0,0,0,0,0,
264,331,331,331,306,307,265,265,266,0,0,0,0,0,0,0,0,0,0,0,0,0,0,0,0,0,0,0,0,0,
0,0,0,278,317,318,305,0,0,0,0,0,0,0,0,0,0,0,0,0,0,0,0,0,0,0,0,0,0,0,
0,0,0,0,0,0,0,0,0,0,0,0,0,0,0,0,0,0,0,0,0,0,0,0,0,0,0,0,0,0,
0,23,25,0,0,0,0,0,0,0,0,0,0,0,0,0,0,0,0,0,0,0,0,0,0,0,0,0,0,0,
0,1,3,0,302,302,0,0,0,0,0,0,0,0,0,0,0,0,0,0,0,0,0,0,0,0,0,0,0,0,
0,0,25,0,302,302,0,111,111,0,0,0,0,0,0,0,0,0,0,0,0,0,0,0,0,0,0,0,87,0,
0,0,0,0,0,0,0,0,147,148,149,0,0,0,0,0,0,0,0,0,0,0,0,100,0,0,0,0,0,0,
0,0,0,0,0,0,0,154,155,156,104,0,0,0,0,0,0,0,0,0,0,0,100,100,0,0,0,0,0,0,
0,0,0,0,0,0,0,161,162,163,113,0,0,0,0,0,0,0,0,0,0,0,0,0,0,0,0,0,0,0,
0,0,0,0,0,0,0,168,169,170,0,0,0,0,0,0,0,0,0,0,0,0,0,0,0,0,0,0,0,0,
0,0,0,0,0,0,164,165,104,153,166,0,0,111,0,0,0,0,0,0,0,0,0,0,0,0,0,0,0,0,
0,0,0,0,0,0,0,171,113,0,0,0,0,0,0,0,0,0,0,0,0,0,0,0,0,0,0,0,302,0,
0,0,0,0,0,0,0,0,0,0,0,0,0,0,0,0,0,0,0,0,0,0,0,0,0,0,0,0,302,0,
0,0,0,0,0,0,0,0,0,0,0,0,0,0,0,0,0,0,0,0,0,0,0,0,0,0,0,0,302,0
</data>
 </layer>
 <layer id="8" name="Tile Layer 7" width="30" height="20" locked="1">
  <data encoding="csv">
0,0,0,0,0,0,0,0,0,0,0,0,0,0,0,0,0,0,0,0,0,0,0,0,0,0,0,0,0,0,
0,0,0,0,0,0,0,0,0,0,0,0,0,0,0,0,0,0,0,0,0,0,0,0,0,0,0,0,0,0,
0,0,0,0,0,0,0,0,0,0,0,0,0,0,0,0,0,0,0,0,0,0,0,0,0,0,0,0,0,0,
0,0,0,0,0,0,0,0,0,0,0,0,0,0,0,0,0,0,0,0,0,0,0,0,0,0,0,0,0,0,
0,0,0,0,0,0,0,0,0,0,0,0,0,0,0,0,0,0,0,0,0,0,0,0,0,0,0,0,0,0,
0,0,0,0,0,0,0,0,0,0,0,0,0,0,0,0,0,0,0,0,0,0,0,0,0,0,0,0,0,0,
0,0,0,0,0,0,0,0,0,0,0,0,0,0,0,0,0,0,0,0,0,0,0,0,0,0,0,0,0,0,
0,0,0,0,0,0,0,0,0,0,0,0,0,0,0,0,121,0,0,0,0,0,0,0,0,0,0,0,0,0,
0,0,0,0,0,0,0,0,0,0,0,0,0,0,0,0,0,0,0,0,0,0,0,0,0,0,0,0,0,0,
0,0,0,0,0,0,0,0,0,0,0,0,0,0,0,0,0,0,0,0,0,0,0,0,0,0,0,0,0,0,
0,0,0,0,0,0,0,0,0,0,0,0,0,0,0,0,0,0,0,0,0,0,0,0,0,0,0,0,0,0,
0,0,105,0,0,0,0,0,0,0,0,0,0,0,0,0,0,0,0,0,0,0,0,0,0,0,0,0,0,0,
0,0,0,0,0,0,147,148,149,0,0,0,0,0,0,0,0,0,0,0,0,0,0,0,0,0,0,0,0,0,
105,0,0,0,0,0,0,0,154,155,156,0,0,0,0,0,0,0,0,0,0,0,0,0,0,0,0,0,0,0,
0,0,0,0,0,0,0,0,161,162,163,0,0,0,0,0,0,0,0,0,0,0,0,0,0,0,0,0,0,0,
0,0,0,0,0,0,0,0,168,169,170,0,0,0,0,0,0,0,0,0,0,0,0,0,0,0,0,0,0,0,
0,105,0,0,0,0,0,0,176,176,177,0,0,0,0,0,0,0,0,0,0,0,0,0,0,0,0,0,0,0,
0,0,105,0,0,0,0,0,0,0,0,0,105,0,0,0,0,0,0,0,0,0,0,0,0,0,0,0,0,0,
0,0,0,0,0,0,0,0,0,0,0,0,0,0,0,0,0,0,0,0,0,0,0,0,0,0,0,0,0,0,
0,0,0,0,0,0,0,0,0,0,0,0,0,0,0,0,0,0,0,0,0,0,0,0,0,0,0,0,0,0
</data>
 </layer>
 <layer id="9" name="Tile Layer 8" width="30" height="20" locked="1">
  <data encoding="csv">
0,0,0,0,0,0,0,0,0,0,0,0,0,0,0,0,0,0,0,0,0,0,0,0,0,0,0,0,0,0,
0,0,0,0,0,0,0,0,0,0,0,0,0,0,0,0,0,0,0,0,0,0,0,0,0,0,0,0,0,0,
0,0,0,0,0,0,0,0,0,0,0,0,0,0,0,0,0,0,0,0,0,0,0,0,0,0,0,0,0,0,
0,0,0,0,0,0,0,0,0,0,0,0,0,0,0,0,0,0,0,0,0,0,0,0,0,0,0,0,0,0,
0,0,0,0,0,0,0,0,0,0,0,0,0,0,0,0,0,0,0,0,0,0,0,0,0,0,0,0,0,0,
0,0,0,0,0,0,0,0,0,0,0,0,0,0,0,0,0,0,0,0,0,0,0,0,0,0,0,0,0,0,
0,0,0,0,0,0,0,0,0,0,0,0,0,0,0,0,0,0,0,0,0,0,0,0,0,0,0,0,0,0,
0,0,0,0,0,0,0,0,0,0,0,0,0,0,0,0,0,0,0,0,0,0,0,0,0,0,0,0,0,0,
0,0,0,0,0,0,0,0,0,0,0,0,0,0,0,0,0,0,0,0,0,0,0,0,0,0,0,0,0,0,
0,112,102,0,0,0,0,0,0,0,0,0,0,0,0,0,0,0,0,0,0,0,0,0,0,0,0,0,0,0,
0,0,0,0,0,0,0,0,0,0,0,0,0,0,0,0,0,0,0,0,0,0,0,0,0,0,0,0,0,0,
0,0,0,0,0,0,0,0,0,0,0,0,0,0,0,0,0,0,0,0,0,0,0,0,0,0,0,0,0,0,
0,0,0,0,0,0,0,0,0,0,0,0,0,0,0,0,0,0,0,0,0,0,0,0,0,0,0,0,0,0,
0,0,0,0,0,0,0,0,0,0,0,0,0,0,0,0,0,0,0,0,0,0,0,0,0,0,0,0,0,0,
0,0,0,0,0,0,0,0,0,0,0,0,0,0,0,0,0,0,0,0,0,0,0,0,0,0,0,0,0,0,
0,0,0,0,0,0,0,0,0,0,79,80,0,0,0,0,0,0,0,0,0,0,0,0,0,0,0,0,0,0,
0,0,0,0,0,0,0,144,0,0,88,89,0,0,0,0,0,0,0,0,0,0,0,0,0,0,0,0,0,0,
0,0,0,0,0,0,0,0,0,0,0,0,0,0,0,0,0,0,0,0,0,0,0,0,0,0,0,0,0,0,
0,0,0,0,0,0,0,0,0,0,0,0,0,0,0,0,0,0,0,0,0,0,0,0,0,0,0,0,0,0,
0,0,0,0,0,0,0,0,0,0,0,0,0,0,0,0,0,0,0,0,0,0,0,0,0,0,0,0,0,0
</data>
 </layer>
 <layer id="10" name="Tile Layer 9" width="30" height="20" locked="1">
  <data encoding="csv">
0,0,0,0,0,0,0,0,0,0,0,0,0,0,0,0,0,0,0,0,0,0,0,0,0,0,0,0,0,0,
0,0,0,0,0,0,0,0,0,0,0,0,0,0,0,0,0,0,0,0,0,0,0,0,0,0,0,0,0,0,
0,0,0,0,0,0,0,0,0,0,0,0,0,0,0,0,0,0,0,0,0,0,0,0,0,0,0,0,0,0,
0,0,0,0,0,0,0,0,0,0,0,0,0,0,0,0,0,0,0,0,0,0,0,0,0,0,0,0,0,0,
0,0,0,0,0,0,0,0,0,0,0,0,0,0,0,0,0,0,0,0,0,0,0,0,0,0,0,0,0,0,
0,0,0,0,0,0,0,0,0,0,0,0,0,0,0,0,0,0,0,0,0,0,0,0,0,0,0,0,0,0,
0,0,0,0,0,0,0,0,0,0,0,0,0,0,0,0,0,0,0,0,0,0,0,0,0,0,0,0,0,0,
0,0,0,0,0,0,0,0,194,195,196,0,0,0,0,0,0,0,0,0,0,0,0,0,0,0,0,0,0,0,
0,0,0,0,0,207,180,180,180,180,180,190,0,0,0,0,0,0,0,0,0,0,0,0,0,0,0,0,0,0,
0,0,0,0,180,180,180,198,184,199,180,206,0,0,0,0,0,0,0,0,0,0,0,0,0,0,0,0,78,0,
0,0,0,0,180,198,184,0,0,0,180,180,180,206,0,0,0,0,0,0,0,0,78,78,78,78,78,78,78,0,
0,0,0,0,0,0,0,0,0,0,183,184,180,180,180,206,0,0,0,0,78,78,78,0,0,0,101,0,0,0,
0,0,127,0,0,0,131,0,83,84,0,0,183,199,180,180,206,0,0,0,0,0,0,0,0,0,101,101,0,0,
0,128,134,0,0,0,131,0,0,0,0,0,0,0,183,199,180,0,0,0,0,0,0,0,0,0,0,0,0,0,
0,127,0,0,0,0,0,0,0,0,0,81,82,0,0,0,180,206,0,0,0,0,0,0,0,0,0,0,0,0,
0,127,0,0,0,0,0,0,0,0,0,90,91,0,0,180,180,180,0,0,0,0,0,0,0,0,0,0,0,0,
0,0,139,0,0,0,175,176,0,0,0,0,0,0,0,199,180,180,180,206,0,0,0,0,0,0,0,0,0,0,
0,0,0,104,0,0,0,0,0,0,0,0,0,104,0,0,180,180,180,200,0,0,0,0,0,0,0,0,0,0,
0,0,0,0,83,0,0,0,0,0,0,0,0,113,0,180,180,180,180,0,0,0,0,0,0,0,0,0,0,0,
0,0,0,0,0,0,0,0,0,0,0,0,0,180,180,180,180,183,184,0,0,0,0,0,0,0,0,0,0,0
</data>
 </layer>
 <layer id="11" name="HierbaAlta" width="30" height="20" locked="1">
  <data encoding="csv">
0,0,0,0,0,0,0,0,0,0,0,0,0,0,0,0,0,0,0,0,0,0,0,0,0,0,0,0,0,0,
0,0,0,0,0,0,0,0,0,0,0,0,0,0,0,0,0,0,0,0,0,0,0,0,0,0,0,0,0,0,
0,0,0,0,0,0,0,0,0,0,0,0,0,0,0,0,0,0,0,0,0,0,0,0,0,0,0,0,0,0,
0,0,0,0,0,0,0,0,0,0,63,0,0,0,0,0,0,0,0,0,0,0,0,0,0,0,0,0,0,0,
0,0,0,0,0,0,0,0,0,0,63,63,0,0,0,0,0,0,0,0,0,0,0,0,0,0,0,0,0,0,
0,0,0,0,0,0,0,0,0,0,63,63,63,0,0,0,0,0,0,0,0,0,0,0,0,0,0,0,0,0,
0,0,0,0,0,0,0,0,0,63,0,0,63,63,63,0,0,0,0,0,0,0,0,0,0,0,0,0,0,0,
63,63,63,0,0,0,0,0,0,0,0,0,0,63,0,0,0,0,0,0,0,0,0,0,63,63,0,63,0,0,
63,0,0,63,0,0,0,0,0,0,0,0,0,0,63,0,0,0,0,0,0,0,0,0,63,63,63,63,0,0,
63,0,0,63,0,0,0,0,0,0,0,0,0,0,0,0,0,0,0,0,0,0,0,63,63,63,63,63,0,0,
63,63,63,63,0,0,0,0,0,0,0,0,0,0,0,0,0,0,0,0,0,0,0,0,0,0,0,0,0,0,
63,0,0,0,0,0,0,0,0,0,0,0,0,0,0,0,0,0,0,0,0,0,0,0,0,0,0,0,0,63,
63,0,0,0,0,0,0,0,0,0,0,0,0,0,0,0,0,0,63,0,0,0,0,0,63,63,63,63,63,63,
0,0,0,0,0,0,0,0,0,0,0,0,0,0,0,0,0,0,0,0,0,0,0,0,63,63,63,63,63,0,
0,0,0,0,0,0,0,0,0,0,0,0,0,0,0,0,0,0,0,0,63,63,63,63,63,63,63,0,0,0,
0,0,0,0,0,0,0,0,0,0,0,0,0,0,0,0,0,0,63,63,63,63,0,0,0,0,0,0,0,0,
63,0,0,0,0,0,0,0,0,0,0,0,0,0,0,0,0,0,0,0,63,0,0,0,0,0,0,0,0,0,
63,63,0,0,0,0,0,0,0,0,0,0,0,0,0,0,0,0,0,0,0,0,0,0,0,0,0,0,0,0,
63,63,63,0,0,0,0,0,0,0,0,0,0,0,0,0,0,0,0,0,0,0,0,0,0,0,0,0,0,0,
63,63,63,63,63,0,0,0,0,0,0,0,0,0,0,0,0,0,0,0,0,0,0,0,0,0,0,0,0,0
</data>
 </layer>
</map>
