<?xml version="1.0" encoding="UTF-8"?>
<map version="1.10" tiledversion="1.11.2" orientation="orthogonal" renderorder="right-down" width="60" height="40" tilewidth="16" tileheight="16" infinite="0" nextlayerid="6" nextobjectid="1">
 <tileset firstgid="1" source="../tilesets/Tileset/Grass16.tsx"/>
 <tileset firstgid="78" source="../tilesets/Tileset/Water.tsx"/>
 <tileset firstgid="82" source="../tilesets/Tileset/Tilled Dirt.tsx"/>
 <tileset firstgid="146" source="../tilesets/Tileset/Basic Grass Biom things 1.tsx"/>
 <tileset firstgid="191" source="../tilesets/Tileset/Wooden House.tsx"/>
 <tileset firstgid="226" source="../tilesets/Tileset/Hills.tsx"/>
 <tileset firstgid="325" source="../tilesets/Tileset/Interiors_free_16x16.tsx"/>
 <tileset firstgid="1749" source="../tilesets/Tileset/Room_Builder_free_16x16.tsx"/>
 <tileset firstgid="2140" source="../tilesets/Tileset/atlas_16x.tsx"/>
 <tileset firstgid="2908" source="../tilesets/Tileset/spr_tileset_sunnysideworld_16px.tsx"/>
 <layer id="1" name="Tile Layer 1" width="60" height="40" locked="1">
  <data encoding="csv">
58,58,58,58,58,58,58,58,58,58,58,58,58,58,58,58,58,58,58,58,58,58,58,58,58,58,58,84,84,84,84,84,84,58,58,58,58,58,58,58,58,58,58,58,58,58,58,58,58,58,58,58,58,58,58,58,58,58,58,58,
58,58,58,58,58,58,58,58,58,58,58,58,58,58,58,58,58,58,58,58,58,58,58,58,58,58,58,84,84,84,84,84,84,58,58,58,58,58,58,58,58,58,58,58,58,58,58,58,58,58,58,58,58,58,58,58,58,58,58,58,
58,58,58,58,58,58,58,58,58,58,58,58,58,58,58,58,58,58,58,58,58,58,58,58,58,58,58,84,84,84,84,84,84,58,58,58,58,58,58,58,58,58,58,58,58,58,58,58,58,58,58,58,58,58,58,58,58,58,58,58,
58,58,58,58,58,58,58,58,58,58,58,58,58,58,58,58,58,58,58,58,58,58,58,58,58,58,58,84,84,84,84,84,84,58,58,58,58,58,58,58,58,58,79,79,79,79,79,79,79,58,58,58,58,58,58,58,58,58,58,58,
58,58,58,58,58,58,58,58,58,58,58,58,58,58,58,58,58,58,58,58,58,58,58,58,58,58,58,84,84,84,84,84,84,58,58,58,58,58,58,58,79,79,79,79,79,79,79,79,79,79,79,58,58,58,58,58,58,58,58,58,
58,58,58,58,58,58,58,58,58,58,58,58,58,58,58,58,58,58,58,58,58,58,58,58,58,58,58,84,84,84,84,84,84,58,58,58,58,58,58,79,79,79,79,79,79,79,79,79,79,79,79,79,79,58,58,58,58,58,58,58,
58,58,58,58,58,58,58,58,58,58,58,58,58,58,58,58,58,58,58,58,58,58,58,58,58,58,58,84,84,84,84,84,84,58,58,58,58,58,79,79,79,79,79,79,79,79,79,79,79,79,79,79,79,79,58,58,58,58,58,58,
58,58,58,58,58,58,58,58,58,58,58,58,58,58,58,58,58,58,58,58,58,58,58,58,58,58,58,84,84,84,84,84,84,58,58,58,58,79,79,79,79,79,79,79,79,79,79,79,79,79,79,79,79,79,79,58,58,58,58,58,
58,58,58,58,58,58,58,58,58,58,58,58,58,58,58,58,58,58,58,58,58,58,58,58,58,58,58,84,84,84,84,84,84,58,58,58,58,79,79,79,79,79,79,79,79,79,79,79,79,79,79,79,79,79,79,58,58,58,58,58,
58,58,58,58,58,58,58,58,58,58,58,58,58,58,58,58,58,58,58,58,58,58,58,58,58,58,58,84,84,84,84,84,84,58,58,58,79,79,79,79,79,79,79,79,79,79,79,79,79,79,79,79,79,79,79,58,58,58,58,58,
58,58,58,58,58,58,58,58,58,58,58,58,58,58,58,58,58,58,58,58,58,58,58,58,58,58,58,84,84,84,84,84,84,58,58,58,79,79,79,79,79,79,79,79,79,79,79,79,79,79,79,79,79,79,79,58,58,58,58,58,
58,58,58,58,58,58,58,58,58,58,58,58,58,58,58,58,58,58,58,58,58,58,58,58,58,58,58,84,84,84,84,84,84,58,58,58,79,79,79,79,79,79,79,79,79,79,79,79,79,79,79,79,79,79,79,58,58,58,58,58,
58,58,58,58,58,58,58,58,58,58,58,58,58,58,58,58,58,58,58,58,58,58,58,58,58,58,58,84,84,84,84,84,84,58,58,58,79,79,79,79,79,79,79,79,79,79,79,79,79,79,79,79,79,79,79,58,58,58,58,58,
58,58,58,58,58,58,58,58,58,58,58,58,58,58,58,58,58,58,58,58,58,58,58,58,58,58,58,84,84,84,84,84,84,58,58,58,79,79,79,79,79,79,79,79,79,79,79,79,79,79,79,79,79,79,79,58,58,58,58,58,
58,58,58,58,58,58,58,58,58,58,58,58,58,58,58,58,58,58,58,58,58,58,58,58,58,58,58,84,84,84,84,84,84,58,58,58,79,79,79,79,79,79,79,79,79,79,79,79,79,79,79,79,79,79,79,58,58,58,58,58,
58,58,58,58,58,58,58,58,58,58,58,58,58,58,58,58,58,58,58,58,58,58,58,58,58,58,58,84,84,84,84,84,84,58,58,58,79,79,79,79,79,79,79,79,79,79,79,79,79,79,79,79,79,79,79,58,58,58,58,58,
58,58,58,58,58,58,58,58,58,58,58,58,58,58,58,58,58,58,58,58,58,58,58,58,58,58,58,84,84,84,84,84,84,58,58,58,58,79,79,79,79,79,79,79,79,79,79,79,79,79,79,79,79,79,79,58,58,58,58,58,
58,58,58,58,58,58,58,58,58,58,58,58,58,58,58,58,58,58,58,58,58,58,58,58,58,58,58,84,84,84,84,84,84,58,58,58,58,79,79,79,79,79,79,79,79,79,79,79,79,79,79,79,79,79,79,58,58,58,58,58,
58,58,58,58,58,58,58,58,58,58,58,58,58,58,58,58,58,58,58,58,58,58,58,58,58,58,58,84,84,84,84,84,84,58,58,58,58,79,79,79,79,79,79,79,79,79,79,79,79,79,79,79,79,79,79,58,58,58,58,58,
58,58,58,58,58,58,58,58,58,58,58,58,58,58,58,58,58,58,58,58,58,58,58,58,58,58,58,84,84,84,84,84,84,58,58,58,58,58,79,79,79,79,79,79,79,79,79,79,79,79,79,79,79,79,79,58,58,58,58,58,
58,58,58,58,58,58,58,58,58,58,58,58,58,58,58,58,58,58,58,58,58,58,58,58,58,58,58,84,84,84,84,84,84,58,58,58,58,58,58,79,79,79,79,79,79,79,79,79,79,79,79,79,79,79,58,58,58,58,58,58,
58,58,58,58,58,58,58,58,58,58,58,58,58,58,58,58,58,58,58,58,58,58,58,58,58,58,58,84,84,84,84,84,84,58,58,58,58,58,58,58,79,79,79,79,79,79,79,79,79,79,79,79,79,79,58,58,58,58,58,58,
58,58,58,58,58,58,58,58,58,58,58,58,58,58,58,58,58,58,58,58,58,58,58,58,58,58,58,84,84,84,84,84,84,58,58,58,58,58,58,58,79,79,79,79,79,79,79,79,79,79,79,79,79,58,58,58,58,58,58,58,
58,58,58,58,58,58,58,58,58,58,58,58,58,58,58,58,58,58,58,58,58,58,58,58,58,58,58,84,84,84,84,84,84,58,58,58,58,58,58,58,58,58,58,79,79,79,79,79,79,79,79,79,58,58,58,58,58,58,58,58,
58,58,58,58,58,58,58,58,58,58,58,58,58,58,58,58,58,58,58,58,58,58,58,58,58,58,58,84,84,84,84,84,84,58,58,58,58,58,58,58,58,58,58,58,58,58,58,58,58,58,58,58,58,58,58,58,58,58,58,58,
58,58,58,58,58,58,58,58,58,58,58,58,58,58,58,58,58,58,58,58,58,58,58,58,58,58,58,84,84,84,84,84,84,58,58,58,58,58,58,58,58,58,58,58,58,58,58,58,58,58,58,58,58,58,58,58,58,58,58,58,
58,58,58,58,58,58,58,58,58,58,58,58,58,58,58,58,58,58,58,58,58,58,58,58,58,58,58,84,84,84,84,84,84,58,58,58,58,58,58,58,58,58,58,58,58,58,58,58,58,58,58,58,58,58,58,58,58,58,58,58,
58,58,58,58,58,58,58,58,58,58,58,58,58,58,58,58,58,58,58,58,58,58,58,58,58,58,58,84,84,84,84,84,84,58,58,58,58,58,58,58,58,58,58,58,58,58,58,58,58,58,58,58,58,58,58,58,58,58,58,58,
58,58,58,58,58,58,58,58,58,58,58,58,58,58,58,58,58,58,58,58,58,58,58,58,58,58,58,84,84,84,84,84,84,58,58,58,58,58,58,58,58,58,58,58,58,58,58,58,58,58,58,58,58,58,58,58,58,58,58,58,
58,58,58,58,58,58,58,58,58,58,58,58,58,58,58,58,58,58,58,58,58,58,58,58,58,58,58,84,84,84,84,84,84,58,58,58,58,58,58,58,58,58,58,58,58,58,58,58,58,58,58,58,58,58,58,58,58,58,58,58,
58,58,58,58,58,58,58,58,58,58,58,58,58,58,58,58,58,58,58,58,58,58,58,58,58,58,58,84,84,84,84,84,84,58,58,58,58,58,58,58,58,58,58,58,58,58,58,58,58,58,58,58,58,58,58,58,58,58,58,58,
58,58,58,58,58,58,58,58,58,58,58,58,58,58,58,58,58,58,58,58,58,58,58,58,58,58,58,84,84,84,84,84,84,58,58,58,58,58,58,58,58,58,58,58,58,58,58,58,58,58,58,58,58,58,58,58,58,58,58,58,
58,58,58,58,58,58,58,58,58,58,58,58,58,58,58,58,58,58,58,58,58,58,58,58,58,58,58,84,84,84,84,84,84,58,58,58,58,58,58,58,58,58,58,58,58,58,58,58,58,58,58,58,58,58,58,58,58,58,58,58,
58,58,58,58,58,58,58,58,58,58,58,58,58,58,58,58,58,58,58,58,58,58,58,58,58,58,58,84,84,84,84,84,84,58,58,58,58,58,58,58,58,58,58,58,58,58,58,58,58,58,58,58,58,58,58,58,58,58,58,58,
58,58,58,58,58,58,58,58,58,58,58,58,58,58,58,58,58,58,58,58,58,58,58,58,58,58,58,84,84,84,84,84,84,58,58,58,58,58,58,58,58,58,58,58,58,58,58,58,58,58,58,58,58,58,58,58,58,58,58,58,
58,58,58,58,58,58,58,58,58,58,58,58,58,58,58,58,58,58,58,58,58,58,58,58,58,58,58,84,84,84,84,84,84,58,58,58,58,58,58,58,58,58,58,58,58,58,58,58,58,58,58,58,58,58,58,58,58,58,58,58,
58,58,58,58,58,58,58,58,58,58,58,58,58,58,58,58,58,58,58,58,58,58,58,58,58,58,58,84,84,84,84,84,84,58,58,58,58,58,58,58,58,58,58,58,58,58,58,58,58,58,58,58,58,58,58,58,58,58,58,58,
58,58,58,58,58,58,58,58,58,58,58,58,58,58,58,58,58,58,58,58,58,58,58,58,58,58,58,84,84,84,84,84,84,58,58,58,58,58,58,58,58,58,58,58,58,58,58,58,58,58,58,58,58,58,58,58,58,58,58,58,
58,58,58,58,58,58,58,58,58,58,58,58,58,58,58,58,58,58,58,58,58,58,58,58,58,58,58,84,84,84,84,84,84,58,58,58,58,58,58,58,58,58,58,58,58,58,58,58,58,58,58,58,58,58,58,58,58,58,58,58,
58,58,58,58,58,58,58,58,58,58,58,58,58,58,58,58,58,58,58,58,58,58,58,58,58,58,58,84,84,84,84,84,84,58,58,58,58,58,58,58,58,58,58,58,58,58,58,58,58,58,58,58,58,58,58,58,58,58,58,58
</data>
 </layer>
 <layer id="5" name="Colisiones" width="60" height="40" locked="1">
  <data encoding="csv">
0,0,0,0,0,0,0,0,0,0,0,0,0,0,0,0,0,0,0,0,0,0,0,0,0,0,0,0,0,0,0,0,0,0,0,0,0,0,96,96,0,0,0,0,0,0,0,0,0,0,0,0,0,0,0,0,0,0,0,0,
0,0,0,0,0,0,0,0,0,0,0,0,0,0,0,0,0,0,0,0,0,0,0,0,0,0,0,0,0,0,0,0,0,0,0,0,0,0,96,96,0,0,0,0,0,0,0,0,0,0,0,0,0,0,0,0,0,0,0,0,
0,0,0,0,0,0,0,0,0,0,0,0,0,0,0,0,0,0,0,0,0,0,0,96,96,0,0,0,0,0,0,0,0,0,0,0,0,0,0,0,0,0,0,0,0,0,0,0,0,0,0,0,0,96,0,0,96,96,0,0,
0,0,0,0,0,0,0,0,0,0,0,0,0,0,0,0,0,0,0,0,0,0,0,96,96,0,0,0,0,0,0,0,0,0,0,0,0,0,0,0,0,0,96,96,96,96,96,96,96,0,0,0,0,96,0,0,96,96,0,0,
0,0,0,0,0,0,0,0,0,0,0,0,0,0,0,0,0,0,0,0,0,0,0,0,0,0,0,0,0,0,0,0,0,0,0,0,0,0,0,0,96,96,96,96,96,96,96,96,96,96,96,0,0,0,0,0,0,0,0,0,
0,0,0,0,0,0,0,0,0,0,0,0,0,0,0,0,0,0,0,0,0,0,0,0,0,0,0,0,0,0,0,0,0,0,0,0,0,0,0,96,96,96,96,96,96,96,96,96,96,96,96,96,96,0,0,0,0,0,0,0,
0,0,0,0,0,0,0,0,0,0,0,0,0,0,0,0,0,0,0,0,0,0,0,0,0,0,0,0,0,0,0,0,0,0,0,0,0,0,96,96,96,96,96,96,96,96,96,96,96,96,96,96,96,96,0,0,0,0,0,0,
0,0,0,0,0,0,0,0,0,0,0,0,0,0,0,0,0,0,0,0,0,0,0,0,0,0,0,0,0,0,0,0,0,0,0,0,0,96,96,96,96,96,96,96,96,96,96,96,96,96,96,96,96,96,96,0,0,0,0,0,
0,0,0,0,0,0,0,0,0,0,0,0,0,0,0,0,0,0,0,0,0,0,0,0,0,0,0,0,0,0,0,0,0,0,0,0,0,96,96,96,96,96,96,96,96,96,96,96,96,96,96,96,96,96,96,0,0,0,0,0,
0,0,0,0,0,0,0,0,0,0,0,0,0,0,0,0,0,0,0,0,0,0,0,0,0,0,0,0,0,0,0,0,0,0,0,0,96,96,96,96,96,96,96,96,96,96,96,96,96,96,96,96,96,96,96,0,0,96,96,0,
0,0,0,0,0,0,0,0,0,0,0,0,0,0,0,0,0,0,0,0,0,0,0,0,0,0,0,0,0,0,0,0,0,0,0,0,96,96,96,96,96,96,96,96,96,96,96,96,96,96,96,96,96,96,96,0,0,96,96,0,
0,0,96,96,96,96,96,96,96,96,96,96,0,0,96,96,96,96,0,0,0,0,0,0,0,0,0,0,0,0,0,0,0,0,0,0,96,96,96,96,96,96,96,96,96,96,96,96,96,96,96,96,96,96,96,0,0,0,0,0,
0,0,0,0,0,0,0,0,0,0,0,0,0,0,0,0,0,0,0,0,0,0,0,0,0,0,0,0,0,0,0,0,0,0,0,0,96,96,96,96,96,96,96,96,96,96,96,96,96,96,96,96,96,96,96,0,0,0,0,0,
0,0,0,96,96,0,0,96,0,0,0,0,0,0,0,0,0,0,0,0,0,0,0,0,96,96,0,0,0,0,0,0,0,0,0,0,96,96,96,96,96,96,96,96,96,96,96,96,96,96,96,96,96,96,96,0,0,0,0,0,
0,0,0,96,96,0,0,96,0,0,0,0,0,0,0,0,0,0,0,0,0,0,0,0,96,96,0,0,0,0,0,0,0,0,0,0,96,96,96,96,96,96,96,96,96,96,96,96,96,96,96,96,96,96,96,0,0,96,0,0,
0,0,0,0,0,0,0,0,0,0,0,0,0,0,96,96,0,0,0,0,0,0,0,0,0,0,0,0,0,0,0,0,0,0,0,0,96,96,96,96,96,96,96,96,96,96,96,96,96,96,96,96,96,96,96,0,0,96,0,0,
0,0,0,0,0,0,0,0,0,96,96,0,0,0,96,96,0,0,0,0,96,0,0,0,0,0,0,0,0,0,0,0,0,0,0,0,0,96,96,96,96,96,96,96,96,96,96,96,96,96,96,96,96,96,96,0,0,0,0,0,
0,0,0,0,0,0,96,0,0,96,96,0,0,0,0,0,0,0,0,0,96,0,0,0,0,0,0,0,0,0,0,0,0,0,0,0,0,96,96,96,96,96,96,96,96,96,96,96,96,96,96,96,96,96,96,0,0,0,0,0,
0,0,0,0,0,0,96,0,0,0,0,0,0,0,0,0,0,0,0,0,0,0,0,0,0,0,0,0,0,0,0,0,0,0,0,0,0,96,96,96,96,96,96,96,96,96,96,96,96,96,96,96,96,96,96,0,0,96,96,0,
0,0,0,96,96,0,0,0,0,0,0,0,0,0,0,0,0,0,0,0,0,0,0,0,0,0,0,0,0,0,0,0,0,0,0,0,0,0,96,96,96,96,96,96,96,96,96,96,96,96,96,96,96,96,96,0,0,96,96,0,
0,0,0,96,96,0,0,0,0,0,0,96,96,0,0,0,96,96,0,0,0,0,96,0,0,0,0,0,0,0,0,0,0,0,0,0,0,0,0,96,96,96,96,96,96,96,96,96,96,96,96,96,96,96,0,0,0,0,0,0,
0,0,0,0,0,0,0,0,0,0,0,96,96,0,0,0,96,96,0,0,0,0,96,0,0,0,0,0,0,0,0,0,0,0,0,0,0,0,0,0,96,96,96,96,96,96,96,96,96,96,96,96,96,96,0,0,0,0,0,0,
0,0,0,0,0,0,0,0,96,0,0,0,0,0,0,0,0,0,0,0,0,0,0,0,0,0,0,0,0,0,0,0,0,0,0,0,0,0,0,0,96,96,96,96,96,96,96,96,96,96,96,96,96,0,0,0,96,0,0,0,
0,0,0,0,96,96,0,0,0,0,0,0,0,0,0,0,0,0,0,0,0,0,0,0,0,0,0,0,0,0,0,0,0,0,0,0,0,0,0,0,0,0,0,96,96,96,96,96,96,96,96,96,0,0,0,0,96,0,0,0,
0,0,0,0,96,96,0,0,0,0,0,0,0,0,0,0,0,0,0,0,0,0,0,0,0,0,0,0,0,0,0,0,0,0,0,0,0,0,0,0,0,0,0,0,0,0,96,0,0,0,0,0,0,0,0,0,0,0,0,0,
0,0,0,0,0,0,0,0,0,0,96,96,0,0,0,96,96,0,0,0,0,0,0,0,0,0,0,0,0,0,0,0,0,0,0,0,0,0,0,0,0,0,0,0,0,0,96,0,0,0,0,0,0,0,0,0,0,0,0,0,
0,0,0,0,0,0,0,0,0,0,96,96,0,0,0,96,96,0,0,0,0,0,96,96,0,0,0,0,0,0,0,0,0,0,0,0,0,0,0,0,0,96,96,0,0,0,0,0,0,0,0,0,0,0,0,0,96,96,0,0,
0,0,0,96,96,0,0,0,0,0,0,0,0,0,0,0,0,0,0,0,0,0,96,96,0,0,0,0,0,0,0,0,0,0,0,0,0,0,0,0,0,96,96,0,0,0,0,0,96,96,0,0,96,96,0,0,96,96,0,0,
0,0,0,96,96,0,0,0,0,0,0,96,0,0,0,0,0,0,0,96,0,0,0,0,0,0,0,0,0,0,0,0,0,0,0,0,0,0,0,0,0,0,0,0,0,0,0,0,96,96,0,0,96,96,0,0,0,0,0,0,
0,0,0,0,0,0,0,96,0,0,0,96,0,0,0,0,0,0,0,96,0,0,0,0,0,0,0,0,0,0,0,0,0,0,0,0,0,0,0,0,0,0,0,0,0,0,0,0,0,0,0,0,0,0,0,0,0,0,0,0,
0,0,0,0,0,0,0,96,0,0,0,0,0,0,0,96,96,0,0,0,0,0,0,0,0,0,0,0,0,0,0,0,0,0,0,0,0,0,96,0,0,0,0,96,96,0,0,0,0,0,0,0,0,0,0,0,96,96,0,0,
0,0,0,0,0,0,0,0,0,0,0,0,0,0,0,96,96,0,0,0,0,0,0,0,0,0,0,0,0,0,0,0,0,0,0,0,0,0,96,0,0,0,0,96,96,0,0,0,0,0,0,0,0,0,0,0,96,96,0,0,
0,0,0,0,96,96,0,0,0,0,96,96,0,0,0,0,0,0,0,0,0,0,96,96,0,0,0,0,0,0,0,0,0,0,0,0,0,0,0,0,0,0,0,0,0,0,0,0,0,0,96,96,0,0,0,0,0,0,0,0,
0,0,0,0,96,96,0,0,0,0,96,96,0,0,0,0,0,0,0,0,0,0,96,96,0,0,0,0,0,0,0,0,0,0,0,0,0,0,0,0,0,0,0,0,0,0,96,96,0,0,96,96,0,0,0,0,0,0,0,0,
0,0,0,0,0,0,0,0,96,0,0,0,0,0,0,0,0,0,0,0,0,0,0,0,0,0,0,0,0,0,0,0,0,0,0,0,0,0,0,0,0,0,0,0,0,0,96,96,0,0,0,0,0,0,96,96,0,0,0,0,
0,0,0,96,0,0,0,0,96,0,0,0,0,0,0,96,96,0,0,0,0,0,0,0,0,0,0,0,0,0,0,0,0,0,0,0,0,0,0,96,96,0,0,0,0,0,0,0,0,0,0,0,0,0,96,96,0,0,0,0,
0,0,0,96,96,96,0,0,0,0,0,0,0,0,0,96,96,0,0,0,0,0,0,0,0,0,0,0,0,0,0,0,0,0,0,0,0,0,0,96,96,0,0,0,0,0,0,0,0,0,96,96,0,0,0,0,0,0,0,0,
0,0,0,0,96,96,0,0,0,0,0,0,96,0,0,0,0,0,0,0,0,96,96,0,0,0,0,0,0,0,0,0,0,0,0,0,0,0,0,0,0,0,0,96,96,0,0,0,0,0,96,96,0,0,0,0,96,96,0,0,
0,0,0,0,0,0,0,0,0,96,96,0,96,0,0,0,0,0,0,0,0,96,96,0,0,0,0,0,0,0,0,0,0,0,0,0,0,0,0,0,0,0,0,96,96,0,0,0,0,0,0,0,0,0,0,0,96,96,0,0,
0,0,0,0,0,0,0,0,0,96,96,0,0,0,0,0,0,0,0,0,0,0,0,0,0,0,0,0,0,0,0,0,0,0,0,0,0,0,0,0,0,0,0,0,0,0,0,0,0,0,0,0,0,0,0,0,0,0,0,0
</data>
 </layer>
 <layer id="2" name="Tile Layer 2" width="60" height="40" locked="1">
  <data encoding="csv">
0,0,0,0,0,0,0,0,0,0,0,0,0,0,0,0,0,0,0,0,0,0,0,0,0,0,115,0,0,0,0,0,0,117,0,0,0,0,147,148,0,0,0,0,0,0,0,0,0,0,0,0,0,0,0,0,0,0,0,0,
0,0,0,0,0,0,0,0,0,0,0,0,0,0,0,0,0,0,0,0,0,0,0,0,0,0,115,0,0,0,0,0,0,117,170,0,0,0,156,157,0,170,0,0,0,151,0,0,0,0,170,0,0,0,170,0,0,0,0,0,
0,0,0,0,0,0,0,0,0,0,0,179,0,0,0,0,0,0,0,0,0,0,0,149,150,0,115,0,0,0,0,0,0,117,0,0,0,0,0,0,0,0,0,0,0,0,0,0,0,0,0,0,0,146,0,0,147,148,0,0,
0,0,0,0,179,195,196,196,196,196,196,196,196,196,197,179,0,0,0,0,0,0,0,158,159,0,115,0,0,0,0,0,0,117,0,0,0,0,0,0,0,0,0,0,0,0,0,0,0,0,0,0,0,155,0,0,156,157,0,0,
0,0,0,0,0,202,199,199,199,199,199,199,199,199,204,0,0,0,0,151,0,0,0,0,0,0,115,0,0,0,0,0,0,117,0,0,0,0,0,0,0,0,0,0,0,0,0,0,0,0,0,0,0,0,170,0,0,0,0,0,
0,0,0,0,0,202,0,0,0,0,0,0,210,210,204,0,0,0,0,0,0,0,0,0,0,0,115,0,0,0,0,0,0,117,0,162,0,0,0,0,0,0,0,0,0,0,0,0,0,0,0,0,0,0,0,0,151,0,0,0,
0,0,0,0,0,209,210,210,210,210,210,210,210,210,211,179,0,0,0,0,0,0,0,151,0,0,115,0,0,0,0,0,0,117,0,0,0,0,0,0,0,0,0,0,0,0,0,0,0,0,0,0,0,0,0,0,0,170,0,0,
0,0,0,0,0,205,0,0,0,0,0,0,0,0,207,0,0,0,0,170,0,0,0,0,0,0,115,0,0,0,0,0,0,117,0,0,0,0,0,0,0,0,0,0,0,0,0,0,0,0,0,0,0,0,0,0,170,0,0,0,
0,0,0,179,0,212,213,213,192,201,192,213,213,213,214,0,179,0,0,0,0,0,0,0,0,0,115,0,0,0,0,0,0,117,0,0,0,0,0,0,0,0,0,0,0,0,0,0,0,0,0,0,0,0,0,0,0,0,0,0,
0,0,0,0,0,0,0,0,0,0,0,0,0,0,0,0,179,0,0,0,0,0,0,0,0,0,115,0,0,0,0,0,0,117,189,0,0,0,0,0,0,0,0,0,0,0,0,0,0,0,0,0,0,0,0,0,0,147,148,0,
0,0,0,0,0,0,0,0,0,0,0,0,0,0,0,0,0,0,0,0,0,0,0,0,0,0,115,0,0,0,0,0,0,117,0,0,0,0,0,0,0,0,0,0,0,0,0,0,0,0,0,0,0,0,0,0,0,156,157,0,
0,0,0,0,0,0,0,0,0,0,0,0,0,0,0,0,0,0,0,0,0,151,0,0,151,0,115,0,0,0,0,0,0,117,0,0,0,0,0,0,0,0,0,0,0,0,0,0,0,0,0,0,0,0,0,0,0,0,0,0,
0,0,0,0,0,0,0,0,0,0,0,0,0,0,0,0,0,0,0,0,0,0,0,0,0,0,115,0,0,0,0,0,0,117,162,0,0,0,0,0,0,0,0,0,0,0,0,0,0,0,0,0,190,0,0,151,0,170,0,0,
0,179,0,147,148,0,0,146,0,0,0,0,0,0,0,0,0,0,0,0,0,0,0,0,149,150,115,0,0,0,0,0,0,117,0,190,0,0,0,0,0,0,0,0,0,0,0,0,0,0,0,0,0,0,0,0,0,0,0,0,
0,0,0,156,157,0,0,155,0,0,0,0,0,0,0,0,0,0,0,0,0,0,0,0,158,159,115,0,0,0,0,0,0,117,0,0,0,0,0,0,0,0,0,0,0,0,0,0,0,0,0,0,0,0,0,0,0,146,0,0,
0,0,0,0,0,0,0,0,0,0,0,179,0,0,131,132,133,0,0,0,0,0,0,0,0,0,115,0,0,0,0,0,0,117,0,0,0,0,0,0,0,0,0,0,0,0,0,0,0,0,0,0,0,189,0,0,0,155,0,0,
0,0,179,0,0,0,0,179,0,147,148,0,0,0,158,159,0,131,132,133,146,0,0,0,0,0,115,0,0,0,0,0,0,117,0,0,162,0,0,0,0,0,0,0,0,0,0,0,0,0,0,0,0,0,0,0,0,0,0,170,
0,0,0,161,0,0,146,0,0,156,157,0,0,0,0,0,0,0,0,0,155,0,0,0,0,0,115,0,0,0,0,0,0,117,0,0,0,0,0,0,0,0,0,0,0,0,0,0,0,0,0,0,0,0,0,0,151,0,0,0,
0,0,0,0,0,0,155,0,0,0,0,0,179,0,0,0,0,179,0,172,0,0,0,0,0,0,115,0,0,0,0,0,0,117,0,0,0,190,0,0,0,0,0,0,0,0,0,0,0,0,0,0,0,0,0,0,0,147,148,0,
0,0,0,149,150,0,0,161,0,0,0,0,0,0,179,0,0,0,0,181,0,0,0,0,0,0,115,0,0,0,0,0,0,117,0,0,0,0,0,189,162,0,0,0,0,0,0,0,0,0,0,190,0,162,0,0,0,156,157,0,
0,0,0,158,159,0,0,0,179,0,0,149,150,0,0,0,147,148,0,0,0,0,146,0,0,0,115,0,0,0,0,0,0,117,0,0,0,0,0,0,0,0,0,0,0,0,0,0,0,0,0,0,0,0,0,170,0,0,0,0,
0,0,0,0,0,0,179,0,0,0,0,158,159,0,0,0,156,157,0,0,0,0,155,0,0,0,115,0,0,0,0,0,0,117,0,0,0,0,0,0,0,0,0,0,0,0,0,162,0,0,0,0,0,0,0,170,0,0,0,0,
0,0,0,0,0,0,0,0,146,0,0,0,0,151,0,0,0,0,0,179,0,0,0,0,0,0,85,0,0,0,0,0,0,86,0,0,0,0,0,0,0,0,189,0,0,190,0,0,0,0,190,0,0,0,0,151,146,0,170,0,
0,0,161,0,147,148,0,0,155,0,0,179,0,0,0,0,179,0,0,0,0,161,0,0,179,0,85,0,0,0,0,0,0,94,0,0,0,0,0,0,0,0,0,0,0,0,0,0,0,0,0,0,0,0,0,0,155,0,0,0,
0,0,0,0,156,157,0,0,0,0,0,0,161,0,0,0,0,0,151,0,0,0,0,0,0,0,85,0,0,0,0,0,0,86,161,0,0,0,172,0,0,0,0,0,0,0,146,0,0,0,0,0,0,0,0,0,0,0,0,0,
0,0,0,0,0,0,0,0,0,0,147,148,0,0,0,149,150,0,0,179,172,0,0,0,0,0,85,0,0,0,0,0,0,94,0,0,0,0,181,0,0,0,0,0,0,0,155,0,0,0,0,0,151,0,0,0,0,0,170,0,
0,0,179,0,0,0,0,161,0,0,156,157,0,0,0,158,159,0,0,0,181,0,147,148,0,0,85,0,0,0,0,0,0,86,0,0,0,0,0,0,0,147,148,0,0,0,0,0,170,170,0,0,0,0,151,0,147,148,0,0,
0,0,0,149,150,0,0,0,179,0,0,0,0,0,0,0,0,0,0,0,0,0,156,157,0,0,85,0,0,0,0,0,0,94,0,0,0,0,161,170,0,156,157,0,0,0,0,0,149,150,0,0,147,148,0,0,156,157,0,0,
0,0,0,158,159,0,0,0,0,0,0,146,0,0,0,0,0,0,0,146,0,0,0,0,0,0,85,0,0,0,0,0,0,86,0,0,0,0,0,0,0,0,0,0,0,0,0,0,158,159,0,0,156,157,0,0,0,0,0,0,
0,0,0,0,0,0,0,146,0,0,0,155,0,0,161,0,0,0,0,155,0,0,0,0,179,0,85,0,0,0,0,0,0,94,172,0,0,0,0,0,0,0,0,0,0,0,0,0,0,0,0,0,0,0,0,0,0,0,0,0,
0,0,0,0,0,0,0,155,0,0,0,0,0,0,0,147,148,0,0,0,0,0,161,0,0,0,85,0,0,0,0,0,0,86,181,0,0,0,146,0,0,0,0,149,150,0,170,0,0,0,170,0,0,0,0,0,149,150,0,0,
0,179,0,161,0,0,0,161,0,0,179,0,0,0,0,156,157,0,0,179,0,0,0,0,0,0,85,0,0,0,0,0,0,94,0,0,0,0,155,0,0,161,0,158,159,0,0,0,151,0,0,0,0,151,0,0,158,159,0,0,
0,0,0,0,147,148,0,0,0,0,149,150,0,0,0,0,0,0,0,179,0,0,149,150,0,0,85,0,0,0,0,0,0,86,0,0,0,0,0,0,0,0,0,0,0,0,0,0,0,0,149,150,0,0,0,0,0,0,0,0,
0,0,0,0,156,157,0,0,0,0,158,159,0,0,0,0,0,0,0,0,0,0,158,159,0,0,85,0,0,0,0,0,0,94,0,172,0,0,0,0,0,170,0,0,0,0,147,148,0,0,158,159,0,0,0,0,0,172,0,0,
0,0,0,0,0,0,0,0,146,0,0,0,0,179,0,0,0,0,0,0,161,0,0,0,0,0,85,0,0,0,0,0,0,86,0,181,0,0,0,0,0,0,151,0,170,0,156,157,0,0,0,0,0,151,147,148,0,181,0,0,
0,0,0,146,0,0,179,0,155,0,0,0,0,0,0,149,150,0,0,0,0,0,0,0,0,0,85,0,0,0,0,0,0,94,0,0,0,0,0,147,148,0,0,0,0,0,0,0,0,0,0,0,0,0,156,157,0,170,0,0,
0,0,0,155,149,150,0,0,0,179,0,0,0,0,0,158,159,0,0,0,0,0,0,0,0,161,85,0,0,0,0,0,0,86,0,0,0,170,0,156,157,0,0,0,0,0,0,0,0,0,149,150,0,0,0,0,0,0,0,0,
0,0,179,0,158,159,0,0,0,0,0,0,146,0,0,0,0,0,0,179,0,147,148,0,0,0,85,0,0,0,0,0,0,94,0,0,0,0,0,0,0,0,0,149,150,0,0,0,151,0,158,159,0,0,0,0,149,150,0,0,
0,0,0,0,0,0,179,0,0,147,148,0,155,0,0,0,0,151,0,0,0,156,157,0,179,0,85,0,0,0,0,0,0,86,0,0,0,0,0,170,0,0,0,158,159,0,0,0,0,0,0,0,0,0,151,0,158,159,0,0,
0,0,161,0,0,0,0,0,0,156,157,0,0,0,0,0,0,0,0,0,0,0,0,0,0,0,85,0,0,0,0,0,0,94,0,0,0,161,0,0,0,0,0,0,0,0,0,0,0,0,0,0,0,0,0,0,0,0,0,0
</data>
 </layer>
 <layer id="3" name="Tile Layer 3" width="60" height="40" locked="1">
  <data encoding="csv">
0,0,0,0,0,0,0,0,0,0,0,0,0,0,0,0,0,0,0,0,0,0,0,0,0,0,0,0,0,0,0,0,0,0,0,0,0,0,0,0,0,0,0,0,0,0,0,0,0,0,0,0,0,0,0,0,0,0,0,0,
0,0,0,0,0,0,0,0,172,0,0,0,0,0,0,172,0,0,0,0,0,0,0,0,0,0,0,0,0,0,0,0,0,0,0,0,0,0,0,0,0,0,0,0,0,0,0,0,0,0,0,0,0,0,0,0,0,0,0,0,
0,0,226,172,227,227,227,227,181,227,227,227,227,227,227,181,227,228,0,0,0,0,0,0,0,172,0,0,0,0,0,0,0,0,0,0,0,0,0,0,0,0,0,0,0,0,0,0,169,0,0,0,0,0,0,0,0,0,0,0,
0,0,237,181,0,0,0,0,0,0,0,0,0,0,0,0,0,239,0,0,0,0,0,0,0,181,0,0,0,0,0,0,0,0,0,0,0,0,0,0,0,0,0,0,0,0,0,0,0,0,0,0,0,0,0,0,0,0,0,0,
0,0,237,0,172,0,203,203,203,203,203,203,203,203,0,0,0,239,0,0,0,0,0,0,0,0,0,0,0,0,0,0,0,0,0,0,0,0,0,0,0,0,0,0,0,0,0,0,0,0,0,0,0,0,0,0,0,0,0,0,
0,0,172,0,181,0,203,203,203,203,203,203,203,203,0,0,0,172,0,0,0,0,0,0,0,0,0,0,0,0,0,0,0,0,0,0,0,0,0,0,0,0,0,0,0,0,0,0,0,0,0,0,0,0,169,0,0,0,0,0,
0,0,181,0,0,0,0,0,0,0,0,0,0,0,0,0,0,181,0,0,0,0,0,0,0,0,0,0,0,0,0,0,0,0,0,169,0,0,0,0,0,0,0,0,0,0,0,0,0,0,0,0,0,0,0,0,0,0,0,0,
0,0,237,0,0,216,217,217,217,217,217,217,217,217,172,0,0,239,0,0,0,0,172,0,0,0,0,0,0,0,0,0,0,0,0,0,0,0,0,0,0,0,0,0,0,0,0,0,0,0,0,0,0,0,0,0,0,0,0,0,
0,0,237,0,0,172,224,224,224,224,224,224,224,224,181,0,0,239,0,0,0,0,181,0,0,0,0,0,0,0,0,0,0,0,0,0,0,0,0,0,0,0,0,0,0,0,0,0,0,0,0,0,0,0,0,0,0,0,0,0,
0,0,237,0,0,181,0,0,0,0,0,0,0,0,0,0,0,239,0,0,0,0,0,0,0,0,0,0,0,0,0,0,0,0,0,0,0,0,0,0,0,0,0,0,0,0,0,0,0,0,0,0,0,0,0,0,0,0,0,0,
0,0,237,0,0,0,0,0,0,0,0,0,279,280,0,0,0,239,0,0,0,0,0,0,0,0,0,0,0,0,0,0,0,0,169,0,0,0,0,0,0,0,0,0,0,0,0,0,0,0,0,0,0,0,0,0,0,0,0,0,
0,0,259,260,260,260,260,260,260,260,260,260,290,291,260,260,260,261,0,0,0,0,0,0,0,0,0,0,0,0,0,0,0,0,0,0,0,0,0,0,0,0,0,0,0,0,0,0,0,0,0,0,0,0,0,0,0,0,0,0,
0,0,0,0,0,0,0,0,0,0,0,0,301,302,0,0,0,0,0,0,0,0,0,0,0,0,0,0,0,0,0,0,0,0,0,0,0,0,0,0,0,0,0,0,0,0,0,0,0,0,0,0,0,0,0,0,0,0,0,0,
0,0,0,0,0,0,0,0,0,131,132,133,131,132,133,0,0,0,0,0,0,0,0,0,0,0,0,0,0,0,0,0,0,0,0,0,0,0,0,0,0,0,0,0,0,0,0,0,0,0,0,0,0,0,0,0,0,0,0,0,
0,0,0,0,0,0,0,0,0,0,0,0,131,132,133,131,132,133,0,0,0,0,0,0,0,0,0,0,0,0,0,0,0,0,0,0,0,0,0,0,0,0,0,0,0,0,0,0,0,0,0,0,0,0,0,0,0,0,0,0,
0,172,0,0,0,0,0,0,0,0,0,0,0,0,149,150,0,0,131,132,133,0,0,0,0,0,0,0,0,0,0,0,0,0,0,0,0,0,0,0,0,0,0,0,0,0,0,0,0,0,0,0,0,0,0,0,0,0,0,0,
0,181,0,0,0,0,0,0,0,0,0,0,0,0,0,0,0,0,0,0,0,131,132,133,0,0,0,0,0,0,0,0,0,0,0,0,0,0,0,0,0,0,0,0,0,0,0,0,0,0,0,0,0,0,0,0,0,0,0,0,
0,0,0,0,0,0,0,0,0,0,0,0,0,0,0,0,0,0,0,0,131,132,133,131,132,133,0,0,0,0,0,0,0,0,0,0,0,0,0,0,0,0,0,0,0,0,0,0,0,0,0,0,0,0,0,0,0,0,0,0,
0,0,0,0,0,0,0,0,0,0,0,0,0,0,0,172,0,0,0,0,0,0,0,131,132,133,0,0,0,0,0,0,0,0,0,0,0,0,0,0,0,0,0,0,0,0,0,0,0,0,0,0,0,0,0,0,0,0,0,0,
0,0,0,0,0,0,0,0,0,0,0,0,0,0,0,181,0,0,0,0,0,0,0,0,0,0,0,0,0,0,0,0,0,0,0,0,0,0,0,0,0,0,169,0,0,0,0,0,0,0,0,0,0,0,0,0,0,0,0,0,
0,0,0,0,0,0,0,0,0,0,0,0,0,0,0,0,0,0,0,0,0,0,0,0,0,0,0,0,0,0,0,0,0,0,0,0,0,0,0,0,0,0,0,0,0,0,0,0,0,0,0,0,0,0,0,0,0,0,0,0,
0,0,172,0,0,0,0,0,0,0,0,0,0,0,0,0,0,0,0,0,0,0,0,0,0,0,0,0,0,0,0,0,0,0,0,0,0,0,0,0,0,0,0,0,0,0,0,0,0,0,0,0,0,0,0,0,0,0,0,0,
0,0,181,0,0,0,0,0,0,0,0,0,0,0,0,0,0,0,0,0,0,0,0,0,0,0,0,0,0,0,0,0,0,0,0,0,0,0,0,0,0,0,0,0,0,0,0,0,0,0,0,0,0,0,0,0,0,0,0,0,
0,0,0,0,0,0,0,0,172,0,0,0,0,0,0,0,0,0,0,0,0,0,0,0,0,0,0,0,0,0,0,0,0,0,0,0,0,0,0,0,0,0,0,0,0,0,0,0,0,0,0,0,0,0,0,0,0,0,0,0,
0,0,0,0,0,0,0,0,181,0,0,0,0,0,0,0,0,0,0,0,0,0,0,0,0,0,0,0,0,0,0,0,0,0,0,0,0,0,0,0,0,0,0,0,0,0,0,0,0,0,0,0,0,0,0,0,0,0,0,0,
0,0,0,0,0,0,0,0,0,0,0,0,0,0,0,0,0,0,0,0,0,0,0,0,0,0,0,0,0,0,0,0,0,0,0,0,0,0,0,0,0,0,0,0,0,0,0,0,0,0,0,0,0,0,0,0,0,0,0,0,
172,0,0,0,0,0,0,0,0,0,0,0,0,0,0,0,0,0,0,0,0,0,0,0,0,0,0,0,0,0,0,0,0,0,0,0,0,0,0,0,0,0,0,0,0,0,0,0,0,0,0,0,0,0,0,0,0,0,0,0,
181,0,0,0,0,0,0,0,0,0,0,0,0,0,0,172,0,0,0,0,0,0,0,0,0,0,0,0,0,0,0,0,0,0,0,0,172,0,0,0,0,0,0,0,0,172,0,0,0,0,0,0,0,0,0,0,0,0,0,0,
0,0,0,0,0,0,0,0,0,0,0,0,0,0,0,181,0,0,0,0,0,0,0,0,0,0,0,0,0,0,0,0,0,0,0,0,181,0,0,0,0,0,0,0,0,181,0,0,0,0,0,0,0,0,0,0,0,0,0,0,
0,0,0,0,0,0,0,0,0,0,0,0,0,0,0,0,0,0,0,0,0,0,0,0,0,0,0,0,0,0,0,0,0,0,0,0,0,0,0,0,0,0,0,0,0,0,0,0,0,0,0,0,0,0,0,0,0,0,0,0,
0,0,0,0,0,0,0,0,0,0,0,0,0,0,0,0,0,0,0,0,0,0,0,0,0,0,0,0,0,0,0,0,0,0,0,0,0,0,0,0,0,0,0,0,0,0,0,0,0,0,0,0,0,0,0,0,0,0,0,0,
0,0,0,0,0,0,0,0,0,0,0,0,0,0,0,0,0,0,0,0,0,0,0,0,0,0,0,0,0,0,0,0,0,0,0,0,0,0,0,0,0,0,0,0,0,0,0,0,0,0,0,0,0,0,0,0,0,0,0,0,
0,172,0,0,0,0,0,0,0,0,0,0,0,0,172,0,0,0,0,0,0,0,0,0,0,0,0,0,0,0,0,0,0,0,0,0,0,0,0,0,0,0,0,0,0,0,0,0,0,0,0,0,0,0,0,0,0,0,0,0,
0,181,0,0,0,0,0,0,0,0,0,0,0,0,181,0,0,0,0,0,0,0,0,0,0,0,0,0,0,0,0,0,0,0,0,0,0,0,0,0,0,0,0,0,0,0,0,0,0,0,0,0,0,0,0,0,0,0,0,0,
0,0,0,0,0,0,0,0,0,0,0,0,0,0,0,0,0,0,172,0,0,0,0,0,0,0,0,0,0,0,0,0,0,0,0,0,0,0,0,0,0,0,0,0,0,0,0,0,0,0,0,0,0,0,0,0,0,0,0,0,
0,0,0,0,0,0,0,0,0,0,0,0,0,0,0,0,0,0,181,0,0,0,0,172,0,0,0,0,0,0,0,0,0,0,0,0,0,0,0,0,0,0,0,0,0,0,0,0,0,0,0,0,0,0,0,0,0,0,0,0,
0,0,0,0,0,0,0,0,0,0,0,0,0,0,0,0,0,0,0,0,0,0,0,181,0,0,0,0,0,0,0,0,0,0,0,0,0,0,0,0,0,0,0,0,0,0,0,0,0,0,0,0,0,0,0,0,0,0,0,0,
0,0,0,0,0,0,0,0,0,0,0,0,0,0,0,0,0,0,0,0,0,0,0,0,0,0,0,0,0,0,0,0,0,0,0,172,0,0,0,0,0,0,0,0,0,0,0,0,0,0,0,0,0,0,0,0,0,0,0,0,
0,0,0,0,0,0,0,0,0,0,0,0,0,0,0,0,0,0,0,0,0,0,0,0,0,0,0,0,0,0,0,0,0,0,0,181,0,0,0,0,0,0,0,0,0,0,0,0,0,0,0,0,0,0,0,0,0,0,0,0,
0,0,0,0,0,0,0,0,0,0,0,0,0,0,0,0,0,0,0,0,0,0,0,0,0,0,0,0,0,0,0,0,0,0,0,0,0,0,0,0,0,0,0,0,0,0,0,0,0,0,0,0,0,0,0,0,0,0,0,0
</data>
 </layer>
 <layer id="4" name="HierbaAlta" width="60" height="40" locked="1">
  <data encoding="csv">
0,0,0,0,0,0,0,0,0,0,0,0,0,0,0,0,0,0,0,63,63,63,63,63,63,0,0,0,0,0,0,0,0,0,63,63,63,63,0,0,63,63,63,63,63,63,63,63,63,63,63,63,63,63,63,63,63,63,63,0,
0,0,0,0,0,0,0,0,0,0,0,0,0,0,0,0,0,0,63,63,63,63,63,63,63,63,0,0,0,0,0,0,0,0,0,63,63,63,0,0,63,0,63,63,63,0,63,63,63,63,0,63,63,63,0,63,63,63,63,63,
0,0,0,0,0,0,0,0,0,0,0,0,0,0,0,0,0,0,0,63,63,63,63,0,0,0,0,0,0,0,0,0,0,0,63,63,63,63,63,63,63,63,0,0,0,0,0,0,0,0,0,0,0,0,63,63,0,0,63,63,
0,0,0,0,0,0,0,0,0,0,0,0,0,0,0,0,0,0,0,63,63,63,63,0,0,0,0,0,0,0,0,0,0,0,63,63,63,63,63,63,63,0,0,0,0,0,0,0,0,0,0,0,0,0,63,63,0,0,63,63,
0,0,0,0,0,0,0,0,0,0,0,0,0,0,0,0,0,0,0,0,63,63,63,63,63,63,0,0,0,0,0,0,0,0,63,63,63,63,63,63,0,0,0,0,0,0,0,0,0,0,0,0,0,0,0,63,63,63,63,63,
0,0,0,0,0,0,0,0,0,0,0,0,0,0,0,0,0,0,0,63,63,63,63,63,63,63,0,0,0,0,0,0,0,0,63,0,63,63,0,0,0,0,0,0,0,0,0,0,0,0,0,0,0,0,0,0,0,63,63,63,
0,0,0,0,0,0,0,0,0,0,0,0,0,0,0,0,0,0,0,63,63,63,63,0,63,63,0,0,0,0,0,0,0,0,63,0,0,0,0,0,0,0,0,0,0,0,0,0,0,0,0,0,0,0,0,0,73,0,63,63,
0,0,0,0,0,0,0,0,0,0,0,0,0,0,0,0,0,0,0,0,63,63,0,63,63,63,0,0,0,0,0,0,0,0,63,0,0,0,0,0,0,0,0,0,0,0,0,0,0,0,0,0,0,0,0,0,0,63,63,63,
0,0,0,0,0,0,0,0,0,0,0,0,0,0,0,0,0,0,0,63,63,63,0,63,63,63,0,0,0,0,0,0,0,0,0,0,0,0,0,0,0,0,0,0,0,0,0,0,0,0,0,0,0,0,0,0,0,0,63,63,
0,0,0,0,0,0,0,0,0,0,0,0,0,0,0,0,0,0,0,0,63,63,63,63,63,63,0,0,0,0,0,0,0,0,0,0,0,0,0,0,0,0,0,0,0,0,0,0,0,0,0,0,0,0,0,0,0,0,0,63,
0,0,0,0,0,0,0,0,0,0,0,0,0,0,0,0,0,0,0,0,0,63,63,63,63,63,0,0,0,0,0,0,0,0,0,0,0,0,0,0,0,0,0,0,0,0,0,0,0,0,0,0,0,0,0,0,0,0,0,63,
0,0,0,0,0,0,0,0,0,0,0,0,0,0,0,0,0,0,0,0,0,0,63,63,0,63,0,0,0,0,0,0,0,0,0,0,0,0,0,0,0,0,0,0,0,0,0,0,0,0,0,0,0,0,0,0,0,0,63,63,
0,0,0,0,0,0,0,0,0,0,0,0,0,0,0,0,0,0,0,0,0,0,63,63,63,63,0,0,0,0,0,0,0,0,0,0,0,0,0,0,0,0,0,0,0,0,0,0,0,0,0,0,0,0,0,0,0,0,63,63,
0,0,63,0,0,0,0,0,0,0,0,0,0,0,0,0,0,0,0,0,0,0,0,63,0,0,0,0,0,0,0,0,0,0,0,0,0,0,0,0,0,0,0,0,0,0,0,0,0,0,0,0,0,0,0,0,0,0,63,63,
63,63,63,63,0,0,0,0,0,0,0,0,0,0,0,0,0,0,0,0,0,0,0,0,0,0,0,0,0,0,0,0,0,0,0,0,0,0,0,0,0,0,0,0,0,0,0,0,0,0,0,0,0,0,0,0,0,0,63,63,
63,0,63,63,63,63,63,0,0,0,0,0,0,0,0,0,0,0,0,0,0,0,0,0,0,0,0,0,0,0,0,0,0,0,0,0,0,0,0,0,0,0,0,0,0,0,0,0,0,0,0,0,0,0,0,0,0,0,63,63,
63,0,0,63,63,63,63,0,63,0,0,0,0,0,0,0,0,0,0,0,0,0,0,0,0,0,0,0,0,0,0,0,0,0,0,0,0,0,0,0,0,0,0,0,0,0,0,0,0,0,0,0,0,0,0,0,0,63,63,0,
63,63,63,0,63,63,0,63,63,0,0,63,63,63,63,0,0,0,0,0,0,0,0,0,0,0,0,0,0,0,0,0,0,0,0,0,0,0,0,0,0,0,0,0,0,0,0,0,0,0,0,0,0,0,0,0,0,63,63,63,
63,63,63,63,63,63,0,63,63,63,63,63,0,0,63,0,63,0,0,0,0,0,0,0,0,0,0,0,0,0,0,0,0,0,63,0,0,0,0,0,0,0,0,0,0,0,0,0,0,0,0,0,0,0,0,0,63,0,0,63,
63,63,63,0,0,63,63,0,63,63,63,63,63,63,0,0,63,63,63,0,0,0,0,0,0,0,0,0,0,0,0,0,0,0,63,63,0,0,0,0,0,0,0,0,0,0,0,0,0,0,0,0,0,0,0,0,63,0,0,63,
63,63,63,0,0,63,63,63,0,63,63,0,0,63,63,63,0,0,63,63,63,0,0,0,0,0,0,0,0,0,0,0,0,0,63,63,0,0,0,0,0,0,0,0,0,0,0,0,0,0,0,0,0,0,0,0,63,63,63,63,
63,63,0,63,63,63,0,63,63,63,63,0,0,63,63,63,0,0,63,63,63,63,0,0,0,0,0,0,0,0,0,0,0,0,63,63,63,0,0,0,0,0,0,0,0,0,0,0,0,0,0,0,0,0,0,0,63,63,63,63,
63,63,0,63,63,63,63,63,0,63,63,63,63,63,63,63,63,63,63,0,63,63,63,0,0,0,0,0,0,0,0,0,0,0,63,63,63,0,0,0,0,0,0,0,0,0,0,0,0,0,0,0,0,0,63,0,0,63,0,63,
63,63,0,63,0,0,63,63,0,63,63,0,63,63,63,63,0,63,63,63,63,0,63,63,0,0,0,0,0,0,0,0,0,0,63,63,63,63,63,0,0,0,0,0,0,0,0,0,0,0,0,0,0,63,63,63,0,63,63,63,
63,63,63,63,0,0,63,63,0,63,63,63,0,63,63,63,63,63,0,63,63,63,63,63,0,0,0,0,0,0,0,0,0,0,0,63,63,63,0,63,63,0,0,0,0,0,0,0,0,0,0,0,63,63,63,63,63,63,63,63,
63,63,63,63,63,63,63,63,63,63,0,0,63,63,63,0,0,63,63,0,0,63,63,63,63,0,0,0,0,0,0,0,0,0,63,63,63,63,0,63,63,63,63,63,0,0,0,0,0,0,0,63,0,63,63,63,63,63,0,63,
0,63,0,63,63,63,63,0,63,63,0,0,63,63,63,0,0,63,63,63,0,63,0,0,63,0,0,0,0,0,0,0,0,0,63,63,63,63,63,63,63,0,0,63,63,0,0,0,0,0,0,63,63,63,0,63,0,0,63,63,
0,63,63,0,0,63,63,63,0,63,63,63,63,63,63,0,63,63,63,63,63,63,0,0,63,0,0,0,0,0,0,0,0,0,63,63,0,63,0,0,63,0,0,63,63,0,63,63,0,0,63,63,0,0,63,63,0,0,63,63,
63,63,63,0,0,63,63,63,63,63,63,0,63,63,63,0,63,63,63,0,63,63,63,63,63,63,0,0,0,0,0,0,0,0,63,63,0,63,63,63,63,63,63,63,63,0,63,63,0,0,63,63,0,0,63,63,63,63,63,63,
63,63,63,63,63,63,63,0,63,63,63,0,63,63,0,63,63,63,63,0,63,63,63,63,0,63,0,0,0,0,0,0,0,0,0,63,63,63,63,63,63,63,63,63,63,63,63,63,63,63,63,63,63,63,63,63,63,63,63,63,
63,63,63,63,63,63,63,0,63,63,63,63,63,63,63,0,0,63,63,63,63,63,0,63,63,63,0,0,0,0,0,0,0,0,0,63,63,63,0,63,63,63,63,0,0,63,0,63,63,63,0,63,63,63,63,63,0,0,63,63,
63,0,63,0,63,63,63,0,63,63,0,63,63,63,63,0,0,63,63,0,63,63,63,63,63,63,0,0,0,0,0,0,0,0,63,63,63,63,0,63,63,0,63,0,0,63,63,63,0,63,63,63,63,0,63,63,0,0,63,63,
63,0,63,63,0,0,63,63,63,63,0,0,63,63,0,63,63,63,63,0,63,63,0,0,63,63,0,0,0,0,0,0,0,0,63,63,63,63,63,63,63,63,63,63,0,63,63,63,63,63,0,0,63,63,63,63,63,63,63,63,
63,0,63,63,0,0,63,63,63,63,0,0,63,63,0,63,63,63,63,63,63,63,0,0,63,63,0,0,0,0,0,0,0,0,63,0,63,63,63,63,63,0,63,63,63,63,0,0,63,63,0,0,63,63,63,63,63,0,63,63,
63,63,63,63,63,63,63,63,0,63,63,63,63,63,63,63,63,63,0,63,0,63,63,63,63,63,0,0,0,0,0,0,0,0,63,0,63,63,63,63,63,63,0,63,0,63,0,0,63,63,63,63,0,0,0,0,63,0,63,63,
63,63,63,0,63,63,0,63,0,63,63,63,63,63,63,0,0,63,0,63,63,63,63,0,63,63,0,0,0,0,0,0,0,0,63,63,63,63,63,0,0,63,63,63,63,63,63,63,63,63,63,63,63,63,0,0,63,0,63,63,
63,63,63,0,0,0,63,63,63,0,63,63,63,63,63,0,0,63,63,63,63,63,63,0,63,0,0,0,0,0,0,0,0,0,63,63,63,0,63,0,0,63,63,63,63,63,63,63,63,63,0,0,63,63,63,63,63,63,63,63,
63,63,0,63,0,0,63,63,63,63,63,63,0,63,63,63,63,63,63,0,63,0,0,63,63,63,0,0,0,0,0,0,0,0,63,0,63,63,63,63,63,63,63,0,0,63,63,63,0,63,0,0,63,63,63,63,0,0,63,63,
63,63,63,63,63,63,0,63,63,0,0,63,0,63,63,63,63,0,63,63,63,0,0,63,0,63,0,0,0,0,0,0,0,0,63,0,63,63,63,0,63,63,63,0,0,63,63,63,63,63,63,63,63,63,0,0,0,0,63,63,
63,63,0,63,63,63,63,63,63,0,0,63,63,63,63,63,63,63,63,63,63,63,63,63,63,63,0,0,0,0,0,0,0,0,63,63,63,0,63,63,63,63,63,63,63,63,63,63,63,63,63,63,63,63,63,63,63,63,63,63
</data>
 </layer>
</map>
