<?xml version="1.0" encoding="UTF-8"?>
<map version="1.10" tiledversion="1.11.2" orientation="orthogonal" renderorder="right-down" width="60" height="40" tilewidth="16" tileheight="16" infinite="0" nextlayerid="6" nextobjectid="1">
 <tileset firstgid="1" source="../tilesets/Tileset/Basic Grass Biom things 1.tsx"/>
 <tileset firstgid="46" source="../tilesets/Tileset/Basic Plants.tsx"/>
 <tileset firstgid="58" source="../tilesets/Tileset/Basic_Furniture.tsx"/>
 <tileset firstgid="112" source="../tilesets/Tileset/Emoji_Spritesheet_Free.tsx"/>
 <tileset firstgid="492" source="../tilesets/Tileset/Fences.tsx"/>
 <tileset firstgid="508" source="../tilesets/Tileset/Grass.tsx"/>
 <tileset firstgid="523" source="../tilesets/Tileset/Grass16.tsx"/>
 <tileset firstgid="600" source="../tilesets/Tileset/Hills.tsx"/>
 <tileset firstgid="699" source="../tilesets/Tileset/Paths.tsx"/>
 <tileset firstgid="715" source="../tilesets/Tileset/Tilled Dirt.tsx"/>
 <tileset firstgid="779" source="../tilesets/Tileset/Water.tsx"/>
 <tileset firstgid="783" source="../tilesets/Tileset/Wooden House.tsx"/>
 <layer id="1" name="Tile Layer 1" width="60" height="40" locked="1">
  <data encoding="csv">
580,580,580,580,580,580,580,580,580,580,580,580,580,580,580,580,580,580,580,580,580,580,580,580,580,580,580,780,780,780,780,780,780,780,780,780,780,780,780,780,780,780,780,780,780,780,780,780,780,780,780,780,780,780,780,780,780,780,780,780,
580,580,580,580,580,580,580,580,580,580,580,580,580,580,580,580,580,580,580,580,580,580,580,580,580,580,580,580,780,780,780,780,780,780,780,780,780,780,780,780,780,780,780,780,780,780,780,780,780,780,780,780,780,780,780,780,780,780,780,780,
580,580,580,580,580,580,580,580,580,580,580,580,580,580,580,580,580,580,580,580,580,580,580,580,580,580,580,580,780,780,780,780,780,780,780,780,780,780,780,780,780,780,780,780,780,780,780,780,780,780,780,780,780,780,780,780,780,780,780,780,
580,580,580,580,580,580,580,580,580,580,580,580,580,580,580,580,580,580,580,580,580,580,580,580,580,580,580,580,580,780,780,780,780,780,780,780,780,780,780,780,780,780,780,780,780,780,780,780,780,780,780,780,780,780,780,780,780,780,780,780,
580,580,580,580,580,580,580,580,580,580,580,580,580,580,580,580,580,580,580,580,580,580,580,580,580,580,580,580,580,780,780,780,780,780,780,780,780,780,780,780,780,780,780,780,780,780,780,780,780,780,780,780,780,780,780,780,780,780,780,780,
580,580,580,580,580,580,580,580,580,580,580,580,580,580,580,580,580,580,580,580,580,580,580,580,580,580,580,580,580,580,780,780,780,780,780,780,780,780,780,780,780,780,780,780,780,780,780,780,780,780,780,780,780,780,780,780,780,780,780,780,
580,580,580,580,580,580,580,580,580,580,580,580,580,580,580,580,580,580,580,580,580,580,580,580,580,580,580,580,580,580,780,780,780,780,780,780,780,780,780,780,780,780,780,780,780,780,780,780,780,780,780,780,780,780,780,780,780,780,780,780,
580,580,580,580,580,580,580,580,580,580,580,580,580,580,580,580,580,580,580,580,580,580,580,580,580,580,580,580,580,580,580,580,780,780,780,780,780,780,780,780,780,780,780,780,780,780,780,780,780,780,780,780,780,780,780,780,780,780,780,780,
580,580,580,580,580,580,580,580,580,580,580,580,580,580,580,580,580,580,580,580,580,580,580,580,580,580,580,580,580,580,580,580,580,580,780,780,780,780,780,780,780,780,780,780,780,780,780,780,780,780,780,780,780,780,780,780,780,780,780,780,
580,580,580,580,580,580,580,580,580,580,580,580,580,580,580,580,580,580,580,580,580,580,580,580,580,580,580,580,580,580,580,580,580,580,580,580,580,580,780,780,780,780,780,780,780,780,780,780,780,780,780,780,780,780,780,780,780,780,780,780,
580,580,580,580,580,580,580,580,580,580,580,580,580,580,580,580,580,580,580,580,580,580,580,580,580,580,580,580,580,580,580,580,580,580,580,580,580,580,580,580,580,780,780,780,780,780,780,780,780,780,780,780,780,780,780,780,780,780,780,780,
580,580,580,580,580,580,580,580,580,580,580,580,580,580,580,580,580,580,580,580,580,580,580,580,580,580,580,580,580,580,580,580,580,580,580,580,580,580,580,580,580,580,780,780,780,780,780,780,780,780,780,780,780,780,780,780,780,780,780,780,
580,580,580,580,580,580,580,580,580,580,580,580,580,580,580,580,580,580,580,580,580,580,580,580,580,580,580,580,580,580,580,580,580,580,580,580,580,580,580,580,580,580,580,780,780,780,780,780,780,780,780,780,780,780,780,780,780,780,780,780,
580,580,580,580,580,580,580,580,580,580,580,580,580,580,580,580,580,580,580,580,580,580,580,580,580,580,580,580,580,580,580,580,580,580,580,580,580,580,580,580,580,580,580,580,780,780,780,780,780,780,780,780,780,780,780,780,780,780,780,780,
580,580,580,580,580,580,580,580,580,580,580,580,580,580,580,580,580,580,580,580,580,580,580,580,580,580,580,580,580,580,580,580,580,580,580,580,580,580,580,580,580,580,580,580,780,780,780,780,780,780,780,780,780,780,780,780,780,780,780,780,
580,580,580,580,580,580,580,580,580,580,580,580,580,580,580,580,580,580,580,580,580,580,580,580,580,580,580,580,580,580,580,580,580,580,580,580,580,580,580,580,580,580,580,580,580,780,780,780,780,780,780,780,780,780,780,780,780,780,780,780,
580,580,580,580,580,580,580,580,580,580,580,580,580,580,580,580,580,580,580,580,580,580,580,580,580,580,580,580,580,580,580,580,580,580,580,580,580,580,580,580,580,580,580,580,580,780,780,780,780,780,780,780,780,780,780,780,780,780,780,780,
580,580,580,580,580,580,580,580,580,580,580,580,580,580,580,580,580,580,580,580,580,580,580,580,580,580,580,580,580,580,580,580,580,580,580,580,580,580,580,580,580,580,580,580,580,580,780,780,780,780,780,780,780,780,780,780,780,780,780,780,
580,580,580,580,580,580,580,580,580,580,580,580,580,580,580,580,580,580,580,580,580,580,580,580,580,580,580,580,580,580,580,580,580,580,580,580,580,580,580,580,580,580,580,580,580,580,780,780,780,780,780,780,780,780,780,780,780,780,780,780,
580,580,580,580,580,580,580,580,580,580,580,580,580,580,580,580,580,580,580,580,580,580,580,580,580,580,580,580,580,580,580,580,580,580,580,580,580,580,580,580,580,580,580,580,580,580,780,780,780,780,780,780,780,780,780,780,780,780,780,780,
580,580,580,580,580,580,580,580,580,580,580,580,580,580,580,580,580,580,580,580,580,580,580,580,580,580,580,580,580,580,580,580,580,580,580,580,580,580,580,580,580,580,580,580,580,580,580,780,780,780,780,780,780,780,780,780,780,780,780,780,
580,580,580,580,580,580,580,580,580,580,580,580,580,580,580,580,580,580,580,580,580,580,580,580,580,580,580,580,580,580,580,580,580,580,580,580,580,580,580,580,580,580,580,580,580,580,580,780,780,780,780,780,780,780,780,780,780,780,780,780,
580,580,580,580,580,580,580,580,580,580,580,580,580,580,580,580,580,580,580,580,580,580,580,580,580,580,580,580,580,580,580,580,580,580,580,580,580,580,580,580,580,580,580,580,580,580,580,580,780,780,780,780,780,780,780,780,780,780,780,780,
580,580,580,580,580,580,580,580,580,580,580,580,580,580,580,580,580,580,580,580,580,580,580,580,580,580,580,580,580,580,580,580,580,580,580,580,580,580,580,580,580,580,580,580,580,580,580,580,580,780,780,780,780,780,780,780,780,780,780,780,
580,580,580,580,580,580,580,580,580,580,580,580,580,580,580,580,580,580,580,580,580,580,580,580,580,580,580,580,580,580,580,580,580,580,580,580,580,580,580,580,580,580,580,580,580,580,580,580,580,580,780,780,780,780,780,780,780,780,780,780,
580,580,580,580,580,580,580,580,580,580,580,580,580,580,580,580,580,580,580,580,580,580,580,580,580,580,580,580,580,580,580,580,580,580,580,580,580,580,580,580,580,580,580,580,580,580,580,580,580,580,580,780,780,780,780,780,780,780,780,780,
580,580,580,580,580,580,580,580,580,580,580,580,580,580,580,580,580,580,580,580,580,580,580,580,580,580,580,580,580,580,580,580,580,580,580,580,580,580,580,580,580,580,580,580,580,580,580,580,580,580,580,580,780,780,780,780,780,780,780,780,
580,580,580,580,580,580,580,580,580,580,580,580,580,580,580,580,580,580,580,580,580,580,580,580,580,580,580,580,580,580,580,580,580,580,580,580,580,580,580,580,580,580,580,580,580,580,580,580,580,580,580,580,780,780,780,780,780,780,780,780,
580,580,580,580,580,580,580,580,580,580,580,580,580,580,580,580,580,580,580,580,580,580,580,580,580,580,580,580,580,580,580,580,580,580,580,580,580,580,580,580,580,580,580,580,580,580,580,580,580,580,580,580,780,780,780,780,780,780,780,780,
580,580,580,580,580,580,580,580,580,580,580,580,580,580,580,580,580,580,580,580,580,580,580,580,580,580,580,580,580,580,580,580,580,580,580,580,580,580,580,580,580,580,580,580,580,580,580,580,580,580,580,580,580,780,780,780,780,780,780,780,
580,580,580,580,580,580,580,580,580,580,580,580,580,580,580,580,580,580,580,580,580,580,580,580,580,580,580,580,580,580,580,580,580,580,580,580,580,580,580,580,580,580,580,580,580,580,580,580,580,580,580,580,580,780,780,780,780,780,780,780,
580,580,580,580,580,580,580,580,580,580,580,580,580,580,580,580,580,580,580,580,580,580,580,580,580,580,580,580,580,580,580,580,580,580,580,580,580,580,580,580,580,580,580,580,580,580,580,580,580,580,580,580,580,580,780,780,780,780,780,780,
580,580,580,580,580,580,580,580,580,580,580,580,580,580,580,580,580,580,580,580,580,580,580,580,580,580,580,580,580,580,580,580,580,580,580,580,580,580,580,580,580,580,580,580,580,580,580,580,580,580,580,580,580,580,580,780,780,780,780,780,
580,580,580,580,580,580,580,580,580,580,580,580,580,580,580,580,580,580,580,580,580,580,580,580,580,580,580,580,580,580,580,580,580,580,580,580,580,580,580,580,580,580,580,580,580,580,580,580,580,580,580,580,580,580,580,780,780,780,780,780,
580,580,580,580,580,580,580,580,580,580,580,580,580,580,580,580,580,580,580,580,580,580,580,580,580,580,580,580,580,580,580,580,580,580,580,580,580,580,580,580,580,580,580,580,580,580,580,580,580,580,580,580,580,580,580,780,780,780,780,780,
580,580,580,580,580,580,580,580,580,580,580,580,580,580,580,580,580,580,580,580,580,580,580,580,580,580,580,580,580,580,580,580,580,580,580,580,580,580,580,580,580,580,580,580,580,580,580,580,580,580,580,580,580,580,580,780,780,780,780,780,
580,580,580,580,580,580,580,580,580,580,580,580,580,580,580,580,580,580,580,580,580,580,580,580,580,580,580,580,580,580,580,580,580,580,580,580,580,580,580,580,580,580,580,580,580,580,580,580,580,580,580,580,580,580,780,780,780,780,780,780,
580,580,580,580,580,580,580,580,580,580,580,580,580,580,580,580,580,580,580,580,580,580,580,580,580,580,580,580,580,580,580,580,580,580,580,580,580,580,580,580,580,580,580,580,580,580,580,580,580,580,580,580,580,780,780,780,780,780,780,780,
580,580,580,580,580,580,580,580,580,580,580,580,580,580,580,580,580,580,580,580,580,580,580,580,580,580,580,580,580,580,580,580,580,580,580,580,580,580,580,580,580,580,580,580,580,580,580,580,580,580,580,580,780,780,780,780,780,780,780,780,
580,580,580,580,580,580,580,580,580,580,580,580,580,580,580,580,580,580,580,580,580,580,580,580,580,580,580,580,580,580,580,580,580,580,580,580,580,580,580,580,580,580,580,580,580,580,580,580,580,580,780,780,780,780,780,780,780,780,780,780
</data>
 </layer>
 <layer id="5" name="Colisiones" width="60" height="40" locked="1">
  <data encoding="csv">
729,729,729,729,729,729,729,729,729,729,729,729,729,729,729,729,729,729,729,729,729,729,729,729,729,729,729,729,729,729,729,729,729,729,729,729,729,729,729,729,729,729,729,729,729,729,729,729,729,729,729,729,729,729,729,729,729,729,729,729,
729,729,729,729,0,0,0,0,729,0,0,0,0,729,729,0,0,0,729,729,0,0,0,0,0,0,729,0,729,729,729,729,729,729,729,729,729,729,729,729,729,729,729,729,729,729,729,729,729,729,729,729,729,729,729,729,729,729,729,729,
729,0,729,729,0,0,0,0,729,0,0,0,729,729,729,0,0,0,729,729,0,0,0,0,0,0,729,0,729,729,729,729,729,729,729,729,729,729,729,729,729,729,729,729,729,729,729,729,729,729,729,729,729,729,729,729,729,729,729,729,
729,0,0,0,0,0,0,0,0,0,0,0,729,729,0,0,0,0,0,0,0,0,0,0,0,0,0,0,0,729,729,729,729,729,729,729,729,729,729,729,729,729,729,729,729,729,729,729,729,729,729,729,729,729,729,729,729,729,729,729,
729,0,0,0,0,0,0,0,0,0,0,0,0,0,0,0,0,0,0,0,0,0,729,729,0,0,0,0,0,729,729,729,729,729,729,729,729,729,729,729,729,729,729,729,729,729,729,729,729,729,729,729,729,729,729,729,729,729,729,729,
729,0,0,0,0,0,0,0,0,0,0,0,0,0,729,0,0,0,0,0,0,0,729,729,0,0,0,0,0,0,729,729,729,729,729,729,729,729,729,729,729,729,729,729,729,729,729,729,729,729,729,729,729,729,729,729,729,729,729,729,
729,0,0,0,0,729,729,0,0,0,0,0,0,0,729,0,0,0,0,0,0,0,0,0,0,0,0,0,0,0,729,729,729,729,729,729,729,729,729,729,729,729,729,729,729,729,729,729,729,729,729,729,729,729,729,729,729,729,729,729,
729,0,0,0,729,729,729,0,0,0,0,0,0,0,0,0,0,0,0,0,0,0,0,0,0,0,0,0,0,0,0,0,729,729,729,729,729,729,729,729,729,729,729,729,729,729,729,729,729,729,729,729,729,729,729,729,729,729,729,729,
729,0,0,0,729,729,0,0,0,0,729,729,0,0,0,0,0,0,729,729,0,0,0,0,0,0,0,0,0,0,0,0,0,0,729,729,729,729,729,729,729,729,729,729,729,729,729,729,729,729,729,729,729,729,729,729,729,729,729,729,
729,0,0,0,0,0,0,0,0,0,729,729,0,0,0,0,0,0,729,729,0,0,0,0,0,0,0,0,729,729,0,0,0,0,0,0,0,0,729,729,729,729,729,729,729,729,729,729,729,729,729,729,729,729,729,729,729,729,729,729,
729,0,0,0,0,0,0,0,0,0,729,729,0,0,729,0,0,0,0,0,0,0,0,0,0,0,0,0,729,729,0,0,0,0,0,0,0,0,0,0,0,729,729,729,729,729,729,729,729,729,729,729,729,729,729,729,729,729,729,729,
729,0,0,0,0,0,0,0,0,0,0,0,0,0,729,0,0,0,0,0,0,0,0,729,729,0,0,0,0,0,0,0,729,729,0,0,729,0,0,0,0,0,729,729,729,729,729,729,729,729,729,729,729,729,729,729,729,729,729,729,
729,0,0,0,0,729,0,0,0,0,0,0,0,0,0,0,0,0,0,0,0,0,0,729,729,0,0,0,0,0,0,0,729,729,0,0,729,0,0,0,0,0,0,729,729,729,729,729,729,729,729,729,729,729,729,729,729,729,729,729,
729,0,0,0,0,729,0,0,0,0,729,0,0,0,0,0,729,729,729,729,0,0,0,0,0,0,0,0,0,0,0,0,0,0,0,0,0,0,0,0,0,0,0,0,729,729,729,729,729,729,729,729,729,729,729,729,729,729,729,729,
729,0,0,0,0,0,0,0,0,729,729,0,0,0,0,0,729,729,729,729,0,0,0,0,0,0,0,0,0,0,0,0,0,0,0,0,0,0,0,0,0,0,0,0,729,729,729,729,729,729,729,729,729,729,729,729,729,729,729,729,
729,0,0,0,0,0,0,0,0,729,0,0,0,0,0,0,0,0,0,0,0,0,0,0,0,0,0,0,0,0,0,0,0,0,0,0,0,0,0,0,0,0,0,0,0,729,729,729,729,729,729,729,729,729,729,729,729,729,729,729,
729,729,729,729,729,729,729,729,729,729,729,729,729,729,729,729,729,729,729,729,729,729,729,729,729,729,729,729,729,0,0,0,0,0,0,0,0,0,0,0,0,0,0,0,0,729,729,729,729,729,729,729,729,729,729,729,729,729,729,729,
0,0,0,0,0,0,0,0,0,0,0,0,0,0,0,0,0,0,0,0,0,0,0,0,0,0,0,0,0,0,0,0,0,0,729,729,0,0,0,729,729,0,0,0,0,0,729,729,729,729,729,729,729,729,729,729,729,729,729,729,
0,0,0,0,0,0,0,0,0,0,0,0,0,0,0,0,0,0,0,0,0,0,0,0,0,0,0,0,0,0,0,0,0,0,729,729,0,0,729,729,729,0,0,0,0,0,729,729,729,729,729,729,729,729,729,729,729,729,729,729,
0,0,0,0,0,0,0,0,0,0,0,0,0,0,0,0,0,0,0,0,0,0,0,0,0,0,0,0,0,0,0,0,0,0,0,0,0,0,729,729,0,0,0,0,0,0,729,729,729,729,729,729,729,729,729,729,729,729,729,729,
0,0,0,0,0,0,0,0,0,0,0,0,0,0,0,0,0,0,0,0,0,0,0,0,0,0,0,0,0,0,0,0,0,0,0,0,0,0,0,0,0,0,0,0,0,0,0,729,729,729,729,729,729,729,729,729,729,729,729,729,
0,0,0,0,0,0,0,0,0,0,0,0,0,0,0,0,0,0,0,0,0,0,0,0,0,0,0,0,0,0,0,0,0,0,0,0,0,0,0,0,0,0,0,729,0,0,0,729,729,729,729,729,729,729,729,729,729,729,729,729,
0,0,0,0,0,0,0,0,0,0,0,0,0,0,0,0,0,0,0,0,0,0,0,0,0,0,0,0,0,0,0,0,0,0,0,0,0,0,0,0,0,0,0,729,0,0,0,0,729,729,729,729,729,729,729,729,729,729,729,729,
729,729,729,729,729,729,729,729,0,729,729,729,729,729,729,729,729,729,729,729,729,729,729,729,729,729,729,729,729,0,0,0,0,0,0,0,0,0,0,0,0,0,0,0,0,0,0,0,0,729,729,729,729,729,729,729,729,729,729,729,
729,0,0,0,0,0,0,0,0,0,0,0,0,0,0,0,0,0,0,0,0,0,0,0,0,0,0,0,0,0,0,0,0,0,0,0,0,0,0,0,0,0,0,0,0,0,0,0,0,0,729,729,729,729,729,729,729,729,729,729,
729,0,0,0,0,0,0,0,0,0,0,0,0,0,0,0,0,0,0,0,0,0,0,0,0,0,0,0,0,0,0,0,0,0,729,729,0,0,0,0,0,0,0,0,0,0,0,0,0,0,0,729,729,729,729,729,729,729,729,729,
729,729,0,0,0,0,0,0,0,0,0,0,0,0,0,0,0,0,0,0,0,0,0,0,0,0,0,0,0,0,0,0,0,0,729,729,729,0,0,0,0,0,0,0,0,0,0,0,0,0,0,0,729,729,729,729,729,729,729,729,
729,729,0,0,0,0,0,0,0,0,0,0,0,0,0,0,0,0,0,0,0,0,0,0,0,0,0,0,0,0,0,0,0,0,0,729,729,0,0,0,0,0,0,729,729,0,0,0,0,0,0,0,729,729,729,729,729,729,729,729,
729,0,0,0,0,0,0,0,0,0,0,0,0,0,0,0,0,0,0,0,0,0,0,729,729,0,0,0,0,0,0,0,0,0,0,0,0,0,0,0,0,0,0,729,729,0,0,0,0,0,0,0,729,729,729,729,729,729,729,729,
729,0,0,0,0,0,0,0,0,729,729,0,0,0,0,0,0,0,0,0,0,0,0,729,729,729,0,0,0,0,0,0,0,0,0,0,0,0,0,0,0,0,0,0,0,0,0,0,0,0,0,0,0,729,729,729,729,729,729,729,
729,0,0,0,0,0,0,729,729,729,729,0,0,0,0,0,0,0,0,0,0,0,0,0,729,729,0,0,0,0,0,0,0,0,0,0,0,0,0,0,0,0,0,0,0,0,0,0,0,0,0,0,0,729,729,729,729,729,729,729,
729,0,0,0,0,0,0,729,729,0,0,0,0,0,0,0,0,0,0,0,0,0,0,0,0,0,0,0,0,0,0,0,0,0,0,0,0,0,0,0,0,0,0,0,0,0,0,0,0,0,729,0,0,0,729,729,729,729,729,729,
729,0,0,0,0,0,0,0,0,0,0,0,0,0,0,0,0,0,0,0,0,0,0,0,0,0,0,0,0,729,729,0,0,0,0,0,0,0,0,729,729,0,0,0,0,0,0,0,0,0,729,0,0,0,0,729,729,729,729,729,
729,0,0,0,0,0,0,0,0,0,0,0,0,0,0,0,729,729,0,0,0,0,0,0,0,0,0,0,729,729,729,0,0,0,0,0,0,0,0,729,729,0,0,0,0,0,0,0,0,0,0,0,0,0,0,729,729,729,729,729,
729,729,0,0,0,0,0,0,0,0,0,0,0,0,0,729,729,729,0,0,0,0,0,0,0,0,0,0,729,729,0,0,0,0,0,0,0,0,0,0,0,0,0,0,0,0,0,0,0,0,0,0,0,0,0,729,729,729,729,729,
729,729,0,0,0,0,0,0,0,0,0,0,0,0,0,729,729,0,0,0,0,0,0,0,0,0,0,0,0,0,0,0,0,0,0,0,0,0,0,0,0,0,0,0,0,0,0,0,0,0,0,0,0,0,0,729,729,729,729,729,
729,0,0,0,729,729,0,0,0,0,0,0,0,0,0,0,0,0,0,0,0,0,0,0,0,0,0,0,0,0,0,0,0,0,0,0,0,0,0,0,0,0,0,0,0,0,0,0,729,729,0,0,0,0,729,729,729,729,729,729,
729,0,0,0,729,729,0,0,0,729,729,0,0,0,0,0,0,0,0,0,729,729,0,0,0,0,0,0,0,0,0,0,729,0,0,0,0,0,0,0,0,0,0,0,0,0,0,0,729,729,0,0,0,729,729,729,729,729,729,729,
729,0,0,0,0,0,0,0,0,729,729,0,0,0,0,0,0,0,0,0,729,729,0,0,0,0,0,0,0,0,0,0,729,0,0,0,0,0,0,0,0,0,0,0,0,0,0,0,0,0,0,0,729,729,729,729,729,729,729,729,
729,729,729,729,729,729,729,729,729,729,729,729,729,729,729,729,729,729,729,729,729,729,729,729,729,729,729,729,729,729,729,729,729,729,729,729,729,729,729,729,729,729,729,729,729,729,729,729,729,729,729,729,729,729,729,729,729,729,729,729
</data>
 </layer>
 <layer id="2" name="Tile Layer 2" width="60" height="40" locked="1">
  <data encoding="csv">
4,5,0,0,0,0,0,0,0,0,0,0,0,0,0,0,0,0,0,0,0,0,0,0,0,0,0,0,0,0,0,0,0,0,0,0,0,0,0,0,0,0,0,0,0,0,0,0,0,0,0,0,0,0,0,0,0,0,0,0,
13,14,0,0,0,0,0,0,1,0,0,0,0,4,5,34,0,0,4,5,0,0,0,0,0,0,1,0,0,0,0,0,0,44,0,0,0,0,0,0,0,0,0,0,0,0,0,0,0,0,0,0,0,0,0,0,0,45,0,0,
0,0,0,0,0,34,0,0,10,0,0,0,0,13,14,0,0,0,13,14,0,0,6,34,0,0,10,0,0,0,0,43,0,0,0,0,0,0,45,0,0,0,44,0,0,0,0,0,0,0,0,0,0,0,0,0,0,0,0,0,
0,0,0,0,0,0,0,0,0,0,0,0,0,0,0,0,0,0,0,0,0,0,0,0,0,0,0,0,0,0,0,0,0,0,0,0,0,0,0,0,0,0,0,0,0,0,0,0,0,45,0,0,0,0,0,0,0,0,0,0,
0,0,34,0,0,34,0,0,34,6,0,0,0,0,0,0,34,0,0,0,0,0,0,0,0,0,34,0,0,0,0,0,0,0,0,0,0,0,0,0,0,0,0,0,0,0,0,0,0,0,0,0,0,44,0,0,0,0,0,0,
0,0,0,0,0,0,0,0,27,0,0,0,0,0,1,0,34,0,0,0,0,0,0,0,0,34,0,0,0,0,0,0,0,0,44,0,45,0,0,0,0,44,0,0,0,0,0,0,0,0,0,0,0,0,0,0,0,0,0,0,
0,0,6,0,0,4,5,0,36,0,34,0,0,0,10,0,0,0,6,34,0,0,0,0,0,0,0,0,0,0,0,0,0,0,0,0,0,0,0,0,0,0,0,0,0,0,0,0,0,0,0,0,0,0,0,0,44,0,0,0,
0,0,10,0,0,13,14,0,6,34,0,0,0,0,0,0,0,34,0,0,0,0,0,0,34,0,34,6,0,34,0,0,0,0,0,43,0,0,0,0,0,0,0,0,0,0,0,0,0,0,0,0,0,0,0,0,0,0,0,0,
0,0,0,0,0,0,0,0,0,0,4,5,0,34,0,0,0,0,0,0,0,0,0,0,0,0,0,0,0,0,0,0,0,0,0,0,0,0,0,0,0,0,0,44,0,0,0,0,0,0,0,0,0,0,0,0,0,0,0,0,
0,0,0,0,0,0,0,0,0,0,13,14,0,0,0,0,0,0,0,0,0,34,0,0,6,0,0,0,0,0,0,0,0,0,0,0,0,0,0,0,0,43,0,0,0,0,0,0,0,0,44,0,0,0,0,0,0,0,0,0,
0,34,0,0,0,0,34,0,0,0,0,0,0,0,1,0,0,0,0,0,0,34,34,0,0,0,0,0,0,0,0,0,6,0,0,0,0,0,0,0,0,0,0,0,0,0,0,0,0,0,0,0,0,0,45,0,0,0,0,0,
0,0,0,0,0,0,0,0,0,0,0,0,0,27,10,0,0,0,0,0,0,0,0,4,5,0,0,0,0,0,0,0,4,5,0,0,1,0,0,0,0,0,0,0,0,0,0,0,0,0,0,0,0,0,0,0,0,0,0,0,
0,0,0,0,0,1,34,0,0,0,0,0,0,36,0,0,0,0,0,0,0,0,0,13,14,0,34,0,0,0,0,0,13,14,0,0,10,0,0,0,0,0,0,0,0,0,0,0,0,0,0,0,0,0,0,0,0,0,0,0,
0,0,34,0,0,10,0,0,0,0,1,0,0,0,0,0,4,5,0,0,0,0,0,0,0,0,0,6,6,0,0,0,34,0,0,0,0,0,0,0,0,0,0,0,0,44,0,0,0,0,0,0,44,0,0,44,0,0,45,0,
0,0,0,0,0,0,0,0,0,1,10,0,0,34,0,0,13,14,0,0,0,0,0,0,0,0,0,0,25,0,34,0,0,0,0,0,0,0,0,0,0,0,6,0,0,0,0,0,43,0,0,0,0,0,0,0,0,0,0,0,
0,0,0,0,0,0,0,34,0,10,0,0,0,0,0,0,0,0,0,0,0,34,0,0,0,34,0,0,0,0,0,0,0,0,0,0,0,0,0,34,0,0,0,0,0,0,0,0,0,0,0,0,0,0,0,0,0,0,0,0,
731,732,733,731,732,733,731,732,733,731,732,733,731,732,733,731,732,733,731,732,733,731,732,733,731,732,731,732,733,742,0,0,0,0,0,0,0,0,0,0,0,0,0,0,0,0,0,0,0,0,0,0,0,0,0,0,0,0,0,0,
717,717,717,717,717,717,717,717,717,717,717,717,717,717,717,717,717,717,717,717,717,717,717,717,717,717,717,717,717,750,0,0,6,0,4,5,0,0,0,4,5,0,0,34,0,0,0,0,0,0,0,0,0,0,0,0,0,0,0,0,
717,717,717,717,717,717,717,717,717,717,717,717,717,717,717,717,717,717,717,717,717,717,717,717,717,717,717,717,717,750,0,0,0,0,13,14,0,0,0,13,14,0,0,0,0,0,0,0,0,0,0,0,45,0,0,0,44,0,0,0,
717,717,717,717,717,717,717,717,717,717,717,717,717,717,717,717,717,717,717,717,717,717,717,717,717,717,717,717,717,750,0,0,0,0,0,0,0,0,0,0,0,0,0,0,0,0,0,0,44,0,0,0,0,0,0,0,0,0,0,0,
717,717,717,717,717,717,717,717,717,717,717,717,717,717,717,717,717,717,717,717,717,717,717,717,717,717,717,717,717,750,0,0,27,0,0,0,0,0,0,0,0,0,0,0,0,0,0,0,0,0,0,0,0,0,0,0,0,0,0,0,
717,717,717,717,717,717,717,717,717,717,717,717,717,717,717,717,717,717,717,717,717,717,717,717,717,717,717,717,717,750,0,0,36,25,25,0,0,0,0,0,0,0,0,1,0,0,0,0,0,0,0,0,0,45,0,0,0,0,0,0,
717,717,717,717,717,717,717,717,717,717,717,717,717,717,717,717,717,717,717,717,717,717,717,717,717,717,717,717,717,750,0,34,0,0,34,0,0,0,0,0,0,0,0,10,0,0,0,0,0,0,0,43,0,0,0,0,0,0,0,0,
720,721,720,721,720,721,720,721,27,721,720,721,720,721,720,721,720,721,720,721,720,721,720,720,720,720,720,720,721,758,0,0,0,0,0,6,0,0,6,0,0,34,0,0,0,0,0,0,0,0,0,0,0,0,0,0,0,0,0,0,
0,0,0,0,0,0,0,0,36,0,0,0,0,0,0,0,0,0,0,0,0,0,0,0,0,0,0,0,0,0,0,0,0,0,0,0,0,0,0,0,34,0,0,0,0,0,6,0,0,0,0,0,0,0,0,0,44,0,0,0,
0,0,0,0,0,0,0,0,0,0,0,0,0,0,0,0,0,0,0,0,0,0,0,34,0,0,34,6,0,0,0,0,34,0,4,5,0,0,0,0,0,0,0,0,0,0,0,0,0,0,0,0,0,0,0,0,0,0,0,0,
0,0,0,0,0,0,0,0,0,0,34,0,0,0,0,0,0,0,34,0,0,0,0,0,0,0,0,0,0,0,25,0,0,0,13,14,0,0,0,0,0,0,0,0,0,0,34,6,0,0,0,0,0,0,43,0,0,0,0,0,
0,0,0,0,0,6,0,0,0,0,0,0,0,0,0,34,0,0,0,25,0,0,34,0,0,0,0,0,0,0,0,0,0,0,0,0,0,0,0,0,0,0,0,0,0,0,0,0,0,0,0,0,0,0,0,0,0,0,0,0,
0,0,0,0,0,34,0,0,34,0,0,0,34,0,0,0,6,0,0,0,0,0,0,0,0,0,0,0,0,0,0,6,0,0,0,0,0,0,0,0,0,0,0,0,0,0,0,0,0,0,0,0,0,0,0,0,0,0,0,0,
0,0,0,0,0,0,0,0,0,0,0,0,0,0,0,0,34,0,27,0,0,0,0,0,4,5,0,0,0,0,0,0,0,0,0,0,0,0,0,0,6,34,0,0,0,0,34,0,0,0,0,0,0,0,0,0,0,0,0,0,
0,0,34,0,34,0,0,4,5,0,0,0,0,0,0,0,0,25,36,25,25,0,0,0,13,14,0,0,0,0,0,0,34,34,0,0,0,0,0,0,0,0,0,0,0,0,34,0,0,6,0,0,0,0,0,0,45,0,0,0,
0,0,0,0,34,6,0,13,14,25,0,0,0,34,0,0,0,0,0,0,0,0,0,25,25,0,0,0,0,0,0,0,0,6,0,0,0,0,0,0,0,0,0,0,0,0,0,0,0,0,1,0,0,0,0,0,0,0,0,0,
0,0,0,0,0,0,0,0,0,34,0,0,34,0,0,0,0,0,0,0,0,0,0,0,0,0,0,0,0,4,5,0,0,0,34,0,0,0,0,34,0,0,0,6,0,0,0,0,0,0,10,0,0,0,0,0,0,0,0,0,
0,0,0,34,0,0,0,0,0,0,0,0,0,0,0,0,0,0,0,0,0,0,0,0,0,0,0,0,0,13,14,0,0,0,0,0,0,0,0,0,0,0,0,0,0,0,0,0,0,0,0,0,0,0,0,0,0,43,0,0,
0,0,0,0,0,0,34,0,0,0,34,0,0,6,0,4,5,0,0,0,0,0,0,0,0,0,0,0,0,0,0,0,0,0,0,0,6,0,0,0,0,0,0,0,0,0,34,0,0,6,0,0,0,0,0,0,0,0,0,0,
0,0,0,0,0,0,34,0,0,25,0,0,0,0,0,13,14,0,0,0,0,0,0,0,0,0,25,0,0,0,0,0,0,0,0,34,0,0,34,0,0,0,0,0,0,6,34,0,0,0,0,0,0,0,0,0,0,0,0,0,
0,0,0,0,0,0,0,6,0,0,0,0,0,0,0,0,0,0,0,0,0,6,0,0,34,0,27,0,0,0,0,0,0,0,0,0,0,0,0,0,0,0,0,0,0,0,0,0,0,0,0,0,0,0,0,0,0,0,0,0,
0,34,0,0,0,0,0,0,0,0,0,0,0,34,0,0,0,6,0,0,0,0,0,0,0,0,36,0,0,34,0,0,1,0,0,0,0,0,0,0,6,0,0,0,0,0,0,0,0,0,0,0,0,0,0,0,0,0,0,0,
0,0,6,0,0,0,0,0,0,0,0,0,0,0,0,0,34,0,0,0,0,0,0,0,0,0,0,0,0,0,0,0,10,0,0,0,0,0,0,0,34,0,0,0,0,0,0,0,0,0,0,0,0,0,0,0,43,0,0,0,
0,0,0,0,0,0,0,0,0,0,0,0,0,0,0,0,0,0,0,0,0,0,0,0,0,0,0,0,0,0,0,0,0,0,0,0,0,0,0,0,0,0,0,0,0,0,0,0,0,0,0,0,0,45,0,0,0,0,0,0
</data>
 </layer>
 <layer id="3" name="j" width="60" height="40" locked="1">
  <data encoding="csv">
0,0,0,0,0,0,0,0,0,0,0,0,0,0,0,0,0,0,0,0,0,0,0,54,0,0,0,0,0,0,0,0,0,0,0,0,0,0,0,0,0,0,0,0,0,0,0,0,0,0,0,0,0,0,0,0,0,0,0,0,
0,0,2,3,0,0,0,0,0,0,0,0,0,0,0,0,0,0,0,0,0,0,0,0,0,0,0,0,0,0,0,0,0,0,0,0,0,0,0,0,0,0,0,0,0,0,0,0,0,0,0,0,0,0,0,0,0,0,0,0,
0,0,11,12,0,0,0,0,0,0,0,0,2,3,0,0,0,0,47,0,0,0,0,0,0,0,0,0,0,0,0,0,0,0,0,0,0,0,0,0,0,0,0,0,0,0,0,0,0,0,0,0,0,0,0,0,0,0,0,0,
0,0,0,0,47,0,54,0,0,0,0,0,11,12,0,0,0,0,0,47,0,0,0,0,0,0,0,0,0,0,0,0,0,0,0,0,0,0,0,0,0,0,0,0,0,0,0,0,0,0,0,0,0,0,0,0,0,0,0,0,
0,0,0,0,0,0,0,0,0,0,0,0,54,0,0,0,0,0,0,47,0,0,2,3,0,0,0,0,0,0,0,0,0,0,0,0,0,0,0,0,0,0,0,0,0,0,0,0,0,0,0,0,0,0,0,0,0,0,0,0,
0,0,0,0,0,0,0,0,0,0,0,0,0,0,0,0,0,0,0,0,47,0,11,12,0,0,0,0,0,0,0,0,0,0,0,0,0,0,0,0,0,0,0,0,0,0,0,0,0,0,0,0,0,0,0,0,0,0,0,0,
0,0,0,0,0,0,0,0,0,0,0,0,0,54,0,0,0,0,0,0,47,47,0,0,0,0,0,0,0,0,0,0,0,0,0,0,0,0,0,0,0,0,0,0,0,0,0,0,0,0,0,0,0,0,0,0,0,0,0,0,
0,0,0,0,2,3,0,0,0,0,0,0,0,0,0,0,0,0,0,0,54,0,0,0,0,0,0,0,0,0,0,0,0,0,0,0,0,0,0,0,0,0,0,0,0,0,0,0,0,0,0,0,0,0,0,0,0,0,0,0,
0,0,0,0,11,12,54,0,0,0,0,0,0,0,0,0,0,0,2,3,0,0,0,0,0,0,47,0,0,0,0,0,0,0,0,0,0,0,0,0,0,0,0,0,0,0,0,0,0,0,0,0,0,0,0,0,0,0,0,0,
0,0,0,0,0,0,0,0,0,0,2,3,0,0,0,0,47,0,11,12,0,0,47,47,0,0,0,0,2,3,0,0,0,0,0,0,0,0,0,0,0,0,0,0,0,0,0,0,0,0,0,0,0,0,0,0,0,0,0,0,
0,0,0,0,0,47,0,0,0,0,11,12,0,0,0,0,0,0,0,0,0,0,0,47,0,0,0,0,11,12,0,0,0,0,0,0,0,0,0,0,0,0,0,0,0,0,0,0,0,0,0,0,0,0,0,0,0,0,0,0,
0,0,0,0,0,47,0,0,0,0,0,0,0,0,0,0,0,0,0,0,0,0,0,0,0,0,0,0,54,0,0,0,0,0,0,0,0,0,0,0,0,0,0,0,0,0,0,0,0,0,0,0,0,0,0,0,0,0,0,0,
0,0,0,0,0,0,0,0,0,0,0,0,0,47,54,0,0,0,0,0,0,0,0,0,0,0,0,0,0,0,0,0,0,0,0,0,0,0,0,0,0,0,0,0,0,0,0,0,0,0,0,0,0,0,0,0,0,0,0,0,
0,0,0,0,0,0,0,0,0,0,0,0,0,0,0,0,4,5,2,3,0,0,0,0,0,0,0,0,0,0,0,0,0,0,0,0,0,0,0,0,0,0,0,0,0,0,0,0,0,0,0,0,0,0,0,0,0,0,0,0,
0,0,0,0,0,0,0,0,0,0,0,0,0,0,0,0,13,14,11,12,0,0,0,0,0,0,0,0,0,0,0,0,0,0,0,0,0,0,0,0,0,0,0,0,0,0,0,0,0,0,0,0,0,0,0,0,0,0,0,0,
0,0,0,0,0,0,0,0,0,0,0,0,0,0,0,0,0,0,0,0,0,0,0,0,0,0,0,0,0,0,0,0,0,0,0,0,0,0,0,0,0,0,0,0,0,0,0,0,0,0,0,0,0,0,0,0,0,0,0,0,
505,506,507,504,504,505,506,507,504,504,505,506,507,504,504,505,506,507,504,504,505,506,507,504,504,505,506,507,504,0,0,0,0,0,0,0,54,47,47,0,0,0,0,0,0,0,0,0,0,0,0,0,0,0,0,0,0,0,0,0,
0,0,0,0,0,0,0,0,0,0,0,0,0,0,0,0,0,0,0,0,0,0,0,0,0,0,0,0,0,61,0,0,0,47,0,0,0,0,0,0,0,0,0,0,0,0,0,0,0,0,0,0,0,0,0,0,0,0,0,0,
0,0,0,0,0,0,0,0,0,0,0,0,0,0,0,0,0,0,0,0,0,0,0,0,0,0,0,0,0,0,0,0,0,54,0,0,0,0,2,3,0,0,0,0,0,0,0,0,0,0,0,0,0,0,0,0,0,0,0,0,
0,0,0,0,0,0,0,0,0,0,0,0,0,0,0,0,0,0,0,0,0,0,0,0,0,0,0,0,0,0,0,0,0,47,0,0,0,0,11,12,0,0,0,0,0,0,0,0,0,0,0,0,0,0,0,0,0,0,0,0,
0,0,0,0,0,0,0,0,0,0,0,0,0,0,0,0,0,0,0,0,0,0,0,0,0,0,0,0,0,0,0,0,0,47,0,0,0,0,0,0,0,0,0,0,0,0,0,0,0,0,0,0,0,0,0,0,0,0,0,0,
0,0,0,0,0,0,0,0,0,0,0,0,0,0,0,0,0,0,0,0,0,0,0,0,0,0,0,0,0,0,0,0,0,47,0,0,0,54,0,47,0,0,0,0,0,0,0,0,0,0,0,0,0,0,0,0,0,0,0,0,
0,0,0,0,0,0,0,0,0,0,0,0,0,0,0,0,0,0,0,0,0,0,0,0,0,0,0,0,0,0,0,0,0,0,54,0,0,0,0,0,0,0,0,0,0,0,0,0,0,0,0,0,0,0,0,0,0,0,0,0,
505,506,507,504,504,505,506,507,504,504,505,506,507,504,504,505,506,507,504,504,505,506,507,504,504,505,506,507,504,0,0,0,0,0,0,0,0,0,0,47,47,0,0,0,47,0,0,0,0,0,0,0,0,0,0,0,0,0,0,0,
0,0,0,0,0,0,0,0,0,0,0,0,0,0,0,0,0,0,0,0,0,0,0,0,0,0,0,0,0,0,0,0,0,0,0,0,0,47,54,0,0,0,0,0,0,0,0,0,0,0,0,0,0,0,0,0,0,0,0,0,
0,0,0,0,0,0,0,0,0,0,0,0,0,0,0,0,0,0,0,0,0,0,0,0,0,0,0,0,0,0,0,0,0,0,0,0,0,0,0,0,0,0,0,0,0,0,0,0,0,0,0,0,0,0,0,0,0,0,0,0,
2,3,0,0,0,0,0,0,0,0,0,0,0,0,0,0,0,0,0,0,0,0,0,0,0,0,0,0,0,0,0,0,0,0,0,2,3,0,0,0,0,0,0,0,0,0,0,0,0,0,0,0,0,0,0,0,0,0,0,0,
11,12,0,0,0,0,0,0,0,0,0,0,0,0,0,0,0,0,0,0,0,0,0,0,0,0,0,0,0,0,0,47,0,0,0,11,12,0,0,0,0,54,0,2,3,0,0,0,0,0,0,0,0,0,0,0,0,0,0,0,
0,0,0,0,0,0,47,47,0,0,0,0,0,0,0,0,47,0,0,0,0,0,0,2,3,0,0,0,54,0,54,0,0,0,0,0,0,0,47,0,0,54,0,11,12,54,54,0,0,0,54,54,0,0,0,0,0,0,0,0,
0,0,0,0,0,0,0,0,0,2,3,0,0,0,0,0,0,0,0,0,0,0,0,11,12,0,47,0,0,0,0,0,0,0,0,0,0,0,47,54,0,0,0,0,0,0,0,47,0,0,0,0,0,0,0,0,0,0,0,0,
0,0,0,0,0,0,0,0,0,11,12,0,54,0,0,0,0,0,0,0,0,0,0,47,0,0,0,0,0,0,54,0,0,0,0,0,0,0,47,0,0,0,0,0,54,54,0,0,0,0,0,0,0,0,0,0,0,0,0,0,
0,0,47,0,0,0,47,0,0,0,0,0,0,0,0,0,0,47,0,0,0,0,0,0,0,0,0,0,0,0,0,47,47,0,0,0,0,0,0,47,0,0,0,0,0,0,0,0,0,0,0,0,0,0,0,0,0,0,0,0,
0,0,0,0,0,0,0,0,0,0,0,0,0,0,47,0,0,0,47,0,0,0,0,0,0,0,0,0,0,47,47,0,0,0,0,0,0,0,0,2,3,0,54,47,47,47,0,0,0,0,0,0,0,0,0,0,0,0,0,0,
0,0,0,0,0,0,0,0,0,0,0,0,0,0,0,0,2,3,47,0,0,0,0,0,0,0,0,0,2,3,47,0,0,0,47,0,0,0,0,11,12,0,0,0,0,0,47,47,47,47,47,0,0,0,0,0,0,0,0,0,
4,5,0,0,0,0,47,0,0,0,0,0,0,0,0,0,11,12,47,0,0,47,0,0,0,54,0,0,11,12,0,0,0,47,0,0,0,0,0,0,0,0,0,54,0,54,47,0,0,0,0,0,0,0,0,0,0,0,0,0,
13,14,0,0,0,0,0,0,0,0,0,0,0,0,0,0,0,0,0,47,54,0,0,0,47,47,47,0,0,0,0,0,0,54,0,0,0,47,54,0,0,0,0,54,0,54,0,0,0,0,0,0,0,0,0,0,0,0,0,0,
0,0,0,0,2,3,0,47,47,0,0,0,0,0,0,0,0,0,0,0,47,0,0,0,0,0,0,0,0,0,0,0,0,0,47,0,0,47,0,0,0,0,0,0,0,0,0,0,2,3,0,0,0,0,0,0,0,0,0,0,
0,0,0,0,11,12,0,0,0,4,5,47,47,47,0,54,0,0,0,0,2,3,54,54,0,0,0,0,0,0,0,0,0,0,0,0,0,0,0,0,0,0,0,47,47,0,0,0,11,12,0,0,0,0,0,0,0,0,0,0,
0,0,0,0,0,0,0,0,0,13,14,0,0,0,0,0,0,0,0,0,11,12,0,0,0,0,0,0,0,0,0,0,0,0,0,0,0,0,0,0,0,0,0,0,0,47,0,0,0,0,0,0,0,0,0,0,0,0,0,0,
0,0,0,0,0,0,0,0,0,0,0,0,0,0,0,0,0,0,0,0,0,0,0,0,0,0,0,0,0,0,0,0,0,0,0,0,0,0,0,0,0,0,0,0,0,0,0,0,0,0,0,0,0,0,0,0,0,0,0,0
</data>
 </layer>
 <layer id="4" name="HierbAltaa" width="60" height="40">
  <data encoding="csv">
0,0,0,585,585,585,585,585,585,585,585,585,585,585,585,585,585,585,585,585,585,0,0,0,0,0,0,0,0,0,0,0,0,0,0,0,0,0,0,0,0,0,0,0,0,0,0,0,0,0,0,0,0,0,0,0,0,0,0,0,
0,0,0,0,585,585,585,585,0,585,585,585,585,0,0,0,585,585,0,0,585,585,585,0,0,0,0,0,0,0,0,0,0,0,0,0,0,0,0,0,0,0,0,0,0,0,0,0,0,0,0,0,0,0,0,0,0,0,0,0,
0,0,0,0,585,0,585,585,0,585,585,585,0,0,0,585,585,585,0,0,585,585,585,585,0,0,0,0,0,0,0,0,0,0,0,0,0,0,0,0,0,0,0,0,0,0,0,0,0,0,0,0,0,0,0,0,0,0,0,0,
0,585,585,585,0,585,0,585,585,585,585,585,0,0,585,585,585,585,585,0,585,585,585,585,585,0,0,0,0,0,0,0,0,0,0,0,0,0,0,0,0,0,0,0,0,0,0,0,0,0,0,0,0,0,0,0,0,0,0,0,
0,585,0,585,585,0,585,585,0,0,585,585,0,585,585,585,0,585,585,0,585,585,0,0,585,585,0,0,0,0,0,0,0,0,0,0,0,0,0,0,0,0,0,0,0,0,0,0,0,0,0,0,0,0,0,0,0,0,0,0,
0,585,585,585,585,585,585,585,0,585,585,585,585,585,0,585,0,585,585,585,0,585,0,0,585,0,585,0,0,0,0,0,0,0,0,0,0,0,0,0,0,0,0,0,0,0,0,0,0,0,0,0,0,0,0,0,0,0,0,0,
0,585,0,585,585,0,0,585,0,585,0,585,585,0,0,585,585,585,0,0,0,0,585,585,585,585,585,0,0,0,0,0,0,0,0,0,0,0,0,0,0,0,0,0,0,0,0,0,0,0,0,0,0,0,0,0,0,0,0,0,
0,585,0,585,0,0,0,585,0,0,585,585,585,585,585,585,585,0,585,585,0,585,585,585,0,585,0,0,0,0,0,0,0,0,0,0,0,0,0,0,0,0,0,0,0,0,0,0,0,0,0,0,0,0,0,0,0,0,0,0,
0,585,585,585,0,0,0,585,585,585,0,0,585,585,585,585,585,585,0,0,585,585,585,585,585,585,0,0,0,0,0,0,0,0,0,0,0,0,0,0,0,0,0,0,0,0,0,0,0,0,0,0,0,0,0,0,0,0,0,0,
0,585,585,585,585,585,585,585,585,585,0,0,585,585,585,585,585,585,0,0,585,0,0,0,0,585,585,0,0,0,0,585,585,585,585,0,0,0,0,0,0,0,0,0,0,0,0,0,0,0,0,0,0,0,0,0,0,0,0,0,
0,0,585,585,585,0,0,585,585,585,0,0,585,585,0,585,585,585,585,585,585,0,0,0,585,585,585,0,0,0,585,0,0,0,585,585,585,0,0,0,0,0,0,0,0,0,0,0,0,0,0,0,0,0,0,0,0,0,0,0,
0,585,585,585,585,0,585,585,585,585,585,585,585,0,0,585,585,585,585,585,585,585,585,0,0,585,0,585,0,0,0,0,0,0,0,585,0,0,585,585,0,0,0,0,0,0,0,0,0,0,0,0,0,0,0,0,0,0,0,0,
0,585,585,585,585,0,0,585,585,585,0,585,585,0,0,0,0,0,585,585,585,585,585,0,0,0,0,0,0,0,585,585,0,0,585,585,0,585,585,585,585,0,0,0,0,0,0,0,0,0,0,0,0,0,0,0,0,0,0,0,
0,0,0,0,585,0,0,585,585,0,0,0,0,0,0,0,0,0,0,0,0,0,0,585,585,585,585,0,0,0,585,585,0,585,585,585,585,585,585,585,585,0,0,0,0,0,0,0,0,0,0,0,0,0,0,0,0,0,0,0,
0,0,585,585,585,585,585,585,0,0,0,0,0,0,0,0,0,0,0,0,0,0,0,0,0,0,585,585,0,0,0,0,0,0,0,585,0,0,0,0,0,0,0,0,0,0,0,0,0,0,0,0,0,0,0,0,0,0,0,0,
0,0,585,585,585,0,0,0,0,0,0,0,0,0,0,0,0,0,0,0,0,0,0,0,0,0,0,0,585,585,585,0,0,0,0,0,0,0,0,0,0,0,0,0,0,0,0,0,0,0,0,0,0,0,0,0,0,0,0,0,
0,0,0,0,0,0,0,0,0,0,0,0,0,0,0,0,0,0,0,0,0,0,0,0,0,0,0,0,0,0,585,585,0,0,0,0,0,0,0,0,0,0,0,0,0,0,0,0,0,0,0,0,0,0,0,0,0,0,0,0,
0,0,0,0,0,0,0,0,0,0,0,0,0,0,0,0,0,0,0,0,0,0,0,0,0,0,0,0,0,0,0,585,0,0,0,0,0,0,0,0,0,0,0,0,0,0,0,0,0,0,0,0,0,0,0,0,0,0,0,0,
0,0,0,0,0,0,0,0,0,0,0,0,0,0,0,0,0,0,0,0,0,0,0,0,0,0,0,0,0,0,0,0,585,0,0,0,0,0,0,0,0,0,585,585,0,0,0,0,0,0,0,0,0,0,0,0,0,0,0,0,
0,0,0,0,0,0,0,0,0,0,0,0,0,0,0,0,0,0,0,0,0,0,0,0,0,0,0,0,0,0,0,0,585,0,0,0,0,0,0,0,0,585,585,585,0,0,0,0,0,0,0,0,0,0,0,0,0,0,0,0,
0,0,0,0,0,0,0,0,0,0,0,0,0,0,0,0,0,0,0,0,0,0,0,0,0,0,0,0,0,0,0,0,0,0,0,0,0,0,0,0,0,0,0,0,0,0,0,0,0,0,0,0,0,0,0,0,0,0,0,0,
0,0,0,0,0,0,0,0,0,0,0,0,0,0,0,0,0,0,0,0,0,0,0,0,0,0,0,0,0,0,0,0,0,0,0,0,0,0,0,0,0,0,0,0,0,0,0,0,0,0,0,0,0,0,0,0,0,0,0,0,
0,0,0,0,0,0,0,0,0,0,0,0,0,0,0,0,0,0,0,0,0,0,0,0,0,0,0,0,0,0,0,0,0,0,0,0,0,585,585,585,585,585,585,0,585,0,0,0,0,0,0,0,0,0,0,0,0,0,0,0,
0,0,0,0,0,0,0,0,0,0,0,0,0,0,0,0,0,0,0,0,0,0,0,0,0,0,0,0,0,0,0,0,0,0,0,0,585,585,0,0,0,0,0,0,0,585,0,0,0,0,0,0,0,0,0,0,0,0,0,0,
0,0,0,0,0,0,0,0,0,0,0,0,0,0,0,0,0,0,0,0,0,0,0,0,0,0,0,0,0,0,0,0,0,585,585,0,585,0,0,0,0,0,0,585,585,585,0,0,0,0,0,0,0,0,0,0,0,0,0,0,
0,0,0,0,0,0,0,0,0,0,0,0,0,0,0,0,0,0,0,0,0,0,0,0,0,0,0,0,0,0,0,0,0,585,0,0,0,0,0,585,585,585,585,585,585,0,585,0,0,0,0,0,0,0,0,0,0,0,0,0,
0,0,0,0,0,0,0,0,0,0,0,0,0,0,0,0,0,0,0,0,0,0,0,0,0,0,0,0,0,0,0,585,585,0,0,0,0,0,585,585,585,585,0,585,0,0,0,0,0,0,0,0,0,0,0,0,0,0,0,0,
0,0,0,0,0,0,0,0,0,0,0,0,0,0,0,0,0,0,0,0,0,0,0,0,0,0,0,0,0,0,585,585,585,585,0,0,0,0,585,0,585,585,0,0,0,0,0,585,0,0,0,0,0,0,0,0,0,0,0,0,
0,0,0,0,0,0,0,0,0,0,0,0,0,0,0,0,0,0,0,0,0,0,0,0,0,0,0,585,585,585,0,0,0,585,585,0,0,585,585,0,0,0,0,0,0,0,0,585,0,0,0,0,0,0,0,0,0,0,0,0,
0,0,0,0,0,0,0,0,0,0,0,0,0,0,0,0,0,0,0,0,0,0,0,0,0,0,0,585,585,585,0,0,0,0,585,585,585,585,0,0,0,0,0,0,0,0,0,585,585,0,0,0,0,0,0,0,0,0,0,0,
0,0,0,0,0,0,0,0,0,0,0,0,0,0,0,0,0,0,0,0,585,585,585,585,0,0,0,585,585,585,0,0,0,0,585,0,585,0,0,0,0,0,0,0,0,0,0,0,585,0,0,0,0,0,0,0,0,0,0,0,
0,585,0,0,0,0,0,0,0,0,0,0,0,0,0,0,585,585,585,585,585,585,0,0,0,0,585,585,585,0,0,0,0,0,0,0,585,0,0,0,0,0,0,0,0,0,0,0,0,585,0,0,0,0,0,0,0,0,0,0,
0,585,585,585,585,585,585,585,585,585,585,585,585,585,585,585,585,0,0,0,585,585,585,0,0,0,585,0,0,0,0,0,0,0,0,0,0,0,0,0,0,0,0,0,0,0,0,0,0,585,0,0,0,0,0,0,0,0,0,0,
0,585,0,0,0,0,0,585,585,585,585,585,0,0,0,0,0,0,0,0,585,585,585,0,0,0,585,0,0,0,0,0,0,0,0,0,0,0,0,0,0,0,0,0,0,0,0,0,0,585,585,585,585,585,0,0,0,0,0,0,
0,0,0,0,0,0,585,585,585,585,0,585,585,0,0,0,0,0,0,0,585,585,585,585,0,0,0,0,0,0,0,0,585,585,585,0,0,0,0,0,0,0,585,0,0,0,0,0,0,0,585,585,585,585,0,0,0,0,0,0,
0,0,0,0,0,0,0,0,0,0,585,585,585,0,0,0,0,0,0,0,0,585,585,585,0,0,0,0,0,0,0,585,585,0,585,0,0,0,0,0,0,0,585,0,0,0,0,0,0,0,585,585,0,585,0,0,0,0,0,0,
0,0,0,0,0,0,0,0,0,0,585,0,585,585,585,0,0,0,0,0,0,0,0,0,0,0,0,0,0,0,0,585,0,0,0,585,0,0,0,0,0,0,585,0,0,0,0,0,0,0,585,585,585,585,0,0,0,0,0,0,
0,0,0,0,0,0,0,585,0,0,0,0,0,0,0,0,0,0,0,585,0,0,585,585,585,585,585,0,0,0,0,585,0,0,0,0,585,585,0,0,0,0,585,585,585,585,585,585,0,0,0,0,585,0,0,0,0,0,0,0,
0,0,0,0,0,0,585,585,0,0,0,0,0,585,585,585,585,585,585,585,0,0,585,0,0,0,585,0,0,0,585,0,0,0,0,0,0,0,585,585,585,585,585,585,585,585,585,585,585,585,585,585,0,0,0,0,0,0,0,0,
0,0,0,0,0,0,0,0,0,0,0,0,0,0,0,0,0,0,0,0,0,0,0,0,0,0,0,0,0,0,0,0,0,0,0,0,0,0,0,0,0,0,0,0,0,0,0,0,0,0,0,0,0,0,0,0,0,0,0,0
</data>
 </layer>
</map>
