<?xml version="1.0" encoding="UTF-8"?>
<map version="1.10" tiledversion="1.11.2" orientation="orthogonal" renderorder="right-down" width="30" height="20" tilewidth="16" tileheight="16" infinite="0" nextlayerid="11" nextobjectid="1">
 <tileset firstgid="1" source="../tilesets/Tileset/Grass16.tsx"/>
 <tileset firstgid="78" source="../tilesets/Tileset/Tilled Dirt.tsx"/>
 <tileset firstgid="142" source="../tilesets/Tileset/Basic Grass Biom things 1.tsx"/>
 <tileset firstgid="187" source="../tilesets/Tileset/Room_Builder_free_16x16.tsx"/>
 <tileset firstgid="578" source="../tilesets/Tileset/Interiors_free_16x16.tsx"/>
 <layer id="2" name="Tile Layer 2" width="30" height="20" locked="1">
  <data encoding="csv">
80,80,80,80,80,80,80,80,80,80,80,80,80,80,80,80,80,80,80,80,80,80,80,80,80,80,80,80,80,80,
80,80,80,80,80,80,80,80,80,80,80,80,80,80,80,80,80,80,80,80,80,80,80,80,80,80,80,80,80,80,
80,80,80,80,80,80,80,80,80,80,80,80,80,80,80,80,80,80,80,80,80,80,80,80,80,80,80,80,80,80,
80,80,80,80,80,80,80,80,80,80,80,80,80,80,80,80,80,80,80,80,80,80,80,80,80,80,80,80,80,80,
80,80,80,80,80,80,80,80,80,80,80,80,80,80,80,80,80,80,80,80,80,80,80,80,80,80,80,80,80,80,
80,80,80,80,80,80,80,80,80,80,80,80,80,80,80,80,80,80,80,80,80,80,80,80,80,80,80,80,80,80,
80,80,80,80,80,80,80,80,80,80,80,80,80,80,80,80,80,80,80,80,80,80,80,80,80,80,80,80,80,80,
80,80,80,80,80,80,80,80,80,80,80,80,80,80,80,80,80,80,80,80,80,80,80,80,80,80,80,80,80,80,
80,80,80,80,80,80,80,80,80,80,80,80,80,80,80,80,80,80,80,80,80,80,80,80,80,80,80,80,80,80,
80,80,80,80,80,80,80,80,80,80,80,80,80,80,80,80,80,80,80,80,80,80,80,80,80,80,80,80,80,80,
80,80,80,80,80,80,80,80,80,80,80,80,80,80,80,80,80,80,80,80,80,80,80,80,80,80,80,80,80,80,
80,80,80,80,80,80,80,80,80,80,80,80,80,80,80,80,80,80,80,80,80,80,80,80,80,80,80,80,80,80,
80,80,80,80,80,80,80,80,80,80,80,80,80,80,80,80,80,80,80,80,80,80,80,80,80,80,80,80,80,80,
80,80,80,80,80,80,80,80,80,80,80,80,80,80,80,80,80,80,80,80,80,80,80,80,80,80,80,80,80,80,
80,80,80,80,80,80,80,80,80,80,80,80,80,80,80,80,80,80,80,80,80,80,80,80,80,80,80,80,80,80,
80,80,80,80,80,80,80,80,80,80,80,80,104,104,104,80,80,80,80,80,80,80,80,80,80,80,80,80,80,80,
80,80,80,80,80,80,80,80,80,80,80,80,80,80,80,80,80,80,80,80,80,80,80,80,80,80,80,80,80,80,
80,80,80,80,80,80,80,80,80,80,80,80,80,80,80,80,80,80,80,80,80,80,80,80,80,80,80,80,80,80,
80,80,80,80,80,80,80,80,80,80,80,80,80,80,80,80,80,80,80,80,80,80,80,80,80,80,80,80,80,80,
80,80,80,80,80,80,80,80,80,80,80,80,80,80,80,80,80,80,80,80,80,80,80,80,80,80,80,80,80,80
</data>
 </layer>
 <layer id="10" name="Colisiones" width="30" height="20" locked="1">
  <data encoding="csv">
92,0,0,0,0,0,92,92,0,0,0,0,0,92,92,0,0,0,92,0,92,0,0,0,0,92,0,0,0,92,
92,0,92,92,0,0,92,92,0,0,0,0,0,0,0,0,0,0,92,0,0,0,92,92,0,92,92,92,0,0,
0,0,92,92,0,0,0,0,0,0,0,0,0,0,0,0,0,0,0,0,0,0,92,92,0,0,92,92,0,0,
0,0,0,0,0,92,0,92,92,92,92,92,92,92,92,92,92,92,92,92,92,92,0,0,0,0,0,0,92,0,
0,0,0,0,0,92,0,92,0,0,92,0,0,0,0,0,0,92,0,0,0,92,0,0,0,0,0,0,92,0,
0,0,92,92,0,0,0,92,0,0,92,0,0,0,0,0,0,92,0,0,0,92,0,0,92,92,0,0,0,0,
0,0,92,92,0,0,0,92,0,0,92,0,0,0,0,0,0,92,0,0,0,92,0,0,92,92,0,92,92,0,
0,0,0,0,0,92,0,92,0,0,92,92,92,92,92,92,92,92,0,0,0,92,0,0,0,0,0,92,92,0,
0,0,0,0,0,92,0,92,0,0,0,92,92,0,0,92,92,0,0,0,0,92,0,0,0,0,92,0,0,0,
0,92,0,0,0,0,0,92,92,0,0,0,0,0,0,0,0,0,0,0,92,92,0,0,0,0,92,0,0,0,
0,92,0,0,0,0,0,92,92,0,0,0,0,0,0,0,0,0,0,0,92,92,0,0,0,0,0,0,0,0,
0,0,0,92,92,0,0,92,0,0,0,0,0,0,0,0,0,0,0,0,0,92,0,0,0,0,0,92,92,0,
0,0,0,92,92,0,0,92,92,0,0,0,0,0,0,0,0,0,0,0,92,92,0,0,0,0,0,92,92,0,
0,0,0,0,0,0,0,92,92,0,0,0,0,0,0,0,0,0,0,0,92,92,0,0,92,92,0,0,0,0,
0,0,92,92,0,92,0,92,92,92,92,92,92,0,0,92,92,92,92,92,92,92,0,0,92,92,0,0,0,0,
0,0,92,92,0,92,0,92,92,92,92,92,92,0,0,92,92,92,92,92,92,92,0,0,0,0,0,0,0,0,
0,0,0,0,0,0,0,0,0,0,0,0,0,0,0,0,0,0,0,0,0,0,0,0,0,0,0,92,92,0,
0,92,0,0,0,92,92,0,0,0,0,0,0,0,0,0,0,0,0,0,0,0,0,92,92,0,92,92,92,0,
0,92,0,0,0,92,92,0,0,0,0,0,0,0,0,0,0,0,0,92,0,0,0,92,92,0,92,0,0,0,
0,0,0,0,0,0,0,0,0,0,0,0,0,0,0,0,0,0,0,92,0,0,0,0,0,0,0,0,0,0
</data>
 </layer>
 <layer id="1" name="Tile Layer 1" width="30" height="20" locked="1">
  <data encoding="csv">
1,2,2,2,2,2,2,2,2,2,2,2,2,2,2,2,2,2,2,2,2,2,2,2,2,2,2,2,2,3,
12,58,58,58,58,58,58,58,58,58,58,58,58,58,58,58,58,58,58,58,58,58,58,58,58,58,58,58,58,14,
12,58,58,58,58,58,58,58,58,58,58,58,58,58,58,58,58,58,58,58,58,58,58,58,58,58,58,58,58,14,
12,58,58,58,58,58,58,58,58,58,58,58,58,58,58,58,58,58,58,58,58,58,58,58,58,58,58,58,58,14,
12,58,58,58,58,58,58,58,58,58,58,58,58,58,58,58,58,58,58,58,58,58,58,58,58,58,58,58,58,14,
12,58,58,58,58,58,58,58,58,58,58,58,58,58,58,58,58,58,58,58,58,58,58,58,58,58,58,58,58,14,
12,58,58,58,58,58,58,58,58,58,58,58,58,58,58,58,58,58,58,58,58,58,58,58,58,58,58,58,58,14,
12,58,58,58,58,58,58,58,58,58,58,58,58,58,58,58,58,58,58,58,58,58,58,58,58,58,58,58,58,14,
12,58,58,58,58,58,58,58,58,58,58,58,58,58,58,58,58,58,58,58,58,58,58,58,58,58,58,58,58,14,
12,58,58,58,58,58,58,58,58,58,58,58,58,58,58,58,58,58,58,58,58,58,58,58,58,58,58,58,58,14,
12,58,58,58,58,58,58,58,58,58,58,58,58,58,58,58,58,58,58,58,58,58,58,58,58,58,58,58,58,14,
12,58,58,58,58,58,58,58,58,58,58,58,58,58,58,58,58,58,58,58,58,58,58,58,58,58,58,58,58,14,
12,58,58,58,58,58,58,58,58,58,58,58,58,58,58,58,58,58,58,58,58,58,58,58,58,58,58,58,58,14,
12,58,58,58,58,58,58,58,58,58,58,58,58,58,58,58,58,58,58,58,58,58,58,58,58,58,58,58,58,14,
12,58,58,58,58,58,58,58,58,58,58,58,58,58,58,58,58,58,58,58,58,58,58,58,58,58,58,58,58,14,
12,58,58,58,58,58,58,58,58,58,58,58,58,58,58,58,58,58,58,58,58,58,58,58,58,58,58,58,58,14,
12,58,58,58,58,58,58,58,58,58,58,58,58,58,58,58,58,58,58,58,58,58,58,58,58,58,58,58,58,14,
12,58,58,58,58,58,58,58,58,58,58,58,58,58,58,58,58,58,58,58,58,58,58,58,58,58,58,58,58,14,
12,58,58,58,58,58,58,58,58,58,58,58,58,58,58,58,58,58,58,58,58,58,58,58,58,58,58,58,58,14,
23,24,24,24,24,24,24,24,24,24,24,24,24,24,24,24,24,24,24,24,24,24,24,24,24,24,24,24,24,25
</data>
 </layer>
 <layer id="9" name="Tile Layer 8" width="30" height="20" locked="1">
  <data encoding="csv">
142,0,0,0,0,0,0,0,0,0,168,0,0,154,155,0,0,0,142,0,151,0,0,0,0,142,0,0,147,151,
151,0,0,0,148,0,0,0,168,0,177,0,0,0,0,0,0,0,151,0,0,0,0,0,0,151,0,0,0,0,
0,0,0,0,0,0,0,0,177,0,0,0,0,0,0,0,0,0,0,0,0,0,0,0,0,0,0,0,0,0,
0,0,0,0,0,142,0,0,0,0,0,0,0,0,0,0,0,0,0,0,0,0,0,0,168,0,0,0,142,0,
0,168,0,0,0,151,0,0,0,0,0,0,0,0,0,0,0,0,0,0,0,0,0,0,177,0,147,0,151,0,
0,177,0,0,0,0,0,0,0,0,0,0,0,0,0,0,0,0,0,0,0,0,168,0,0,0,0,0,0,0,
0,0,0,0,0,0,0,0,0,0,0,0,0,0,0,0,0,0,0,0,0,0,177,0,0,0,0,0,0,0,
0,0,0,0,0,142,0,0,0,0,0,0,0,0,0,0,0,0,0,0,0,0,0,0,168,0,0,0,0,0,
0,0,0,148,0,151,0,0,0,0,0,0,0,0,0,0,0,0,0,0,0,0,0,0,177,0,142,0,0,0,
0,142,0,148,0,0,0,0,0,0,0,0,0,0,0,0,0,0,0,0,0,0,0,0,0,0,151,0,0,147,
0,151,0,0,0,168,0,0,0,0,0,0,0,0,0,0,0,0,0,0,0,0,0,0,0,0,0,0,0,0,
0,0,0,0,0,177,0,0,0,0,0,0,0,0,0,0,0,0,0,0,0,0,0,147,0,0,0,0,0,0,
0,168,0,0,0,0,0,0,0,0,0,0,0,0,0,0,0,0,0,0,0,0,0,0,0,0,0,0,0,0,
0,177,0,0,0,0,0,0,0,0,0,0,0,0,0,0,0,0,0,0,0,0,0,0,0,0,0,0,0,0,
0,0,0,0,0,142,0,0,0,0,0,0,0,0,0,0,0,0,0,0,0,0,0,0,0,0,0,0,0,0,
0,0,0,0,0,151,0,0,0,0,0,0,103,104,104,105,0,0,0,0,0,0,0,168,0,0,0,149,0,0,
0,0,0,0,0,0,0,0,0,0,0,0,111,112,112,113,0,0,0,0,0,0,0,177,0,0,0,0,0,0,
0,142,0,168,0,0,0,0,0,0,0,168,111,112,112,113,168,0,168,0,0,0,0,0,0,0,142,0,0,0,
0,151,0,177,0,0,0,0,0,0,0,177,111,112,112,113,177,0,177,142,0,149,0,0,0,0,151,0,0,0,
0,0,0,0,0,0,0,0,0,0,0,0,111,112,112,113,0,0,0,151,0,0,0,0,0,0,0,0,0,0
</data>
 </layer>
 <layer id="3" name="Tile Layer 3" width="30" height="20" locked="1">
  <data encoding="csv">
0,0,0,0,0,0,143,144,0,0,0,0,0,0,0,0,0,0,0,0,0,0,0,0,0,0,0,0,0,0,
0,0,145,146,0,0,152,153,0,0,0,0,0,0,0,0,0,0,0,0,0,0,145,146,0,0,143,144,0,0,
0,0,154,155,0,0,0,0,0,0,0,0,0,0,0,0,0,0,0,0,0,0,154,155,0,0,152,153,0,0,
0,0,0,0,0,0,0,480,477,477,477,477,477,477,477,477,477,477,477,477,477,482,0,0,0,0,0,0,0,0,
0,0,0,0,0,0,0,480,477,477,481,477,477,477,477,477,477,481,477,477,477,482,0,0,0,0,0,0,0,0,
0,0,143,144,0,0,0,480,481,481,481,481,481,481,481,481,481,481,481,481,481,482,0,0,143,144,0,0,0,0,
0,0,152,153,0,0,0,480,481,481,481,481,481,481,481,481,481,481,481,481,481,482,0,0,152,153,0,145,146,0,
0,0,0,0,0,0,0,480,481,481,481,481,481,481,481,481,481,481,481,481,481,482,0,0,0,0,0,154,155,0,
0,0,0,0,0,0,0,480,481,481,481,481,481,481,481,481,481,481,481,481,481,482,0,0,0,0,0,0,0,0,
0,0,0,0,0,0,0,480,481,481,481,481,481,481,481,481,481,481,481,481,481,482,0,0,0,0,0,0,0,0,
0,0,0,0,0,0,0,480,481,481,481,481,481,481,481,481,481,481,481,481,481,482,0,0,0,0,0,0,0,0,
0,0,0,145,146,0,0,480,481,481,481,481,481,481,481,481,481,481,481,481,481,482,0,0,0,0,0,143,144,0,
0,0,0,154,155,0,0,480,481,481,481,481,481,481,481,481,481,481,481,481,481,482,0,0,0,0,0,152,153,0,
0,0,0,0,0,0,0,480,481,481,481,481,481,481,481,481,481,481,481,481,481,482,0,0,145,146,0,0,0,0,
0,0,143,144,0,0,0,480,481,481,481,481,481,481,481,481,481,481,481,481,481,482,0,0,154,155,0,0,0,0,
0,0,152,153,0,0,0,0,0,0,0,0,0,0,0,0,0,0,0,0,0,0,0,0,0,0,0,0,0,0,
0,0,0,0,0,0,0,0,0,0,0,0,0,0,0,0,0,0,0,0,0,0,0,0,0,0,0,145,146,0,
0,0,0,0,0,143,144,0,0,0,0,0,0,0,0,0,0,0,0,0,0,0,0,143,144,0,0,154,155,0,
0,0,0,0,0,152,153,0,0,0,0,0,0,0,0,0,0,0,0,0,0,0,0,152,153,0,0,0,0,0,
0,0,0,0,0,0,0,0,0,0,0,0,0,0,0,0,0,0,0,0,0,0,0,0,0,0,0,0,0,0
</data>
 </layer>
 <layer id="4" name="Tile Layer 4" width="30" height="20" locked="1">
  <data encoding="csv">
0,0,0,0,0,0,0,0,0,0,0,0,0,0,0,0,0,0,0,0,0,0,0,0,0,0,0,0,0,0,
0,0,0,0,0,0,0,0,0,0,0,0,0,0,0,0,0,0,0,0,0,0,0,0,0,0,0,0,0,0,
0,0,0,0,0,0,0,0,0,0,0,0,0,0,0,0,0,0,0,0,0,0,0,0,0,0,0,0,0,0,
0,0,0,0,0,0,0,214,0,0,588,0,0,0,0,0,0,590,0,0,0,213,0,0,0,0,0,0,0,0,
0,0,0,0,0,0,0,193,481,481,604,481,481,481,481,481,481,622,481,481,481,194,0,0,0,0,0,0,0,0,
0,0,0,0,0,0,0,193,0,0,620,0,0,0,0,0,0,622,0,0,0,194,0,0,0,0,0,0,0,0,
0,0,0,0,0,0,0,193,0,0,620,0,0,0,0,0,0,622,0,0,0,194,0,0,0,0,0,0,0,0,
0,0,0,0,0,0,0,193,0,0,636,637,637,637,637,637,637,638,0,0,0,194,0,0,0,0,0,0,0,0,
0,0,0,0,0,0,0,193,0,0,0,0,0,0,0,0,0,0,0,0,0,194,0,0,0,0,0,0,0,0,
0,0,0,0,0,0,0,193,0,0,0,0,0,0,0,0,0,0,0,0,0,194,0,0,0,0,0,0,0,0,
0,0,0,0,0,0,0,193,0,0,0,0,0,0,0,0,0,0,0,0,0,194,0,0,0,0,0,0,0,0,
0,0,0,0,0,0,0,193,0,0,0,0,0,0,0,0,0,0,0,0,0,194,0,0,0,0,0,0,0,0,
0,0,0,0,0,0,0,193,0,0,0,0,0,0,0,0,0,0,0,0,0,194,0,0,0,0,0,0,0,0,
0,0,0,0,0,0,0,193,0,0,0,0,0,0,0,0,0,0,0,0,0,194,0,0,0,0,0,0,0,0,
0,0,0,0,0,0,0,193,0,0,0,0,0,0,0,0,0,0,0,0,0,194,0,0,0,0,0,0,0,0,
0,0,0,0,0,0,0,250,250,250,250,250,250,0,0,250,250,250,250,250,250,250,0,0,0,0,0,0,0,0,
0,0,0,0,0,0,0,0,0,0,0,0,0,0,0,0,0,0,0,0,0,0,0,0,0,0,0,0,0,0,
0,0,0,0,0,0,0,0,0,0,0,0,0,0,0,0,0,0,0,0,0,0,0,0,0,0,0,0,0,0,
0,0,0,0,0,0,0,0,0,0,0,0,0,0,0,0,0,0,0,0,0,0,0,0,0,0,0,0,0,0,
0,0,0,0,0,0,0,0,0,0,0,0,0,0,0,0,0,0,0,0,0,0,0,0,0,0,0,0,0,0
</data>
 </layer>
 <layer id="5" name="Tile Layer 5" width="30" height="20" locked="1">
  <data encoding="csv">
0,0,0,0,0,0,0,0,0,0,0,0,0,0,0,0,0,0,0,0,0,0,0,0,0,0,0,0,0,0,
0,0,0,0,0,0,0,0,0,0,0,0,0,0,0,0,0,0,0,0,0,0,0,0,0,0,0,0,0,0,
0,0,0,0,0,0,0,0,0,0,0,0,0,0,0,0,0,0,0,0,0,0,0,0,0,0,0,0,0,0,
0,0,0,0,0,0,0,0,0,0,0,0,0,0,0,0,0,0,0,0,0,0,0,0,0,0,0,0,0,0,
0,0,0,0,0,0,0,0,0,0,0,0,0,0,0,0,0,0,0,0,0,0,0,0,0,0,0,0,0,0,
0,0,0,0,0,0,0,0,0,0,0,0,0,0,0,0,0,0,0,0,0,0,0,0,0,0,0,0,0,0,
0,0,0,0,0,0,0,0,0,0,0,0,0,639,0,0,0,0,0,0,0,0,0,0,0,0,0,0,0,0,
0,0,0,0,0,0,0,0,0,0,0,0,0,655,0,0,0,0,0,0,0,0,0,0,0,0,0,0,0,0,
0,0,0,0,0,0,0,0,0,0,0,0,0,0,0,0,0,0,0,0,0,0,0,0,0,0,0,0,0,0,
0,0,0,0,0,0,0,0,0,0,0,0,0,0,0,0,0,0,0,0,0,0,0,0,0,0,0,0,0,0,
0,0,0,0,0,0,0,0,0,0,0,0,0,0,0,0,0,0,0,0,0,0,0,0,0,0,0,0,0,0,
0,0,0,0,0,0,0,0,0,0,0,0,0,0,0,0,0,0,0,0,0,0,0,0,0,0,0,0,0,0,
0,0,0,0,0,0,0,0,0,0,0,0,0,0,0,0,0,0,0,0,0,0,0,0,0,0,0,0,0,0,
0,0,0,0,0,0,0,0,0,0,0,0,0,0,0,0,0,0,0,0,0,0,0,0,0,0,0,0,0,0,
0,0,0,0,0,0,0,0,0,0,0,0,0,0,0,0,0,0,0,0,0,0,0,0,0,0,0,0,0,0,
0,0,0,0,0,0,0,0,0,0,0,0,0,0,0,0,0,0,0,0,0,0,0,0,0,0,0,0,0,0,
0,0,0,0,0,0,0,0,0,0,0,0,0,0,0,0,0,0,0,0,0,0,0,0,0,0,0,0,0,0,
0,0,0,0,0,0,0,0,0,0,0,0,0,0,0,0,0,0,0,0,0,0,0,0,0,0,0,0,0,0,
0,0,0,0,0,0,0,0,0,0,0,0,0,0,0,0,0,0,0,0,0,0,0,0,0,0,0,0,0,0,
0,0,0,0,0,0,0,0,0,0,0,0,0,0,0,0,0,0,0,0,0,0,0,0,0,0,0,0,0,0
</data>
 </layer>
 <layer id="8" name="Tile Layer 7" width="30" height="20" locked="1">
  <data encoding="csv">
0,0,0,0,0,0,0,0,0,0,0,0,0,0,0,0,0,0,0,0,0,0,0,0,0,0,0,0,0,0,
0,0,0,0,0,0,0,0,0,0,0,0,0,0,0,0,0,0,0,0,0,0,0,0,0,0,0,0,0,0,
0,0,0,0,0,0,0,0,0,0,0,966,967,968,966,967,968,0,0,0,0,0,0,0,0,0,0,0,0,0,
0,0,0,0,0,0,0,0,0,0,0,982,983,984,982,983,984,0,0,0,0,0,0,0,0,0,0,0,0,0,
0,0,0,0,0,0,0,0,0,0,0,0,0,0,0,0,0,0,0,0,0,0,0,0,0,0,0,0,0,0,
0,0,0,0,0,0,0,0,0,0,0,0,0,0,0,0,0,0,0,0,0,0,0,0,0,0,0,0,0,0,
0,0,0,0,0,0,0,0,0,0,0,0,0,0,639,0,0,0,0,0,0,0,0,0,0,0,0,0,0,0,
0,0,0,0,0,0,0,1469,0,0,0,1769,1770,0,655,1769,1770,0,0,0,0,1469,0,0,0,0,0,0,0,0,
0,0,0,0,0,0,0,1485,0,0,0,1785,1786,0,0,1785,1786,0,0,0,0,1485,0,0,0,0,0,0,0,0,
0,0,0,0,0,0,0,0,0,0,0,0,0,0,0,0,0,0,0,0,0,0,0,0,0,0,0,0,0,0,
0,0,0,0,0,0,0,1895,0,0,0,0,0,0,0,0,0,0,0,0,0,1894,0,0,0,0,0,0,0,0,
0,0,0,0,0,0,0,1485,0,0,0,0,0,0,0,0,0,0,0,0,0,1485,0,0,0,0,0,0,0,0,
0,0,0,0,0,0,0,0,0,0,0,0,0,0,0,0,0,0,0,0,0,0,0,0,0,0,0,0,0,0,
0,0,0,0,0,0,0,0,0,0,0,0,0,0,0,0,0,0,0,0,0,0,0,0,0,0,0,0,0,0,
0,0,0,0,0,0,0,0,0,0,0,0,0,0,0,0,0,0,0,0,0,0,0,0,0,0,0,0,0,0,
0,0,0,0,0,0,0,0,0,0,0,0,0,0,0,0,0,0,0,0,0,0,0,0,0,0,0,0,0,0,
0,0,0,0,0,0,0,0,0,0,0,0,0,0,0,0,0,0,0,0,0,0,0,0,0,0,0,0,0,0,
0,0,0,0,0,0,0,0,0,0,0,0,0,0,0,0,0,0,0,0,0,0,0,0,0,0,0,0,0,0,
0,0,0,0,0,0,0,0,0,0,0,0,0,0,0,0,0,0,0,0,0,0,0,0,0,0,0,0,0,0,
0,0,0,0,0,0,0,0,0,0,0,0,0,0,0,0,0,0,0,0,0,0,0,0,0,0,0,0,0,0
</data>
 </layer>
 <layer id="6" name="Tile Layer 6" width="30" height="20" locked="1">
  <data encoding="csv">
0,0,0,0,0,0,0,0,0,0,0,0,0,0,0,0,0,0,0,0,0,0,0,0,0,0,0,0,0,0,
0,0,0,0,0,0,0,0,0,0,0,0,0,0,0,0,0,0,0,0,0,0,0,0,0,0,0,0,0,0,
0,0,0,0,0,0,0,0,0,0,0,0,0,820,821,0,0,0,0,0,0,0,0,0,0,0,0,0,0,0,
0,0,0,0,0,0,0,0,0,0,0,0,0,836,837,0,0,0,0,0,0,0,0,0,0,0,0,0,0,0,
0,0,0,0,0,0,0,0,0,0,0,0,0,852,853,0,0,0,0,0,0,0,0,0,0,0,0,0,0,0,
0,0,0,0,0,0,0,0,0,0,0,0,0,0,0,0,0,0,0,0,0,0,0,0,0,0,0,0,0,0,
0,0,0,0,0,0,0,0,0,0,656,0,0,696,696,0,0,624,0,0,0,0,0,0,0,0,0,0,0,0,
0,0,0,0,0,0,0,0,0,0,0,0,0,0,0,0,0,0,0,0,0,0,0,0,0,0,0,0,0,0,
0,0,0,0,0,0,0,1863,1864,0,0,0,0,0,0,0,0,0,0,0,1861,1862,0,0,0,0,0,0,0,0,
0,0,0,0,0,0,0,1879,1880,0,0,0,0,0,0,0,0,0,0,0,1877,1878,0,0,0,0,0,0,0,0,
0,0,0,0,0,0,0,1469,1896,0,0,0,0,0,0,0,0,0,0,0,1893,1469,0,0,0,0,0,0,0,0,
0,0,0,0,0,0,0,1485,1864,0,0,0,0,0,0,0,0,0,0,0,1861,1485,0,0,0,0,0,0,0,0,
0,0,0,0,0,0,0,1879,1880,0,0,0,0,0,0,0,0,0,0,0,1877,1878,0,0,0,0,0,0,0,0,
0,0,0,0,0,0,0,1895,1896,0,0,0,0,943,944,0,0,0,0,0,1893,1894,0,0,0,0,0,0,0,0,
0,0,0,0,0,0,0,0,0,0,0,0,0,959,960,0,0,0,0,0,0,0,0,0,0,0,0,0,0,0,
0,0,0,0,0,0,0,0,0,0,0,0,0,0,0,0,0,0,0,0,0,0,0,0,0,0,0,0,0,0,
0,0,0,0,0,0,0,0,0,0,0,0,0,0,0,0,0,0,0,0,0,0,0,0,0,0,0,0,0,0,
0,0,0,0,0,0,0,0,0,0,0,0,0,0,0,0,0,0,0,0,0,0,0,0,0,0,0,0,0,0,
0,0,0,0,0,0,0,0,0,0,0,0,0,0,0,0,0,0,0,0,0,0,0,0,0,0,0,0,0,0,
0,0,0,0,0,0,0,0,0,0,0,0,0,0,0,0,0,0,0,0,0,0,0,0,0,0,0,0,0,0
</data>
 </layer>
</map>
