<?xml version="1.0" encoding="UTF-8"?>
<map version="1.10" tiledversion="1.11.2" orientation="orthogonal" renderorder="right-down" width="60" height="40" tilewidth="16" tileheight="16" infinite="0" nextlayerid="7" nextobjectid="1">
 <tileset firstgid="1" source="../tilesets/Tileset/Grass16.tsx"/>
 <tileset firstgid="78" source="../tilesets/Tileset/Tilled Dirt.tsx"/>
 <tileset firstgid="142" source="../tilesets/Tileset/atlas_16x.tsx"/>
 <tileset firstgid="910" source="../tilesets/Tileset/Interiors_free_16x16.tsx"/>
 <tileset firstgid="2334" source="../tilesets/Tileset/spr_tileset_sunnysideworld_16px.tsx"/>
 <tileset firstgid="6430" source="../tilesets/Tileset/TX Plant with Shadow.tsx"/>
 <tileset firstgid="7454" source="../tilesets/Tileset/TX Props with Shadow.tsx"/>
 <tileset firstgid="8478" source="../tilesets/Tileset/TX Tileset Grass.tsx"/>
 <layer id="1" name="Tile Layer 1" width="60" height="40" locked="1">
  <data encoding="csv">
8550,8551,8552,8553,8554,8555,8556,8557,8550,8551,8552,8553,8554,8555,8556,8557,8550,8551,8552,8553,8554,8555,8556,8557,8550,8551,8552,8553,8554,8555,8556,8557,8550,8551,8552,8553,8554,8555,8556,8557,8550,8551,8552,8553,8554,8555,8556,8557,8550,8551,8552,8553,8554,8555,8556,8557,8550,8551,8552,8553,
8566,8567,8568,8569,8570,8571,8572,8573,8566,8567,8568,8569,8570,8571,8572,8573,8566,8567,8568,8569,8570,8571,8572,8573,8566,8567,8568,8569,8570,8571,8572,8573,8566,8567,8568,8569,8570,8571,8572,8573,8566,8567,8568,8569,8570,8571,8572,8573,8566,8567,8568,8569,8570,8571,8572,8573,8566,8567,8568,8569,
8582,8583,8584,8585,8586,8587,8588,8589,8582,8583,8584,8585,8586,8587,8588,8589,8582,8583,8584,8585,8586,8587,8588,8589,8607,8607,8607,8607,8607,8607,8607,8607,8607,8583,8584,8585,8586,8587,8588,8589,8582,8583,8584,8585,8586,8587,8588,8589,8582,8583,8584,8585,8586,8587,8588,8589,8582,8583,8584,8585,
8598,8599,8600,8601,8602,8603,8604,8605,8598,8599,8600,8601,8602,8603,8604,8605,8598,8599,8600,8601,8602,8603,8607,8607,8607,8607,8607,8607,8607,8607,8607,8607,8607,8607,8607,8607,8607,8603,8604,8605,8598,8599,8600,8601,8602,8603,8604,8605,8598,8599,8600,8601,8602,8603,8604,8605,8598,8599,8600,8601,
8550,8551,8552,8553,8554,8555,8556,8557,8550,8551,8552,8553,8554,8555,8556,8557,8550,8551,8552,8553,8607,8607,8607,8607,8607,8607,8607,8607,8607,8607,8607,8607,8607,8607,8607,8607,8607,8607,8607,8607,8550,8551,8552,8553,8554,8555,8556,8557,8550,8551,8552,8553,8554,8555,8556,8557,8550,8551,8552,8553,
8566,8567,8568,8569,8570,8571,8572,8573,8566,8567,8568,8569,8570,8571,8572,8573,8566,8607,8607,8607,8607,8607,8607,8607,8607,8607,8607,8607,8607,8607,8607,8607,8607,8607,8607,8607,8607,8607,8607,8607,8607,8607,8607,8569,8570,8571,8572,8573,8566,8567,8568,8569,8570,8571,8572,8573,8566,8567,8568,8569,
8582,8583,8584,8585,8586,8587,8588,8589,8582,8583,8584,8585,8586,8587,8588,8607,8607,8607,8607,8607,8607,8607,8607,8607,8607,8607,8607,8607,8607,8607,8607,8607,8607,8607,8607,8607,8607,8607,8607,8607,8607,8607,8607,8607,8607,8607,8588,8589,8582,8583,8584,8585,8586,8587,8588,8589,8582,8583,8584,8585,
8598,8599,8600,8601,8602,8603,8604,8605,8598,8599,8600,8601,8602,8607,8607,8607,8607,8607,8607,8607,8607,8607,8607,8607,8607,8607,8607,8607,8607,8607,8607,8607,8607,8607,8607,8607,8607,8607,8607,8607,8607,8607,8607,8607,8607,8607,8607,8605,8598,8599,8600,8601,8602,8603,8604,8605,8598,8599,8600,8601,
8550,8551,8552,8553,8554,8555,8556,8557,8550,8551,8552,8553,8607,8607,8607,8607,8607,8607,8607,8607,8607,8607,8607,8607,8607,8607,8607,8607,8607,8607,8607,8607,8607,8607,8607,8607,8607,8607,8607,8607,8607,8607,8607,8607,8607,8607,8607,8607,8607,8607,8552,8553,8554,8555,8556,8557,8550,8551,8552,8553,
8566,8567,8568,8569,8570,8571,8572,8573,8566,8567,8568,8607,8607,8607,8607,8607,8607,8607,8607,8607,8607,8607,8607,8607,8607,8607,8607,8607,8607,8607,8607,8607,8607,8607,8607,8607,8607,8607,8607,8607,8607,8607,8607,8607,8607,8607,8607,8607,8607,8607,8607,8607,8570,8571,8572,8573,8566,8567,8568,8569,
8582,8583,8584,8585,8586,8587,8588,8589,8582,8607,8607,8607,8607,8607,8607,8607,8607,8607,8607,8607,8607,8607,8607,8607,8607,8607,8607,8607,8607,8607,8607,8607,8607,8607,8607,8607,8607,8607,8607,8607,8607,8607,8607,8607,8607,8607,8607,8607,8607,8607,8607,8607,8607,8587,8588,8589,8582,8583,8584,8585,
8598,8599,8600,8601,8602,8603,8604,8605,8598,8607,8607,8607,8607,8607,8607,8607,8607,8607,8607,8607,8607,8607,8607,8607,8607,8607,8607,8607,8607,8607,8607,8607,8607,8607,8607,8607,8607,8607,8607,8607,8607,8607,8607,8607,8607,8607,8607,8607,8607,8607,8607,8607,8607,8607,8604,8605,8598,8599,8600,8601,
8550,8551,8552,8553,8554,8555,8556,8557,8607,8607,8607,8607,8607,8607,8607,8607,8607,8607,8607,8607,8607,8607,8607,8607,8607,8607,8607,8607,8607,8607,8607,8607,8607,8607,8607,8607,8607,8607,8607,8607,8607,8607,8607,8607,8607,8607,8607,8607,8607,8607,8607,8607,8607,8607,8607,8557,8550,8551,8552,8553,
8566,8567,8568,8569,8570,8571,8572,8607,8607,8607,8607,8607,8607,8607,8607,8607,8607,8607,8607,8607,8607,8607,8607,8607,8607,8607,8607,8607,8607,8607,8607,8607,8607,8607,8607,8607,8607,8607,8607,8607,8607,8607,8607,8607,8607,8607,8607,8607,8607,8607,8607,8607,8607,8607,8607,8607,8566,8567,8568,8569,
8582,8583,8584,8585,8586,8587,8588,8607,8607,8607,8607,8607,8607,8607,8607,8607,8607,8607,8607,8607,8607,8607,8607,8607,8607,8607,8607,8607,8607,8607,8607,8607,8607,8607,8607,8607,8607,8607,8607,8607,8607,8607,8607,8607,8607,8607,8607,8607,8607,8607,8607,8607,8607,8607,8607,8607,8582,8583,8584,8585,
8598,8599,8600,8601,8602,8603,8607,8607,8607,8607,8607,8607,8607,8607,8607,8607,8607,8607,8607,8607,8607,8607,8607,8607,8607,8607,8607,8607,8607,8607,8607,8607,8607,8607,8607,8607,8607,8607,8607,8607,8607,8607,8607,8607,8607,8607,8607,8607,8607,8607,8607,8607,8607,8607,8607,8607,8607,8599,8600,8601,
8550,8551,8552,8553,8554,8555,8607,8607,8607,8607,8607,8607,8607,8607,8607,8607,8607,8607,8607,8607,8607,8607,8607,8607,8607,8607,8607,8607,8607,8607,8607,8607,8607,8607,8607,8607,8607,8607,8607,8607,8607,8607,8607,8607,8607,8607,8607,8607,8607,8607,8607,8607,8607,8607,8607,8607,8607,8607,8552,8553,
8566,8567,8568,8569,8570,8607,8607,8607,8607,8607,8607,8607,8607,8607,8607,8607,8607,8607,8607,8607,8607,8607,8607,8607,8607,8607,8607,8607,8607,8607,8607,8607,8607,8607,8607,8607,8607,8607,8607,8607,8607,8607,8607,8607,8607,8607,8607,8607,8607,8607,8607,8607,8607,8607,8607,8607,8607,8607,8607,8569,
8582,8583,8584,8585,8586,8607,8607,8607,8607,8607,8607,8607,8607,8607,8607,8607,8607,8607,8607,8607,8607,8607,8607,8607,8607,8607,8607,8607,8607,8607,8607,8607,8607,8607,8607,8607,8607,8607,8607,8607,8607,8607,8607,8607,8607,8607,8607,8607,8607,8607,8607,8607,8607,8607,8607,8607,8607,8607,8607,8585,
8598,8599,8600,8601,8607,8607,8607,8607,8607,8607,8607,8607,8607,8607,8607,8607,8607,8607,8607,8607,8607,8607,8607,8607,8607,8607,8607,8607,8607,8607,8607,8607,8607,8607,8607,8607,8607,8607,8607,8607,8607,8607,8607,8607,8607,8607,8607,8607,8607,8607,8607,8607,8607,8607,8607,8607,8607,8607,8607,8601,
8550,8551,8552,8553,8607,8607,8607,8607,8607,8607,8607,8607,8607,8607,8607,8607,8607,8607,8607,8607,8607,8607,8607,8607,8607,8607,8607,8607,8607,8607,8607,8607,8607,8607,8607,8607,8607,8607,8607,8607,8607,8607,8607,8607,8607,8607,8607,8607,8607,8607,8607,8607,8607,8607,8607,8607,8607,8607,8607,8553,
8566,8567,8568,8569,8607,8607,8607,8607,8607,8607,8607,8607,8607,8607,8607,8607,8607,8607,8607,8607,8607,8607,8607,8607,8607,8607,8607,8607,8607,8607,8607,8607,8607,8607,8607,8607,8607,8607,8607,8607,8607,8607,8607,8607,8607,8607,8607,8607,8607,8607,8607,8607,8607,8607,8607,8607,8607,8607,8607,8569,
8582,8583,8584,8585,8607,8607,8607,8607,8607,8607,8607,8607,8607,8607,8607,8607,8607,8607,8607,8607,8607,8607,8607,8607,8607,8607,8607,8607,8607,8607,8607,8607,8607,8607,8607,8607,8607,8607,8607,8607,8607,8607,8607,8607,8607,8607,8607,8607,8607,8607,8607,8607,8607,8607,8607,8607,8607,8607,8607,8585,
8598,8599,8600,8601,8607,8607,8607,8607,8607,8607,8607,8607,8607,8607,8607,8607,8607,8607,8607,8607,8607,8607,8607,8607,8607,8607,8607,8607,8607,8607,8607,8607,8607,8607,8607,8607,8607,8607,8607,8607,8607,8607,8607,8607,8607,8607,8607,8607,8607,8607,8607,8607,8607,8607,8607,8607,8607,8607,8607,8601,
8550,8551,8552,8553,8607,8607,8607,8607,8607,8607,8607,8607,8607,8607,8607,8607,8607,8607,8607,8607,8607,8607,8607,8607,8607,8607,8607,8607,8607,8607,8607,8607,8607,8607,8607,8607,8607,8607,8607,8607,8607,8607,8607,8607,8607,8607,8607,8607,8607,8607,8607,8607,8607,8607,8607,8607,8607,8607,8607,8553,
8566,8567,8568,8569,8607,8607,8607,8607,8607,8607,8607,8607,8607,8607,8607,8607,8607,8607,8607,8607,8607,8607,8607,8607,8607,8607,8607,8607,8607,8607,8607,8607,8607,8607,8607,8607,8607,8607,8607,8607,8607,8607,8607,8607,8607,8607,8607,8607,8607,8607,8607,8607,8607,8607,8607,8607,8606,8606,8607,8569,
8582,8583,8584,8585,8586,8607,8607,8607,8607,8607,8607,8607,8607,8607,8607,8607,8607,8607,8607,8607,8607,8607,8607,8607,8607,8607,8607,8607,8607,8607,8607,8607,8607,8607,8607,8607,8607,8607,8607,8607,8607,8607,8607,8607,8607,8607,8607,8607,8607,8607,8607,8607,8607,8607,8607,8606,8606,8606,8584,8585,
8598,8599,8600,8601,8602,8607,8607,8607,8607,8607,8607,8607,8607,8607,8607,8607,8607,8607,8607,8607,8607,8607,8607,8607,8607,8607,8607,8607,8607,8607,8607,8607,8607,8607,8607,8607,8607,8607,8607,8607,8607,8607,8607,8607,8607,8607,8607,8607,8607,8607,8607,8607,8607,8607,8606,8606,8606,8606,8600,8601,
8550,8551,8552,8553,8554,8607,8607,8607,8607,8607,8607,8607,8607,8607,8607,8607,8607,8607,8607,8607,8607,8607,8607,8607,8607,8607,8607,8607,8607,8607,8607,8607,8607,8607,8607,8607,8607,8607,8607,8607,8607,8607,8607,8607,8607,8607,8607,8607,8607,8607,8607,8607,8607,8606,8606,8606,8606,8551,8552,8553,
8566,8567,8568,8569,8570,8571,8607,8607,8607,8607,8607,8607,8607,8607,8607,8607,8607,8607,8607,8607,8607,8607,8607,8607,8607,8607,8607,8607,8607,8607,8607,8607,8607,8607,8607,8607,8607,8607,8607,8607,8607,8607,8607,8607,8607,8607,8607,8607,8607,8607,8607,8607,8606,8606,8606,8606,8566,8567,8568,8569,
8582,8583,8584,8585,8586,8587,8588,8607,8607,8607,8607,8607,8607,8607,8607,8607,8607,8607,8607,8607,8607,8607,8607,8607,8607,8607,8607,8607,8607,8607,8607,8607,8607,8607,8607,8607,8607,8607,8607,8607,8607,8607,8607,8607,8607,8607,8607,8607,8607,8607,8607,8606,8606,8606,8606,8589,8582,8583,8584,8585,
8598,8599,8600,8601,8602,8603,8604,8605,8607,8607,8607,8607,8607,8607,8607,8607,8607,8607,8607,8607,8607,8607,8607,8607,8607,8607,8607,8607,8607,8607,8607,8607,8607,8607,8607,8607,8607,8607,8607,8607,8607,8607,8607,8607,8607,8607,8607,8607,8607,8607,8607,8606,8606,8606,8606,8605,8598,8599,8600,8601,
8550,8551,8552,8553,8554,8555,8556,8557,8550,8607,8607,8607,8607,8607,8607,8607,8607,8607,8607,8607,8607,8607,8607,8607,8607,8607,8607,8607,8607,8607,8607,8607,8607,8607,8607,8607,8607,8607,8607,8607,8607,8607,8607,8607,8607,8607,8607,8607,8606,8606,8606,8606,8606,8555,8556,8557,8550,8551,8552,8553,
8566,8567,8568,8569,8570,8571,8572,8573,8566,8567,8568,8607,8607,8607,8607,8607,8607,8607,8607,8607,8607,8607,8607,8607,8607,8607,8607,8607,8607,8607,8607,8607,8607,8607,8607,8607,8607,8607,8607,8607,8607,8607,8607,8607,8607,8607,8607,8607,8606,8606,8606,8606,8570,8571,8572,8573,8566,8567,8568,8569,
8582,8583,8584,8585,8586,8587,8588,8589,8582,8583,8584,8585,8607,8607,8607,8607,8607,8607,8607,8607,8607,8607,8607,8607,8607,8607,8607,8607,8607,8607,8607,8607,8607,8607,8607,8607,8607,8607,8607,8607,8607,8607,8607,8607,8607,8607,8607,8606,8606,8606,8606,8585,8586,8587,8588,8589,8582,8583,8584,8585,
8598,8599,8600,8601,8602,8603,8604,8605,8598,8599,8600,8601,8602,8603,8607,8607,8607,8607,8607,8607,8607,8607,8607,8607,8607,8607,8607,8607,8607,8607,8607,8607,8607,8607,8607,8607,8607,8607,8607,8607,8607,8607,8607,8607,8607,8606,8606,8606,8606,8606,8600,8601,8602,8603,8604,8605,8598,8599,8600,8601,
8550,8551,8552,8553,8554,8555,8556,8557,8550,8551,8552,8553,8554,8555,8556,8557,8607,8607,8607,8607,8607,8607,8607,8607,8607,8607,8607,8607,8607,8607,8607,8607,8607,8607,8607,8607,8607,8607,8607,8607,8607,8607,8607,8607,8607,8606,8606,8606,8550,8551,8552,8553,8554,8555,8556,8557,8550,8551,8552,8553,
8566,8567,8568,8569,8570,8571,8572,8573,8566,8567,8568,8569,8570,8571,8572,8573,8566,8567,8607,8607,8607,8607,8607,8607,8607,8607,8607,8607,8607,8607,8607,8607,8607,8607,8607,8607,8607,8607,8607,8607,8607,8607,8607,8606,8606,8606,8606,8573,8566,8567,8568,8569,8570,8571,8572,8573,8566,8567,8568,8569,
8582,8583,8584,8585,8586,8587,8588,8589,8582,8583,8584,8585,8586,8587,8588,8589,8582,8583,8584,8585,8607,8607,8607,8607,8607,8607,8607,8607,8607,8607,8607,8607,8607,8607,8607,8607,8607,8607,8607,8607,8607,8606,8606,8606,8586,8587,8588,8589,8582,8583,8584,8585,8586,8587,8588,8589,8582,8583,8584,8585,
8598,8599,8600,8601,8602,8603,8604,8605,8598,8599,8600,8601,8602,8603,8604,8605,8598,8599,8600,8601,8602,8603,8604,8605,8598,8599,8600,8601,8602,8603,8604,8605,8598,8599,8600,8601,8602,8603,8604,8605,8598,8599,8600,8601,8602,8603,8604,8605,8598,8599,8600,8601,8602,8603,8604,8605,8598,8599,8600,8601
</data>
 </layer>
 <layer id="6" name="Colisiones" width="60" height="40" locked="1">
  <data encoding="csv">
92,92,92,92,92,92,0,92,92,0,0,0,92,92,92,92,92,92,92,92,92,92,92,92,92,92,0,0,92,92,92,0,0,92,92,92,92,92,92,92,92,92,92,92,92,92,92,92,92,92,92,92,92,0,0,0,0,0,0,0,
92,92,92,92,92,0,92,92,92,92,0,0,92,92,92,92,92,92,92,92,92,92,92,92,92,92,0,0,92,92,92,92,92,92,92,0,92,92,0,92,92,92,92,92,92,92,92,92,92,92,92,92,92,0,92,92,92,0,0,0,
0,0,92,92,0,92,92,92,92,92,92,92,92,92,92,92,92,92,92,92,92,92,92,0,0,0,0,0,0,92,92,92,92,0,0,0,92,92,0,92,92,92,92,92,92,92,92,92,92,92,92,92,0,92,92,92,92,92,92,0,
0,0,92,92,0,92,92,92,92,92,92,92,92,92,0,0,92,92,92,92,92,92,0,0,0,0,0,0,0,92,92,92,92,0,0,0,0,0,0,92,92,92,92,92,92,92,92,92,92,92,92,92,0,92,92,92,92,92,92,0,
92,92,0,0,0,92,92,92,92,92,92,92,92,92,0,0,92,92,0,92,92,0,0,0,0,0,0,0,0,92,92,92,92,0,0,0,0,0,0,0,0,92,92,92,92,92,92,92,92,92,0,0,92,92,92,92,92,92,92,92,
92,92,0,92,92,92,92,92,92,92,92,92,92,92,0,92,92,92,0,92,92,0,0,0,0,0,0,0,0,92,92,0,0,0,0,0,0,0,0,0,0,92,92,92,92,0,92,92,92,0,0,0,92,92,92,92,92,92,92,92,
92,92,92,92,0,92,0,92,92,0,92,92,92,92,0,92,92,92,0,0,0,0,0,0,0,0,0,0,92,92,92,92,0,0,0,0,0,0,0,0,0,0,0,92,92,0,92,92,92,92,92,0,0,92,92,92,92,92,92,0,
0,92,92,92,92,92,92,92,92,0,92,92,92,92,0,92,92,92,0,0,0,0,0,0,0,0,0,0,92,92,92,92,0,0,0,0,0,0,0,0,0,0,0,0,0,0,92,92,0,92,92,0,0,0,0,92,92,92,0,0,
0,92,92,92,92,92,92,92,92,0,0,92,92,92,0,92,0,0,0,0,0,0,0,0,0,0,0,92,92,92,92,92,92,0,0,0,0,0,0,0,0,0,0,0,0,0,0,0,0,92,92,0,92,92,0,92,92,0,0,0,
0,92,92,92,92,92,92,0,0,0,92,92,92,92,0,0,0,0,0,0,0,0,0,0,0,0,0,92,92,92,92,92,92,0,0,0,0,0,0,0,0,0,0,0,0,0,0,0,0,92,92,0,92,92,0,92,92,0,92,92,
92,92,92,92,92,92,92,0,0,0,92,92,92,92,0,0,0,0,0,0,0,0,0,0,0,0,0,92,92,92,92,92,92,0,0,0,0,0,0,0,0,0,0,0,0,0,0,0,0,0,0,0,92,92,92,92,0,92,92,92,
92,92,92,92,92,92,0,0,92,92,92,92,0,0,0,0,0,0,0,0,0,0,0,0,0,0,0,92,92,92,92,92,92,0,0,0,0,0,0,0,0,0,0,0,0,0,0,0,0,0,0,0,92,92,92,92,0,92,92,92,
92,92,0,92,92,0,0,0,92,92,92,92,0,0,0,0,0,0,0,0,0,0,0,0,0,0,0,0,0,92,92,0,0,0,0,0,0,0,0,0,0,0,0,0,0,0,0,0,0,0,0,0,0,0,92,92,0,92,92,92,
92,0,0,92,92,0,0,0,92,92,0,0,0,0,0,0,0,0,0,0,0,0,0,0,0,0,0,0,0,0,0,0,0,0,0,0,0,0,0,0,0,0,0,0,0,0,0,0,0,0,0,0,0,0,92,92,0,92,92,92,
92,92,0,0,0,0,0,0,92,92,0,0,0,0,0,0,0,0,0,0,0,0,0,0,0,0,0,0,0,0,0,0,0,0,0,0,0,0,0,0,0,0,0,0,0,0,0,0,0,0,0,0,0,0,92,92,0,92,92,92,
92,92,0,0,0,0,92,92,92,92,0,0,0,0,0,0,0,0,0,0,0,0,0,0,0,0,0,0,0,0,0,0,0,0,0,0,0,0,0,0,0,0,0,0,0,0,0,0,0,0,0,0,0,0,0,0,0,0,92,92,
92,92,0,0,0,0,92,92,0,0,0,0,0,0,0,0,0,0,0,0,0,0,0,0,0,0,0,0,0,0,0,0,0,0,0,0,0,0,0,0,0,0,0,0,0,0,0,0,0,0,0,0,0,0,0,0,0,0,92,92,
92,92,0,0,0,0,92,92,0,0,0,0,0,0,0,0,0,0,0,0,0,0,0,0,0,0,0,0,0,0,0,0,0,0,0,0,0,0,0,0,0,0,0,0,0,0,0,0,0,0,0,0,0,0,0,0,0,0,0,0,
92,0,0,0,92,92,0,0,0,0,0,0,0,0,0,0,0,0,0,0,0,0,0,0,0,0,0,0,0,0,0,0,0,0,0,0,0,0,0,0,0,0,0,0,0,0,0,0,0,0,0,0,0,0,0,0,92,92,0,0,
92,0,0,0,92,92,92,92,0,0,0,0,0,0,0,0,0,0,0,0,0,0,0,0,0,0,0,0,0,0,0,0,0,0,0,0,0,0,0,0,0,0,0,0,0,0,0,0,0,0,0,0,0,0,0,0,92,92,0,0,
92,0,0,0,92,92,92,92,0,0,0,0,0,0,0,0,0,0,0,0,0,0,0,0,0,0,0,0,0,0,0,0,0,0,0,0,0,0,0,0,0,0,0,0,0,0,0,0,0,0,0,0,0,0,0,92,92,92,0,0,
0,0,0,0,92,92,92,92,0,0,0,0,0,0,0,0,0,0,0,0,0,0,0,0,0,0,0,0,0,0,0,0,0,0,0,0,0,0,0,0,0,0,0,0,0,0,0,0,0,0,0,0,0,0,92,92,92,92,0,0,
0,0,0,0,92,92,92,92,0,0,0,0,0,0,0,0,0,0,0,0,0,0,0,0,0,0,0,0,0,0,0,0,0,0,0,0,0,0,0,0,0,0,0,0,0,0,0,0,0,0,0,0,0,0,92,92,92,92,0,0,
0,0,0,0,92,92,0,0,0,0,0,0,0,0,0,0,0,0,0,0,0,0,0,0,0,0,0,0,0,0,0,0,0,0,0,0,0,0,0,0,0,0,0,0,0,0,0,0,0,0,0,0,0,0,92,92,0,92,0,0,
0,0,0,0,92,92,0,0,0,0,0,0,0,0,0,0,0,0,0,0,0,0,0,0,0,0,0,0,0,0,0,0,0,0,0,0,0,0,0,0,0,0,0,0,0,0,0,0,0,0,0,0,0,0,0,0,92,92,0,0,
0,0,0,0,0,92,92,0,0,0,0,0,0,0,0,0,0,0,0,0,0,0,0,0,0,0,0,0,0,0,0,0,0,0,0,0,0,0,0,0,0,0,0,0,0,0,0,0,0,0,0,0,0,0,0,0,0,0,0,0,
0,0,0,0,0,92,92,0,0,0,0,0,0,0,0,0,0,0,0,0,0,0,0,0,0,0,0,0,0,0,0,0,0,0,0,0,0,0,0,0,0,0,0,0,0,0,0,0,0,0,0,0,0,0,0,0,0,0,0,0,
0,0,0,0,0,92,92,0,0,0,0,0,0,0,0,0,0,0,0,0,0,0,0,0,0,0,0,0,0,0,0,0,0,0,0,0,0,0,0,0,0,0,0,0,0,0,0,0,0,0,0,0,0,0,0,0,92,92,0,0,
0,0,0,0,0,92,0,0,0,0,0,0,0,0,0,0,0,0,0,0,0,0,0,0,0,0,0,0,0,0,0,0,0,0,0,0,0,0,0,0,0,0,0,0,0,0,0,0,0,0,0,0,0,0,0,0,92,92,0,0,
0,0,0,0,0,0,92,92,92,92,0,0,0,0,0,0,0,0,0,0,0,0,0,0,0,0,0,0,0,0,0,0,0,0,0,0,0,0,0,0,0,0,0,0,0,0,0,0,0,0,0,0,0,0,0,0,0,0,0,0,
0,0,0,0,0,0,92,92,92,92,0,0,0,0,0,0,0,0,0,0,0,0,0,0,0,0,0,0,0,0,0,0,0,0,0,0,0,0,0,0,0,0,0,0,0,0,0,0,0,0,0,0,0,0,0,0,0,0,0,0,
0,0,0,0,0,0,0,92,92,92,0,0,0,0,0,0,0,0,0,0,0,0,0,0,0,0,0,0,0,0,0,0,0,0,0,0,0,0,0,0,0,0,0,0,0,0,0,0,0,0,0,0,0,0,0,0,0,0,0,0,
0,0,0,0,92,92,0,0,0,0,0,0,0,0,0,0,0,0,0,0,0,0,0,0,0,0,0,0,0,0,0,0,0,0,0,0,0,0,0,0,0,0,0,0,0,0,0,0,0,0,0,0,0,0,0,0,0,0,0,0,
0,0,0,0,92,92,0,0,0,0,0,0,0,0,0,0,0,0,0,0,0,0,0,0,0,0,0,0,0,0,0,0,0,0,0,0,0,0,0,0,0,0,0,0,0,0,0,0,0,0,92,92,0,0,92,92,0,0,0,0,
0,0,0,0,92,92,0,0,0,0,0,0,0,0,0,0,0,0,0,0,0,0,0,0,0,0,0,0,0,0,0,0,0,0,0,0,0,0,0,0,0,0,0,0,0,0,0,0,0,0,92,92,0,0,92,92,0,0,0,0,
0,0,0,0,0,0,0,0,0,0,0,0,0,0,0,0,0,0,0,0,0,92,92,92,92,0,0,0,0,0,0,0,0,0,92,92,92,92,0,0,0,0,0,0,0,0,0,0,0,0,92,0,0,0,92,92,0,0,0,0,
0,0,0,0,0,0,0,0,0,0,0,0,0,0,0,0,0,0,0,92,92,92,92,92,92,0,0,0,0,0,0,0,0,0,92,92,92,92,92,92,0,0,0,0,0,0,0,0,0,0,0,0,0,0,0,0,0,0,0,0,
0,0,0,0,0,0,0,0,0,0,0,0,0,0,0,0,0,0,0,92,92,92,92,92,92,92,92,0,0,0,0,0,92,92,92,92,92,92,92,92,0,0,0,0,0,0,0,0,0,0,0,0,0,0,0,0,0,92,92,0,
0,0,0,0,0,0,0,0,0,0,0,0,0,0,0,0,0,0,0,92,92,0,92,92,92,92,92,0,0,0,0,0,92,92,0,92,92,92,92,92,0,0,0,0,0,0,0,0,0,0,0,0,0,0,0,0,0,92,92,0,
0,0,0,0,0,0,0,0,0,0,0,0,0,0,0,0,0,0,0,0,0,0,0,0,0,0,0,0,0,0,0,0,0,0,0,0,0,0,0,0,0,0,0,0,0,0,0,0,0,0,0,0,0,0,0,0,0,0,0,0
</data>
 </layer>
 <layer id="2" name="u" width="60" height="40" locked="1">
  <data encoding="csv">
0,0,0,0,0,6472,6473,6474,6475,6476,6704,6705,6706,6707,6708,6709,6559,6560,6561,6562,6563,6564,6565,6566,0,0,0,0,0,0,0,0,0,0,0,0,0,0,0,6576,6577,6578,6579,6580,6581,0,0,0,0,0,0,6430,6431,6432,6433,6434,6435,6436,6437,6438,
0,0,0,0,0,6504,6505,6506,6507,6508,6736,6737,6738,6739,6740,6741,6591,6592,6593,6594,6595,6596,6597,6598,0,0,0,0,0,0,0,0,0,0,0,0,0,0,0,6608,6609,6610,6611,6612,6613,0,0,0,0,0,0,6462,6463,6464,6465,6466,6467,6468,6469,6470,
0,0,0,0,0,6536,6537,6538,6539,6540,6541,6542,0,0,0,0,6623,6624,6625,6626,6627,6628,6629,6630,0,0,0,0,0,0,0,0,0,0,0,0,0,0,0,6640,6641,6642,6643,6644,6645,0,0,0,0,6480,6481,6494,6495,6496,6497,6498,6499,6500,6501,6502,
0,0,0,0,0,6568,6569,6570,6571,6572,6573,6574,0,0,0,0,6655,6656,6657,6658,6659,6660,6661,6662,0,0,0,0,0,0,0,0,0,0,0,0,0,0,0,6672,6673,6674,6675,6676,6677,0,0,0,0,6512,0,6526,6527,6528,6529,6530,6531,6532,6533,6534,
0,0,0,0,0,6600,6601,6602,6603,6604,6605,6606,0,7627,7628,7629,6687,6688,6689,6690,6691,6692,6693,6694,0,0,0,0,0,0,0,0,0,0,0,0,0,0,0,6704,6705,6706,6707,6708,6709,0,0,0,0,6544,0,6558,6559,6560,6561,6562,6563,6564,6565,6566,
0,0,0,0,0,6632,6633,6634,6635,6636,6637,6638,0,7659,7660,7661,6719,6720,6721,6722,6723,6724,6725,6726,0,0,0,0,0,0,0,0,0,0,0,0,0,0,0,6736,6737,6738,6739,6740,6741,0,0,0,0,0,0,6590,6591,6592,6593,6594,6595,6596,6597,6598,
0,0,0,0,0,6664,6665,6666,6667,6668,6669,6670,0,7691,7692,7693,6751,6752,6753,6754,6755,6756,6757,6758,0,0,0,0,0,0,0,0,0,0,0,0,0,0,0,0,0,0,0,0,0,0,0,0,0,0,0,6622,6623,6624,6625,6626,6627,6628,6629,6630,
0,0,0,0,0,6696,6697,6698,6699,6700,6701,6702,0,7723,7724,7725,0,0,0,0,0,0,0,0,0,0,0,0,0,0,0,0,0,0,0,0,0,0,0,0,0,0,0,0,0,0,0,0,0,0,0,6654,6655,6656,6657,6658,6659,6660,6661,6662,
0,0,0,0,0,6728,6729,6730,6731,6732,6733,6734,0,7755,7756,7757,0,0,0,0,0,0,0,0,0,0,0,0,0,0,0,0,0,0,0,0,0,0,0,0,0,0,0,0,0,0,0,0,0,6672,0,6686,6687,6688,6689,6690,6691,6692,6693,6694,
0,0,0,0,0,0,0,0,0,0,0,0,0,0,0,0,0,0,0,0,0,0,0,0,0,0,0,0,0,0,0,0,0,0,0,0,0,0,0,0,0,0,0,0,0,0,0,0,0,6704,6705,6718,6719,6720,6721,6722,6723,6473,6474,6475,
0,0,0,0,0,0,0,0,0,0,0,0,0,0,0,0,0,0,0,0,0,0,0,0,0,0,0,0,0,0,0,0,0,0,0,0,0,0,0,0,0,0,0,0,0,0,0,0,0,6736,6737,0,0,6740,6741,6754,6504,6505,6506,6507,
0,0,0,0,0,0,0,0,0,0,0,0,0,0,0,0,0,0,0,0,0,0,0,0,0,0,0,0,0,0,0,0,0,0,0,0,0,0,0,0,0,0,0,0,0,0,0,0,0,0,0,0,0,0,0,0,6536,6537,6578,6579,
6483,6484,6485,0,0,0,0,0,0,0,0,0,0,0,0,0,0,0,0,0,0,0,0,0,0,0,0,0,0,0,0,0,0,0,0,0,0,0,0,0,0,0,0,0,0,0,0,0,0,0,0,0,0,0,0,0,6608,6609,6610,6611,
6515,6516,6517,0,0,0,0,0,0,0,0,0,0,0,0,0,0,0,0,0,0,0,0,0,0,0,0,0,0,0,0,0,0,0,0,0,0,0,0,0,0,0,0,0,0,0,0,0,0,0,0,0,0,0,0,0,6640,6641,6642,6643,
6547,6548,6791,6792,6793,6794,0,0,0,0,0,0,0,0,0,0,0,0,0,0,0,0,0,0,0,0,0,0,0,0,0,0,0,0,0,0,0,0,0,0,0,0,0,0,0,0,0,0,0,0,0,0,0,0,0,0,6672,6673,6674,6675,
6579,6580,6823,6824,6825,6826,0,0,0,0,0,0,0,0,0,0,0,0,0,0,0,0,0,0,0,0,0,0,0,0,0,0,0,0,0,0,0,0,0,0,0,0,0,0,0,0,0,0,0,0,0,0,0,0,0,0,6704,6705,6706,6707,
6611,6612,6855,6856,6857,6858,0,0,0,0,0,0,0,0,0,0,0,0,0,0,0,0,0,0,0,0,0,0,0,0,0,0,0,0,0,0,0,0,0,0,0,0,0,0,0,0,0,0,0,0,0,0,0,0,0,0,6736,6737,6738,6739,
6643,6644,6887,6888,6889,6890,0,0,0,0,0,0,0,0,0,0,0,0,0,0,0,0,0,0,0,0,0,0,0,0,0,0,0,0,0,0,0,0,0,0,0,0,0,0,0,0,0,0,0,0,0,0,0,0,0,0,0,0,0,0,
6675,6676,6677,0,0,0,0,0,0,0,0,0,0,0,0,0,0,0,0,0,0,0,0,0,0,0,0,0,0,0,0,0,0,0,0,0,0,0,0,0,0,0,0,0,0,0,0,0,0,0,0,0,0,0,0,0,0,0,0,0,
6707,6708,6709,0,0,0,0,0,0,0,0,0,0,0,0,0,0,0,0,0,0,0,0,0,0,0,0,0,0,0,0,0,0,0,0,0,0,0,0,0,0,0,0,0,0,0,0,0,0,0,0,0,0,0,0,0,0,0,0,0,
6739,6740,6741,0,0,0,0,0,0,0,0,0,0,0,0,0,0,0,0,0,0,0,0,0,0,0,0,0,0,0,0,0,0,0,0,0,0,0,0,0,0,0,0,0,0,0,0,0,0,0,0,0,0,0,0,0,0,0,0,0,
0,0,0,0,0,0,0,0,0,0,0,0,0,0,0,0,0,0,0,0,0,0,0,0,0,0,0,0,0,0,0,0,0,0,0,0,0,0,0,0,0,0,0,0,0,0,0,0,0,0,0,0,0,0,0,0,0,0,0,0,
0,0,0,0,0,0,0,0,0,0,0,0,0,0,0,0,0,0,0,0,0,0,0,0,0,0,0,0,0,0,0,0,0,0,0,0,0,0,0,0,0,0,0,0,0,0,0,0,0,0,0,0,0,0,0,0,0,0,0,0,
0,0,0,0,0,0,0,0,0,0,0,0,0,0,0,0,0,0,0,0,0,0,0,0,0,0,0,0,0,0,0,0,0,0,0,0,0,0,0,0,0,0,0,0,0,0,0,0,0,0,0,0,0,0,0,0,0,0,0,0,
0,6791,6792,6793,6794,0,0,0,0,0,0,0,0,0,0,0,0,0,0,0,0,0,0,0,0,0,0,0,0,0,0,0,0,0,0,0,0,0,0,0,0,0,0,0,0,0,0,0,0,0,0,0,0,0,0,0,0,0,0,0,
6793,6794,6824,6825,6826,0,0,0,0,0,0,0,0,0,0,0,0,0,0,0,0,0,0,0,0,0,0,0,0,0,0,0,0,0,0,0,0,0,0,0,0,0,0,0,0,0,0,0,0,0,0,0,0,0,0,0,0,0,0,0,
6825,6826,6856,6857,6858,0,0,0,0,0,0,0,0,0,0,0,0,0,0,0,0,0,0,0,0,0,0,0,0,0,0,0,0,0,0,0,0,0,0,0,0,0,0,0,0,0,0,0,0,0,0,0,0,0,0,0,0,0,0,0,
6857,6858,6888,6889,6890,0,0,0,0,0,0,0,0,0,0,0,0,0,0,0,0,0,0,0,0,0,0,0,0,0,0,0,0,0,0,0,0,0,0,0,0,0,0,0,0,0,0,0,0,0,0,0,0,0,0,0,0,0,0,0,
6889,6890,0,0,0,0,0,0,0,0,0,0,0,0,0,0,0,0,0,0,0,0,0,0,0,0,0,0,0,0,0,0,0,0,0,0,0,0,0,0,0,0,0,0,0,0,0,0,0,0,0,0,0,0,0,0,0,0,0,0,
0,0,0,0,0,0,0,0,0,0,0,0,0,0,0,0,0,0,0,0,0,0,0,0,0,0,0,0,0,0,0,0,0,0,0,0,0,0,0,0,0,0,0,0,0,0,0,0,0,0,0,0,0,0,0,0,0,0,0,0,
0,0,0,0,0,0,0,0,0,0,0,0,0,0,0,0,0,0,0,0,0,0,0,0,0,0,0,0,0,0,0,0,0,0,0,0,0,0,0,0,0,0,0,0,0,0,0,0,0,0,0,0,0,0,0,0,0,0,0,0,
6791,6792,6793,6794,0,0,0,0,0,0,0,0,0,0,0,0,0,0,0,0,0,0,0,0,0,0,0,0,0,0,0,0,0,0,0,0,0,0,0,0,0,0,0,0,0,0,0,0,0,0,0,0,0,0,0,0,0,0,0,0,
6823,6824,6825,6826,0,0,0,6791,6792,6793,6794,0,0,0,0,0,0,0,0,0,0,0,0,0,0,0,0,0,0,0,0,0,0,0,0,0,0,0,0,0,0,0,0,0,0,0,0,0,0,0,0,0,0,0,0,0,6795,6796,6797,6798,
6855,6856,6857,6858,6793,6794,0,6823,6824,6825,6826,0,0,0,0,0,0,0,0,0,0,0,0,0,0,0,0,0,0,0,0,0,0,0,0,0,0,0,0,0,0,0,0,0,0,0,0,0,0,0,0,0,0,0,0,0,6827,6828,6829,6830,
6887,6888,6889,6890,6825,6826,0,6855,6856,6857,6858,0,0,0,0,0,0,0,0,0,0,0,0,0,0,0,0,0,0,0,0,0,0,0,0,0,0,0,0,0,0,0,0,0,0,0,0,0,0,0,6791,6792,6793,6794,0,0,6859,6860,6861,6862,
0,0,6855,6856,6857,6858,0,6887,6888,6889,6890,0,0,0,0,0,0,0,0,0,0,0,0,0,0,0,0,0,0,0,0,0,0,0,0,0,0,0,0,0,0,0,0,0,0,0,0,0,0,0,6823,6824,6825,6826,0,0,6891,6892,6893,6894,
0,0,6887,6888,6889,6890,0,0,0,0,0,0,0,0,0,0,0,0,0,0,0,0,0,0,0,0,0,0,0,0,0,0,0,0,0,0,0,0,0,0,0,0,0,6791,6792,6793,6794,0,0,0,6855,6799,6800,6801,6802,0,0,0,0,0,
0,0,0,0,0,0,0,0,0,0,0,0,0,0,0,0,0,0,0,0,0,0,0,0,0,0,0,0,0,0,0,0,0,0,0,0,0,0,0,0,0,0,0,6823,6824,6825,6826,0,0,0,6887,6831,6832,6833,6834,0,0,0,0,0,
0,0,0,0,0,0,0,0,0,0,0,0,0,0,0,0,0,0,0,0,0,0,0,0,0,0,0,0,0,0,0,0,0,0,0,0,0,0,0,0,0,0,0,6855,6856,6857,6858,0,0,0,0,6863,6864,6865,6866,0,0,0,0,0,
0,0,0,0,0,0,0,0,0,0,0,0,0,0,0,0,0,0,0,0,0,0,0,0,0,0,0,0,0,0,0,0,0,0,0,0,0,0,0,0,0,0,0,6887,6888,6889,6890,0,0,0,0,6895,6896,6897,6898,0,0,0,0,0
</data>
 </layer>
 <layer id="3" name="k" width="60" height="40" locked="1">
  <data encoding="csv">
6592,6593,6594,6595,6596,6597,6598,0,0,0,0,0,0,0,0,0,0,0,0,0,0,0,0,0,0,6687,6688,6689,6690,6691,6692,6693,6694,6655,6656,6657,6658,6659,6660,6661,6662,0,0,0,6527,6528,6529,6530,6531,6532,6533,6534,0,0,0,0,0,0,0,0,
6624,6625,6626,6627,6628,6629,6630,0,0,6431,6432,6433,6434,6435,6436,6437,6438,0,0,0,0,0,0,0,0,6719,6720,6721,6722,6723,6724,6725,6726,6687,6688,6689,6690,6691,6692,6693,6694,0,0,0,6559,6560,6561,6562,6563,6564,6565,6566,0,0,0,0,0,0,0,0,
6656,6657,6658,6659,6660,6661,6662,0,0,6463,6464,6465,6466,6467,6468,6469,6470,0,0,0,0,0,0,0,0,6751,6752,6753,6754,6755,6756,6757,6758,6719,6720,6721,6722,6723,6724,6725,6726,0,0,0,6591,6592,6593,6594,6595,6596,6597,6598,0,0,0,0,0,0,0,0,
6688,6689,6690,6691,6692,6693,6694,0,0,6495,6496,6497,6498,6499,6500,6501,6502,0,0,0,0,0,0,0,0,0,0,0,0,0,0,0,0,6751,6752,6753,6754,6755,6756,6757,6758,0,0,0,6623,6624,6625,6626,6627,6628,6629,6630,6655,0,0,0,0,0,0,0,
6431,6432,6433,6434,6435,6436,6437,6438,0,6527,6528,6529,6530,6531,6532,6533,6534,0,0,0,0,0,0,0,0,0,0,0,0,0,0,0,0,0,0,0,0,0,0,0,0,0,0,0,6655,6656,6657,6658,6659,6660,6661,6662,6687,6688,0,0,0,0,0,6694,
6463,6464,6465,6466,6467,6468,6469,6470,0,6559,6560,6561,6562,6563,6564,6565,6566,0,0,0,0,0,0,0,0,0,0,0,0,0,0,0,0,0,0,0,0,0,0,0,0,0,0,0,6687,6688,6689,6690,6691,6692,6693,6694,6719,6720,0,0,0,0,6725,6726,
6495,6496,6497,6498,6499,6500,6501,6502,0,6591,6592,6593,6594,6595,6596,6597,6598,0,0,0,0,0,0,0,0,0,0,0,0,0,0,0,0,0,0,0,0,0,0,0,0,0,0,0,6719,6720,6721,6722,6723,6724,6725,6726,6751,6752,6753,6754,6755,6756,6757,6758,
6527,6528,6529,6530,6531,6532,6533,6534,0,6623,6624,6625,6626,6627,6628,6629,6630,0,0,0,0,0,0,0,0,0,0,0,0,0,0,0,0,0,0,0,0,0,0,0,0,0,0,0,6751,6752,6753,6754,6755,6756,6757,6758,0,0,0,0,0,0,0,0,
6559,6560,6561,6562,6563,6564,6565,6566,0,6655,6656,6657,6658,6659,6660,6661,6662,0,0,0,0,0,0,0,0,0,0,0,0,0,0,0,0,0,0,0,0,0,0,0,0,0,0,0,0,0,0,0,0,0,0,0,0,0,0,0,0,0,0,0,
6591,6592,6593,6594,6595,6596,6597,6598,0,6687,6688,6689,6690,6691,6692,6693,6694,0,0,0,0,0,0,0,0,0,0,0,0,0,0,0,0,0,0,0,0,0,0,0,0,0,0,0,0,0,0,0,0,0,0,0,0,0,0,0,0,0,0,0,
6623,6624,6625,6626,6627,6628,6629,6630,0,6719,6720,6721,6722,6723,6724,6725,6726,0,0,0,0,0,0,0,0,0,0,0,0,0,0,0,0,0,0,0,0,0,0,0,0,0,0,0,0,0,0,0,0,0,0,0,0,0,0,0,0,0,0,0,
6655,6656,6657,6658,6659,6660,6661,6662,0,6751,6752,6753,6754,6755,6756,6757,6758,0,0,0,0,0,0,0,0,0,0,0,0,0,0,0,0,0,0,0,0,0,0,0,0,0,0,0,0,0,0,0,0,0,0,0,0,0,0,0,0,0,0,0,
6687,6688,6689,6690,6691,6692,6693,6694,0,0,0,0,0,0,0,0,0,0,0,0,0,0,0,0,0,0,0,0,0,0,0,0,0,0,0,0,0,0,0,0,0,0,0,0,0,0,0,0,0,0,0,0,0,0,0,0,0,0,0,0,
6719,6720,6721,6722,6723,6724,6725,6726,0,0,0,0,0,0,0,0,0,0,0,0,0,0,0,0,0,0,0,0,0,0,0,0,0,0,0,0,0,0,0,0,0,0,0,0,0,0,0,0,0,0,0,0,0,0,0,0,0,0,0,0,
6751,6752,6753,6754,6755,6756,6757,6758,0,0,0,0,0,0,0,0,0,0,0,0,0,0,0,0,0,0,0,0,0,0,0,0,0,0,0,0,0,0,0,0,0,0,0,0,0,0,0,0,0,0,0,0,0,0,0,0,0,0,0,0,
0,0,0,0,0,0,0,0,0,0,0,0,0,0,0,0,0,0,0,0,0,0,0,0,0,0,0,0,0,0,0,0,0,0,0,0,0,0,0,0,0,0,0,0,0,0,0,0,0,0,0,0,0,0,0,0,0,0,0,0,
0,0,0,0,0,0,0,0,0,0,0,0,0,0,0,0,0,0,0,0,0,0,0,0,0,0,0,0,0,0,0,0,0,0,0,0,0,0,0,0,0,0,0,0,0,0,0,0,0,0,0,0,0,0,0,0,0,0,0,0,
0,0,0,0,0,0,0,0,0,0,0,0,0,0,0,0,0,0,0,0,0,0,0,0,0,0,0,0,0,0,0,0,0,0,0,0,0,0,0,0,0,0,0,0,0,0,0,0,0,0,0,0,0,0,0,0,0,0,0,0,
0,0,0,0,0,0,0,0,0,0,0,0,0,0,0,0,0,0,0,0,0,0,0,0,0,0,0,0,0,0,0,0,0,0,0,0,0,0,0,0,0,0,0,0,0,0,0,0,0,0,0,0,0,0,0,0,0,0,0,0,
0,0,0,0,0,0,0,0,0,0,0,0,0,0,0,0,0,0,0,0,0,0,0,0,0,0,0,0,0,0,0,0,0,0,0,0,0,0,0,0,0,0,0,0,0,0,0,0,0,0,0,0,0,0,0,0,0,0,0,0,
6796,6797,6798,0,0,0,0,0,0,0,0,0,0,0,0,0,0,0,0,0,0,0,0,0,0,0,0,0,0,0,0,0,0,0,0,0,0,0,0,0,0,0,0,0,0,0,0,0,0,0,0,0,0,0,0,0,0,0,0,0,
6828,6829,6830,0,0,0,0,0,0,0,0,0,0,0,0,0,0,0,0,0,0,0,0,0,0,0,0,0,0,0,0,0,0,0,0,0,0,0,0,0,0,0,0,0,0,0,0,0,0,0,0,0,0,0,0,0,0,0,0,0,
6860,6861,6862,0,0,0,0,0,0,0,0,0,0,0,0,0,0,0,0,0,0,0,0,0,0,0,0,0,0,0,0,0,0,0,0,0,0,0,0,0,0,0,0,0,0,0,0,0,0,0,0,0,0,0,0,0,0,0,0,0,
6892,6893,6894,0,0,0,0,0,0,0,0,0,0,0,0,0,0,0,0,0,0,0,0,0,0,0,0,0,0,0,0,0,0,0,0,0,0,0,0,0,0,0,0,0,0,0,0,0,0,0,0,0,0,0,0,0,0,0,0,0,
0,0,0,0,0,0,0,0,0,0,0,0,0,0,0,0,0,0,0,0,0,0,0,0,0,0,0,0,0,0,0,0,0,0,0,0,0,0,0,0,0,0,0,0,0,0,0,0,0,0,0,0,0,0,0,0,0,0,0,0,
0,0,0,0,0,0,0,0,0,0,0,0,0,0,0,0,0,0,0,0,0,0,0,0,0,0,0,0,0,0,0,0,0,0,0,0,0,0,0,0,0,0,0,0,0,0,0,0,0,0,0,0,0,0,0,0,0,0,0,0,
0,0,0,0,0,0,0,0,0,0,0,0,0,0,0,0,0,0,0,0,0,0,0,0,0,0,0,0,0,0,0,0,0,0,0,0,0,0,0,0,0,0,0,0,0,0,0,0,0,0,0,0,0,0,0,0,0,0,0,0,
0,0,0,0,0,0,0,0,0,0,0,0,0,0,0,0,0,0,0,0,0,0,0,0,0,0,0,0,0,0,0,0,0,0,0,0,0,0,0,0,0,0,0,0,0,0,0,0,0,0,0,0,0,0,0,0,0,0,0,0,
0,6795,6796,6797,6798,0,0,0,0,0,0,0,0,0,0,0,0,0,0,0,0,0,0,0,0,0,0,0,0,0,0,0,0,0,0,0,0,0,0,0,0,0,0,0,0,0,0,0,0,0,0,0,0,0,0,0,6795,6796,6797,6798,
0,6827,6828,6829,6830,0,0,0,0,0,0,0,0,0,0,0,0,0,0,0,0,0,0,0,0,0,0,0,0,0,0,0,0,0,0,0,0,0,0,0,0,0,0,0,0,0,0,0,0,0,0,0,0,0,0,0,6827,6828,6829,6830,
0,6859,6860,6861,6862,0,0,0,0,0,0,0,0,0,0,0,0,0,0,0,0,0,0,0,0,0,0,0,0,0,0,0,0,0,0,0,0,0,0,0,0,0,0,0,0,0,0,0,0,0,0,0,0,0,0,0,6859,6860,6861,6862,
0,6891,6892,6893,0,0,0,6798,0,0,0,0,0,0,0,0,0,0,0,0,0,0,0,0,0,0,0,0,0,0,0,0,0,0,0,0,0,0,0,0,0,0,0,0,0,0,0,0,0,0,0,0,6795,6796,6797,6798,6891,6892,6893,6894,
0,0,0,0,0,0,0,0,0,0,0,0,0,0,0,0,0,0,0,0,0,0,0,0,0,0,0,0,0,0,0,0,0,0,0,0,0,0,0,0,0,0,0,0,0,0,0,0,0,0,0,0,6827,6828,6829,6830,0,0,0,0,
0,0,6791,6792,6793,0,0,0,0,0,6795,6796,6797,6798,0,0,0,0,0,0,0,0,0,0,0,0,0,0,0,0,0,0,0,0,0,0,0,0,0,0,0,0,0,0,0,0,0,0,0,0,0,0,6859,6860,6861,6862,0,0,0,0,
0,0,6823,6824,6825,6826,0,6894,0,0,6827,6828,6829,6830,0,0,0,0,0,0,0,0,0,0,0,0,0,0,0,0,0,0,0,0,0,0,0,0,0,0,0,0,0,0,0,0,0,0,0,0,6791,6792,6793,6794,6893,6894,0,0,0,0,
6795,0,6855,6856,6857,6858,0,0,6798,0,6859,6860,6861,6862,0,0,0,0,0,0,0,0,0,0,0,0,0,0,0,0,0,0,0,0,0,0,0,0,0,0,0,0,0,0,0,0,0,0,0,0,6823,6824,6825,6826,6795,6796,6797,6798,0,0,
0,0,0,6888,6889,6890,0,0,0,0,6891,6795,6796,6797,6798,0,0,0,0,0,0,0,0,0,0,0,0,0,0,0,0,0,0,0,0,0,0,0,0,0,0,0,0,0,0,0,0,6795,6796,6797,6855,6856,6857,6858,6827,6828,6829,6830,0,0,
0,0,0,0,0,0,0,0,0,0,0,6827,6828,6829,6830,0,0,0,0,0,0,0,0,0,0,0,0,0,0,0,0,0,0,0,0,0,0,0,0,0,0,0,0,0,0,0,0,6827,6828,6829,6887,6888,6889,6890,6859,6860,6861,6862,0,0,
0,0,0,0,0,6891,0,0,6894,0,0,6859,6860,6861,6862,0,0,0,0,0,0,0,0,0,0,0,0,0,0,0,0,0,0,0,0,0,0,0,0,0,0,0,0,0,0,0,0,6859,6860,6861,6862,0,0,0,6891,6892,6893,6894,0,0,
0,0,0,0,0,0,0,0,0,0,0,6891,6892,6893,6894,0,0,0,0,0,0,0,0,0,0,0,0,0,0,0,0,0,0,0,0,0,0,0,0,0,0,0,0,0,0,0,0,6891,6892,6893,6894,0,0,0,0,0,0,0,0,0
</data>
 </layer>
 <layer id="4" name="i" width="60" height="40" locked="1">
  <data encoding="csv">
0,0,0,0,0,0,0,0,0,0,0,0,0,0,0,0,0,0,0,0,0,0,0,0,0,0,0,0,7795,7796,7797,7798,0,0,0,0,0,0,0,0,0,0,0,0,0,0,0,0,0,0,0,0,0,0,0,0,0,0,0,0,
0,0,0,0,0,0,0,0,0,0,0,0,0,0,0,0,0,0,0,0,0,0,0,0,0,0,0,0,7827,7828,7829,7830,0,0,0,0,0,0,0,0,0,0,0,0,0,0,0,0,0,0,0,0,0,0,0,0,0,0,0,0,
0,0,0,0,0,0,0,0,0,0,0,0,0,0,0,0,0,0,0,0,0,0,0,0,0,0,0,0,7859,7860,7861,7862,0,0,0,0,0,0,0,0,0,0,0,0,0,0,0,0,0,0,0,0,0,0,0,0,0,0,0,0,
0,0,0,0,0,0,0,0,0,0,0,0,0,0,0,7627,7628,7629,0,0,0,0,0,0,0,0,0,0,7513,7892,7893,7894,0,0,0,0,0,0,0,0,0,0,0,0,0,0,0,0,0,0,0,0,0,0,0,0,0,0,0,0,
0,0,0,0,0,0,0,0,0,0,0,0,0,0,0,7659,7660,7661,0,0,0,0,0,0,0,0,0,0,7545,7924,7925,7926,0,0,0,0,0,0,0,0,0,0,0,0,0,0,0,0,0,0,0,0,0,0,0,0,0,0,0,0,
0,0,0,0,0,0,0,0,0,0,0,0,0,0,0,7691,7692,7693,0,0,0,0,0,0,0,0,0,0,7577,7956,7957,7958,0,0,0,0,0,0,0,0,0,0,0,0,0,0,0,0,0,0,0,0,0,0,0,0,0,0,0,0,
0,0,0,0,0,0,0,0,0,0,0,0,0,0,0,7723,7724,7725,0,0,0,0,0,0,0,0,0,0,0,0,0,0,0,0,0,0,0,0,0,0,0,0,0,0,0,0,0,0,0,0,0,0,0,0,0,0,0,0,0,0,
0,0,0,0,0,0,0,0,0,0,0,0,0,0,0,7755,7756,7757,0,0,0,0,0,0,0,0,0,7988,7989,7990,7991,7992,7993,7994,0,0,0,0,0,0,0,0,0,0,0,0,0,0,0,0,0,0,0,0,0,0,0,0,0,0,
0,0,0,0,0,0,0,0,0,0,0,0,0,0,0,0,0,0,0,0,0,0,0,0,0,0,0,8020,8021,8022,8023,8024,8025,8026,0,0,0,0,0,0,0,0,0,0,0,0,0,0,0,0,0,0,0,0,0,0,0,0,0,0,
0,0,0,0,0,0,0,0,0,0,0,0,0,0,0,0,0,0,0,0,0,0,0,0,0,0,0,8052,8053,8054,8055,8056,8057,8058,0,0,0,0,0,0,0,0,0,0,0,0,0,0,0,0,0,0,0,0,0,0,0,0,0,0,
0,0,0,0,0,0,0,0,0,0,0,0,0,0,0,0,0,0,0,0,0,0,0,0,0,0,0,8084,8085,8086,8087,8088,8089,8090,0,0,0,0,0,0,0,0,0,0,0,0,0,0,0,0,0,0,0,0,0,0,0,0,0,0,
0,0,0,0,0,0,0,7627,7628,7629,0,0,0,0,0,0,0,0,0,0,0,0,0,0,0,0,0,8116,8117,8118,8119,8120,8121,8122,0,0,0,0,0,0,0,0,0,0,0,0,0,0,0,0,0,0,0,0,0,0,0,0,0,0,
0,0,0,0,0,0,0,7659,7660,7661,0,0,0,0,0,0,0,0,0,0,0,0,0,0,0,0,0,8148,8149,8150,8151,8152,8153,8154,0,0,0,0,0,0,0,0,0,0,0,0,0,0,0,0,0,0,0,0,0,0,0,0,0,0,
0,0,0,0,0,0,0,7691,7692,7693,0,0,0,0,0,0,0,0,0,0,0,0,0,0,0,0,0,0,0,0,0,0,0,0,0,0,0,0,0,0,0,0,0,0,0,0,0,0,0,0,0,0,0,0,0,0,0,0,0,0,
0,0,0,0,0,0,0,7723,7724,7725,0,0,0,0,0,0,0,0,0,0,0,0,0,0,0,0,0,0,0,0,0,0,0,0,0,0,0,0,0,0,0,0,0,0,0,0,0,0,0,0,0,0,0,0,0,0,0,0,0,0,
0,0,0,0,0,0,0,7755,7756,7757,0,0,0,0,0,0,0,0,0,0,0,0,0,0,0,0,0,0,0,0,0,0,0,0,0,0,0,0,0,0,0,0,0,0,0,0,0,0,0,0,0,0,0,0,0,0,0,0,0,0,
0,0,0,0,0,0,0,0,0,0,0,0,0,0,0,0,0,0,0,0,0,0,0,0,0,0,0,0,0,0,0,0,0,0,0,0,0,0,0,0,0,0,0,0,0,0,0,0,0,0,0,0,0,0,0,0,0,0,0,0,
0,0,0,7795,7796,7797,7798,0,0,0,0,0,0,0,0,0,0,0,0,0,0,0,0,0,0,0,0,0,0,0,0,0,0,0,0,0,0,0,0,0,0,0,0,0,0,0,0,0,0,0,0,0,0,0,0,7795,7796,7797,7798,0,
0,0,0,7827,7828,7829,7830,0,0,0,0,0,0,0,0,0,0,0,0,0,0,0,0,0,0,0,0,0,0,0,0,0,0,0,0,0,0,0,0,0,0,0,0,0,0,0,0,0,0,0,0,0,0,0,0,7827,7828,7829,7830,0,
0,0,0,7859,7860,7861,7862,0,0,0,0,0,0,0,0,0,0,0,0,0,0,0,0,0,0,0,0,0,0,0,0,0,0,0,0,0,0,0,0,0,0,0,0,0,0,0,0,0,0,0,0,0,0,0,0,7859,7860,7861,7862,0,
0,0,0,7891,7892,7893,7894,0,0,0,0,0,0,0,0,0,0,0,0,0,0,0,0,0,0,0,0,0,0,0,0,0,0,0,0,0,0,0,0,0,0,0,0,0,0,0,0,0,0,0,0,0,0,0,0,7891,7892,7893,7894,0,
0,0,0,7923,7924,7925,7926,0,0,0,0,0,0,0,0,0,0,0,0,0,0,0,0,0,0,0,0,0,0,0,0,0,0,0,0,0,0,0,0,0,0,0,0,0,0,0,0,0,0,0,0,0,0,0,0,7923,7924,7925,7926,0,
0,0,0,7955,7956,7957,7958,0,0,0,0,0,0,0,0,0,0,0,0,0,0,0,0,0,0,0,0,0,0,0,0,0,0,0,0,0,0,0,0,0,0,0,0,0,0,0,0,0,0,0,0,0,0,0,0,7955,7956,7957,7958,0,
0,0,0,0,0,0,0,0,0,0,0,0,0,0,0,0,0,0,0,0,0,0,0,0,0,0,0,0,0,0,0,0,0,0,0,0,0,0,0,0,0,0,0,0,0,0,0,0,0,0,0,0,0,0,0,0,0,0,0,0,
0,0,0,0,0,0,0,0,0,0,0,0,0,0,0,0,0,0,0,0,0,0,0,0,0,0,0,0,0,0,0,0,0,0,0,0,0,0,0,0,0,0,0,0,0,0,0,0,0,0,0,0,0,0,0,0,0,0,0,0,
0,0,0,0,0,0,0,0,0,0,0,0,0,0,0,0,0,0,0,0,0,0,0,0,0,0,0,0,0,0,0,0,0,0,0,0,0,0,0,0,0,0,0,0,0,0,0,0,0,0,0,0,0,0,0,0,0,0,0,0,
0,0,0,0,0,0,0,0,0,0,0,0,0,0,0,0,0,0,0,0,0,0,0,0,0,0,0,0,0,0,0,0,0,0,0,0,0,0,0,0,0,0,0,0,0,0,0,0,0,0,0,0,0,0,0,0,0,0,0,0,
0,0,0,0,0,0,0,0,0,0,0,0,0,0,0,0,0,0,0,0,0,0,0,0,0,0,0,0,0,0,0,0,0,0,0,0,0,0,0,0,0,0,0,0,0,0,0,0,0,0,0,0,0,0,0,0,0,0,0,0,
0,0,0,0,0,0,0,0,0,0,0,0,0,0,0,0,0,0,0,0,0,0,0,0,0,0,0,0,0,0,0,0,0,0,0,0,0,0,0,0,0,0,0,0,0,0,0,0,0,0,0,0,0,0,0,0,0,0,0,0,
0,0,0,0,0,0,0,0,0,0,0,0,0,0,0,0,0,0,0,0,0,0,0,0,0,0,0,0,0,0,0,0,0,0,0,0,0,0,0,0,0,0,0,0,0,0,0,0,0,0,0,0,0,0,0,0,0,0,0,0,
0,0,0,0,0,0,0,0,0,0,0,0,0,0,0,0,0,0,0,0,0,0,0,0,0,0,0,0,0,0,0,0,0,0,0,0,0,0,0,0,0,0,0,0,0,0,0,0,0,0,0,0,0,0,0,0,0,0,0,0,
0,0,0,0,0,0,0,0,0,0,0,0,0,0,0,0,0,0,0,0,0,0,0,0,0,0,0,0,0,0,0,0,0,0,0,0,0,0,0,0,0,0,0,0,0,0,0,0,0,0,0,0,0,0,0,0,0,0,0,0,
0,0,0,0,0,0,0,0,0,0,0,0,0,0,0,0,0,0,0,0,0,0,0,0,0,0,0,0,0,0,0,0,0,0,0,0,0,0,0,0,0,0,0,0,0,0,0,0,0,0,0,0,0,0,0,0,0,0,0,0,
0,0,0,0,0,0,0,0,0,0,0,0,0,0,0,0,0,0,0,0,0,0,0,0,0,0,0,0,0,0,0,0,0,0,0,0,0,0,0,0,0,0,0,0,0,0,0,0,0,0,0,0,0,0,0,0,0,0,0,0,
0,0,0,0,0,0,0,0,0,0,0,0,0,0,0,0,0,0,0,0,0,0,0,0,0,0,0,0,0,0,0,0,0,0,0,0,0,0,0,0,0,0,0,0,0,0,0,0,0,0,0,0,0,0,0,0,0,0,0,0,
0,0,0,0,0,0,0,0,0,0,0,0,0,0,0,0,0,0,0,0,0,8184,8185,8186,8187,0,0,0,0,0,0,0,0,0,8184,8185,8186,8187,0,0,0,0,0,0,0,0,0,0,0,0,0,0,0,0,0,0,0,0,0,0,
0,0,0,0,0,0,0,0,0,0,0,0,0,0,0,0,0,0,0,0,0,8216,8217,8218,8219,0,0,0,0,0,0,0,7876,7877,8216,8217,8218,8219,0,0,0,0,0,0,0,0,0,0,0,0,0,0,0,0,0,0,0,0,0,0,
0,0,0,0,0,0,0,0,0,0,0,0,0,0,0,0,0,0,0,0,0,8248,8249,8250,8251,0,0,0,0,0,0,0,7908,7909,8248,8249,8250,8251,0,0,0,0,0,0,0,0,0,0,0,0,0,0,0,0,0,0,0,0,0,0,
0,0,0,0,0,0,0,0,0,0,0,0,0,0,0,0,0,0,0,0,0,8280,8281,8282,8283,0,0,0,0,0,0,0,7940,7941,8280,8281,8282,8283,0,0,0,0,0,0,0,0,0,0,0,0,0,0,0,0,0,0,0,0,0,0,
0,0,0,0,0,0,0,0,0,0,0,0,0,0,0,0,0,0,0,0,0,0,0,0,0,0,0,0,0,0,0,0,0,0,0,0,0,0,0,0,0,0,0,0,0,0,0,0,0,0,0,0,0,0,0,0,0,0,0,0
</data>
 </layer>
 <layer id="5" name="y" width="60" height="40" locked="1">
  <data encoding="csv">
0,0,0,0,0,0,0,0,0,0,0,0,0,0,7948,7949,7950,0,0,0,0,0,0,0,7524,7525,7526,0,0,0,0,0,0,7912,7913,0,0,0,0,0,0,0,0,0,0,0,0,0,0,0,0,7984,7985,0,0,0,0,0,0,0,
0,0,0,0,0,0,0,0,0,0,0,0,0,0,7980,7981,7982,0,0,0,0,0,0,0,7556,7557,7558,0,0,0,0,7864,7865,7944,7945,0,0,0,0,0,0,0,0,0,0,0,0,0,0,0,0,8016,8017,0,0,0,0,0,0,0,
0,0,0,0,0,0,0,0,0,0,0,0,0,0,8012,8013,8014,0,0,0,0,0,0,0,0,0,0,0,0,0,0,7896,7897,7898,0,0,0,0,0,0,0,0,0,7628,7629,0,0,0,0,0,0,0,0,0,0,0,0,0,0,0,
8044,8045,8046,0,0,0,0,0,0,0,0,0,0,0,0,0,0,0,0,0,0,0,0,0,0,0,0,0,7513,7514,7515,7928,7929,7930,0,0,0,0,0,0,0,0,0,7660,7661,0,0,0,0,0,0,0,0,0,0,0,0,0,0,0,
8076,8077,8078,0,0,0,0,0,0,0,0,0,0,0,0,0,0,0,0,0,0,0,0,0,0,0,0,0,7545,7546,7547,7960,7961,7962,0,0,0,0,0,0,0,0,0,7692,7693,0,7468,7469,0,0,0,0,0,0,0,0,0,0,0,0,
8108,8109,8110,0,0,0,0,0,0,0,0,0,0,0,0,0,0,0,0,0,0,0,0,0,0,0,0,0,7577,7578,7579,7580,0,0,0,0,0,0,0,0,0,0,0,7724,7725,0,7500,7501,0,0,0,0,0,0,0,0,0,0,0,0,
8140,8141,8142,0,0,0,0,0,0,0,0,0,0,0,0,0,0,0,0,0,0,0,0,0,0,0,0,0,7609,7610,7611,7612,0,0,0,0,0,0,0,0,0,0,0,7756,7757,0,7532,7533,0,7468,7469,0,0,0,0,0,0,0,0,0,
0,0,0,0,0,0,0,0,0,0,0,0,0,0,0,0,0,0,0,0,0,0,0,0,0,0,0,0,7641,7642,7643,7644,0,0,0,0,0,0,0,0,0,0,0,0,0,0,7564,7565,0,7500,7501,0,0,0,0,0,0,0,0,0,
0,0,0,0,0,0,0,0,0,7627,7628,7629,0,0,0,0,0,0,0,0,0,0,0,0,0,0,0,0,0,0,0,0,0,0,0,0,0,0,0,0,0,0,0,0,0,0,0,0,0,7532,7533,0,7468,7469,0,0,0,0,0,0,
0,0,0,0,0,0,0,0,0,7659,7660,7661,0,0,0,0,0,0,0,0,0,0,0,0,0,0,0,0,0,0,0,0,0,0,0,0,0,0,0,0,0,0,0,0,0,0,0,0,0,7564,7565,0,7500,7501,0,0,0,0,0,0,
7880,7881,0,0,0,0,0,0,0,7691,7692,7693,0,0,0,0,0,0,0,0,0,0,0,0,0,0,0,0,0,0,0,0,0,0,0,0,0,0,0,0,0,0,0,0,0,0,0,0,0,0,0,0,7532,7533,7628,7629,0,0,0,0,
7912,7913,0,0,0,0,0,0,0,7723,7724,7725,0,0,0,0,0,0,0,0,0,0,0,0,0,0,0,0,0,0,0,0,0,0,0,0,0,0,0,0,0,0,0,0,0,0,0,0,0,0,0,0,7564,7565,7660,7661,0,0,0,0,
7944,7945,0,0,0,0,0,0,0,7755,7756,7757,0,0,0,0,0,0,0,0,0,0,0,0,0,0,0,0,0,0,0,0,0,0,0,0,0,0,0,0,0,0,0,0,0,0,0,0,0,0,0,0,0,0,7692,7693,0,0,0,0,
0,0,0,0,0,0,0,0,0,0,0,0,0,0,0,0,0,0,0,0,0,0,0,0,0,0,0,0,0,0,0,0,0,0,0,0,0,0,0,0,0,0,0,0,0,0,0,0,0,0,0,0,0,0,7724,7725,0,0,0,0,
0,0,0,0,0,7627,7628,7629,0,0,0,0,0,0,0,0,0,0,0,0,0,0,0,0,0,0,0,0,0,0,0,0,0,0,0,0,0,0,0,0,0,0,0,0,0,0,0,0,0,0,0,0,0,0,7756,7757,8393,0,0,0,
0,0,0,0,0,7659,7660,7661,0,0,0,0,0,0,0,0,0,0,0,0,0,0,0,0,0,0,0,0,0,0,0,0,0,0,0,0,0,0,0,0,0,0,0,0,0,0,0,0,0,0,0,0,0,0,0,8424,8425,0,0,0,
0,0,0,0,0,7691,7692,7693,0,0,0,0,0,0,0,0,0,0,0,0,0,0,0,0,0,0,0,0,0,0,0,0,0,0,0,0,0,0,0,0,0,0,0,0,0,0,0,0,0,0,0,0,0,0,0,8456,8457,0,0,0,
0,0,0,0,0,7723,7724,7725,0,0,0,0,0,0,0,0,0,0,0,0,0,0,0,0,0,0,0,0,0,0,0,0,0,0,0,0,0,0,0,0,0,0,0,0,0,0,0,0,0,0,0,0,0,0,0,0,0,0,0,0,
0,0,0,0,0,7755,7638,7639,7640,0,0,0,0,0,0,0,0,0,0,0,0,0,0,0,0,0,0,0,0,0,0,0,0,0,0,0,0,0,0,0,0,0,0,0,0,0,0,0,0,0,0,0,0,0,0,0,0,0,0,0,
0,0,0,0,0,0,7670,7671,7672,0,0,0,0,0,0,0,0,0,0,0,0,0,0,0,0,0,0,0,0,0,0,0,0,0,0,0,0,0,0,0,0,0,0,0,0,0,0,0,0,0,0,0,0,0,0,0,0,0,0,0,
0,0,0,0,0,0,7702,7703,7704,0,0,0,0,0,0,0,0,0,0,0,0,0,0,0,0,0,0,0,0,0,0,0,0,0,0,0,0,0,0,0,0,0,0,0,0,0,0,0,0,0,0,0,0,0,7478,7479,7480,0,0,0,
0,0,0,0,0,0,7734,7735,7736,0,0,0,0,0,0,0,0,0,0,0,0,0,0,0,0,0,0,0,0,0,0,0,0,0,0,0,0,0,0,0,0,0,0,0,0,0,0,0,0,0,0,0,0,0,7510,7511,7512,0,0,0,
0,0,0,0,7820,7821,7766,7767,7768,0,0,0,0,0,0,0,0,0,0,0,0,0,0,0,0,0,0,0,0,0,0,0,0,0,0,0,0,0,0,0,0,0,0,0,0,0,0,0,0,0,0,0,0,0,7542,7543,7544,7821,0,0,
0,0,0,0,7852,7853,0,0,0,0,0,0,0,0,0,0,0,0,0,0,0,0,0,0,0,0,0,0,0,0,0,0,0,0,0,0,0,0,0,0,0,0,0,0,0,0,0,0,0,0,0,0,0,0,7574,7575,7576,7853,0,0,
0,0,0,0,7884,7885,7833,7834,0,0,0,0,0,0,0,0,0,0,0,0,0,0,0,0,0,0,0,0,0,0,0,0,0,0,0,0,0,0,0,0,0,0,0,0,0,0,0,0,0,0,0,0,0,0,0,0,7884,7885,0,0,
0,0,0,0,0,7864,7865,7866,0,0,0,0,0,0,0,0,0,0,0,0,0,0,0,0,0,0,0,0,0,0,0,0,0,0,0,0,0,0,0,0,0,0,0,0,0,0,0,0,0,0,0,0,0,0,0,0,0,0,0,0,
0,0,0,0,0,7896,7897,7898,0,0,0,0,0,0,0,0,0,0,0,0,0,0,0,0,0,0,0,0,0,0,0,0,0,0,0,0,0,0,0,0,0,0,0,0,0,0,0,0,0,0,0,0,0,0,0,8007,8008,8009,8010,0,
0,0,0,0,0,7928,7929,7930,0,0,0,0,0,0,0,0,0,0,0,0,0,0,0,0,0,0,0,0,0,0,0,0,0,0,0,0,0,0,0,0,0,0,0,0,0,0,0,0,0,0,0,0,0,0,0,8039,8040,8041,8042,0,
0,0,0,0,0,7960,8286,8287,8288,8289,8290,0,0,0,0,0,0,0,0,0,0,0,0,0,0,0,0,0,0,0,0,0,0,0,0,0,0,0,0,0,0,0,0,0,0,0,0,0,0,0,0,0,0,0,0,8071,8072,8073,8074,0,
0,0,0,0,0,0,8318,8319,8320,8321,8322,0,0,0,0,0,0,0,0,0,0,0,0,0,0,0,0,0,0,0,0,0,0,0,0,0,0,0,0,0,0,0,0,0,0,0,0,0,0,0,0,0,0,8432,8433,8103,8104,8105,8106,0,
0,0,0,0,0,0,8350,8351,8352,8353,8354,0,0,0,0,0,0,0,0,0,0,0,0,0,0,0,0,0,0,0,0,0,0,0,0,0,0,0,0,0,0,0,0,0,0,0,0,0,0,0,0,0,0,8464,8465,0,0,0,0,0,
0,0,0,0,7916,7917,7918,8383,8384,8385,8386,0,0,0,0,0,0,0,0,0,0,0,0,0,0,0,0,0,0,0,0,0,0,0,0,0,0,0,0,0,0,0,0,0,0,0,0,0,0,0,0,0,0,0,0,0,0,0,0,0,
0,0,0,0,7948,7949,7950,0,0,0,0,0,0,0,0,0,0,0,0,0,0,0,0,0,0,0,0,0,0,0,0,0,0,0,0,0,0,0,0,0,0,0,0,0,0,0,0,0,0,0,0,0,0,0,7916,7917,7918,0,0,0,
0,0,0,0,7980,7981,7982,0,0,0,0,0,0,0,0,0,0,0,0,0,0,0,0,0,0,0,0,0,0,0,0,0,0,0,0,0,0,0,0,0,0,0,0,0,0,0,0,0,0,0,7880,7881,0,0,7948,7949,7950,0,0,0,
0,0,0,0,8012,8013,8014,0,0,0,0,0,0,0,0,0,0,0,0,0,0,0,0,0,0,0,0,0,0,0,0,0,0,0,0,0,0,0,0,0,0,0,0,0,0,0,0,0,0,0,7912,7913,0,0,7980,7981,7982,0,0,0,
0,0,0,0,0,0,0,0,0,0,0,0,0,0,0,0,0,0,0,0,0,0,0,0,0,0,0,0,0,0,0,0,0,0,0,0,0,0,0,0,0,0,0,0,0,0,0,0,0,0,7944,7945,0,0,8012,8013,8014,0,0,0,
0,0,0,0,0,0,0,0,0,0,0,0,0,0,0,0,0,0,0,7706,7707,7708,0,0,0,7748,7749,0,0,0,0,0,0,0,0,0,0,0,7706,7707,7708,0,0,0,0,0,0,0,0,0,0,0,0,0,0,0,8007,8008,8009,8010,
0,0,0,0,0,0,0,0,0,0,0,0,0,0,0,0,0,0,0,7738,7739,7740,0,0,0,7780,7781,0,0,0,0,0,0,0,0,0,0,0,7738,7739,7740,0,0,0,0,0,0,0,0,0,0,0,0,0,0,0,8039,8040,8041,8042,
0,0,0,0,0,0,0,0,0,0,0,0,0,0,0,0,0,0,0,7770,7771,7772,0,0,0,7812,7813,0,0,0,0,0,0,0,0,0,0,0,7770,7771,7772,0,0,0,0,0,0,0,0,0,0,0,0,0,0,0,8071,8072,8073,8074,
0,0,0,0,0,0,0,0,0,0,0,0,0,0,0,0,0,0,0,0,0,0,0,0,0,0,0,0,0,0,0,0,0,0,0,0,0,0,0,0,0,0,0,0,0,0,0,0,0,0,0,0,0,0,0,0,8103,8104,8105,8106
</data>
 </layer>
</map>
